;FLAVOR:UltiGCode
;TIME:2910
;MATERIAL:6320
;MATERIAL2:0
;NOZZLE_DIAMETER:0.4
;MINX:82.976
;MINY:82.976
;MINZ:0.3
;MAXX:140.024
;MAXY:140.024
;MAXZ:11.9
;Generated with Cura_SteamEngine 4.3.0
M82 ;absolute extrusion mode

G92 E0
G92 E0
G10
;LAYER_COUNT:59
;LAYER:0
M106 S178.5
G0 F4500 X90.109 Y90.668 Z0.3
;TYPE:SKIRT
G11
G1 F1800 X90.619 Y90.159 E0.07566
G1 X90.7 Y90.081 E0.08746
G1 X91.313 Y89.507 E0.17564
G1 X91.414 Y89.415 E0.18999
G1 X92.004 Y88.904 E0.27194
G1 X92.094 Y88.829 E0.28424
G1 X92.65 Y88.379 E0.35935
G1 X92.752 Y88.3 E0.3729
G1 X93.393 Y87.819 E0.45704
G1 X93.5 Y87.742 E0.47088
G1 X94.14 Y87.298 E0.55267
G1 X94.238 Y87.232 E0.56508
G1 X94.934 Y86.783 E0.65205
G1 X95.045 Y86.714 E0.66577
G1 X95.599 Y86.385 E0.73342
G1 X95.704 Y86.325 E0.74612
G1 X96.497 Y85.89 E0.84109
G1 X96.616 Y85.828 E0.85518
G1 X97.284 Y85.494 E0.9336
G1 X97.389 Y85.443 E0.94586
G1 X98.073 Y85.129 E1.02488
G1 X98.186 Y85.08 E1.03781
G1 X98.852 Y84.802 E1.11359
G1 X98.974 Y84.754 E1.12736
G1 X99.813 Y84.44 E1.22142
G1 X99.936 Y84.396 E1.23514
G1 X100.603 Y84.174 E1.30895
G1 X100.717 Y84.139 E1.32147
G1 X101.502 Y83.907 E1.40742
G1 X101.628 Y83.872 E1.42115
G1 X102.324 Y83.694 E1.49658
G1 X102.443 Y83.666 E1.50942
G1 X103.26 Y83.487 E1.59724
G1 X103.381 Y83.462 E1.61021
G1 X104.022 Y83.345 E1.67863
G1 X104.153 Y83.324 E1.69256
G1 X105.14 Y83.182 E1.79726
G1 X105.261 Y83.167 E1.81006
G1 X105.841 Y83.104 E1.87132
G1 X105.964 Y83.092 E1.8843
G1 X106.835 Y83.028 E1.976
G1 X106.966 Y83.021 E1.98977
G1 X107.991 Y82.984 E2.09747
G1 X108.082 Y82.982 E2.10703
G1 X108.673 Y82.976 E2.16909
G1 X108.71 Y82.976 E2.17297
G1 X114.472 Y82.977 E2.77798
G1 X114.582 Y82.979 E2.78953
G1 X116.078 Y83.026 E2.94669
G1 X116.216 Y83.033 E2.9612
G1 X117.036 Y83.091 E3.04751
G1 X117.161 Y83.102 E3.06069
G1 X117.639 Y83.153 E3.11116
G1 X117.759 Y83.168 E3.12386
G1 X118.791 Y83.314 E3.2333
G1 X118.916 Y83.334 E3.24659
G1 X119.527 Y83.443 E3.31176
G1 X119.652 Y83.467 E3.32513
G1 X120.476 Y83.645 E3.41364
G1 X120.602 Y83.675 E3.42724
G1 X121.317 Y83.857 E3.50471
G1 X121.431 Y83.888 E3.51712
G1 X122.239 Y84.123 E3.60547
G1 X122.367 Y84.163 E3.61955
G1 X123.008 Y84.376 E3.69048
G1 X123.125 Y84.417 E3.70349
G1 X123.956 Y84.726 E3.79658
G1 X124.072 Y84.772 E3.80969
G1 X124.714 Y85.037 E3.88261
G1 X124.825 Y85.085 E3.89531
G1 X125.555 Y85.416 E3.97947
G1 X125.668 Y85.469 E3.99258
G1 X126.31 Y85.788 E4.06785
G1 X126.429 Y85.85 E4.08194
G1 X127.245 Y86.295 E4.17953
G1 X127.355 Y86.358 E4.19284
G1 X127.915 Y86.69 E4.2612
G1 X128.014 Y86.751 E4.27341
G1 X128.706 Y87.193 E4.35963
G1 X128.818 Y87.267 E4.37372
G1 X129.438 Y87.697 E4.45295
G1 X129.536 Y87.768 E4.46565
G1 X130.173 Y88.243 E4.54909
G1 X130.272 Y88.32 E4.56226
G1 X130.874 Y88.803 E4.6433
G1 X130.972 Y88.885 E4.65671
G1 X131.545 Y89.38 E4.73622
G1 X131.636 Y89.461 E4.74901
G1 X132.232 Y90.013 E4.83431
G1 X132.332 Y90.109 E4.84886
G1 X132.841 Y90.619 E4.92452
G1 X132.919 Y90.7 E4.93633
G1 X133.493 Y91.313 E5.02451
G1 X133.585 Y91.414 E5.03885
G1 X134.096 Y92.004 E5.12081
G1 X134.171 Y92.094 E5.13311
G1 X134.621 Y92.65 E5.20821
G1 X134.7 Y92.752 E5.22176
G1 X135.181 Y93.393 E5.30591
G1 X135.258 Y93.5 E5.31975
G1 X135.702 Y94.14 E5.40154
G1 X135.768 Y94.238 E5.41394
G1 X136.21 Y94.923 E5.49954
G1 X136.278 Y95.032 E5.51303
G1 X136.614 Y95.597 E5.58205
G1 X136.674 Y95.703 E5.59484
G1 X137.108 Y96.494 E5.68958
G1 X137.171 Y96.614 E5.70381
G1 X137.506 Y97.284 E5.78246
G1 X137.557 Y97.389 E5.79472
G1 X137.871 Y98.073 E5.87374
G1 X137.92 Y98.186 E5.88668
G1 X138.198 Y98.852 E5.96245
G1 X138.246 Y98.974 E5.97622
G1 X138.56 Y99.813 E6.07028
G1 X138.603 Y99.934 E6.08377
G1 X138.825 Y100.6 E6.15748
G1 X138.862 Y100.717 E6.17036
G1 X139.094 Y101.503 E6.25641
G1 X139.128 Y101.628 E6.27002
G1 X139.306 Y102.324 E6.34545
G1 X139.334 Y102.443 E6.35828
G1 X139.513 Y103.26 E6.4461
G1 X139.538 Y103.38 E6.45897
G1 X139.655 Y104.02 E6.52729
G1 X139.676 Y104.153 E6.54143
G1 X139.818 Y105.141 E6.64623
G1 X139.833 Y105.26 E6.65883
G1 X139.896 Y105.838 E6.71988
G1 X139.908 Y105.962 E6.73296
G1 X139.972 Y106.835 E6.82487
G1 X139.979 Y106.966 E6.83864
G1 X140.016 Y107.99 E6.94623
G1 X140.018 Y108.081 E6.95579
G1 X140.024 Y108.673 E7.01795
G1 X140.024 Y108.71 E7.02184
G1 X140.023 Y114.472 E7.62685
G1 X140.021 Y114.582 E7.6384
G1 X139.974 Y116.078 E7.79556
G1 X139.967 Y116.216 E7.81007
G1 X139.909 Y117.036 E7.89638
G1 X139.898 Y117.161 E7.90956
G1 X139.847 Y117.639 E7.96003
G1 X139.832 Y117.759 E7.97273
G1 X139.686 Y118.791 E8.08217
G1 X139.666 Y118.916 E8.09546
G1 X139.557 Y119.527 E8.16063
G1 X139.532 Y119.653 E8.17412
G1 X139.354 Y120.476 E8.26253
G1 X139.326 Y120.597 E8.27557
G1 X139.145 Y121.311 E8.35291
G1 X139.112 Y121.431 E8.36598
G1 X138.876 Y122.241 E8.45457
G1 X138.837 Y122.367 E8.46841
G1 X138.624 Y123.008 E8.53934
G1 X138.583 Y123.125 E8.55236
G1 X138.274 Y123.956 E8.64545
G1 X138.228 Y124.072 E8.65855
G1 X137.963 Y124.714 E8.73148
G1 X137.915 Y124.825 E8.74418
G1 X137.584 Y125.555 E8.82834
G1 X137.531 Y125.667 E8.84135
G1 X137.216 Y126.301 E8.91568
G1 X137.154 Y126.42 E8.92977
G1 X136.705 Y127.244 E9.0283
G1 X136.643 Y127.353 E9.04147
G1 X136.312 Y127.912 E9.10968
G1 X136.249 Y128.015 E9.12236
G1 X135.809 Y128.703 E9.20811
G1 X135.737 Y128.811 E9.22174
G1 X135.304 Y129.436 E9.30157
G1 X135.232 Y129.536 E9.31451
G1 X134.757 Y130.173 E9.39794
G1 X134.68 Y130.272 E9.41111
G1 X134.197 Y130.874 E9.49215
G1 X134.114 Y130.974 E9.5058
G1 X133.622 Y131.543 E9.58478
G1 X133.544 Y131.631 E9.59713
G1 X132.989 Y132.231 E9.68295
G1 X132.894 Y132.33 E9.69736
G1 X132.389 Y132.835 E9.77234
G1 X132.304 Y132.916 E9.78467
G1 X131.686 Y133.494 E9.87352
G1 X131.586 Y133.585 E9.88772
G1 X130.996 Y134.096 E9.96967
G1 X130.906 Y134.171 E9.98197
G1 X130.35 Y134.621 E10.05708
G1 X130.247 Y134.701 E10.07077
G1 X129.607 Y135.181 E10.15477
G1 X129.502 Y135.257 E10.16838
G1 X128.861 Y135.702 E10.25032
G1 X128.762 Y135.768 E10.26281
G1 X128.077 Y136.21 E10.34841
G1 X127.968 Y136.278 E10.3619
G1 X127.403 Y136.614 E10.43092
G1 X127.297 Y136.674 E10.44371
G1 X126.506 Y137.108 E10.53845
G1 X126.386 Y137.171 E10.55268
G1 X125.716 Y137.506 E10.63133
G1 X125.611 Y137.557 E10.64359
G1 X124.927 Y137.871 E10.72261
G1 X124.814 Y137.92 E10.73555
G1 X124.148 Y138.198 E10.81132
G1 X124.026 Y138.246 E10.82509
G1 X123.187 Y138.56 E10.91915
G1 X123.064 Y138.604 E10.93287
G1 X122.397 Y138.826 E11.00668
G1 X122.283 Y138.861 E11.0192
G1 X121.498 Y139.093 E11.10515
G1 X121.372 Y139.128 E11.11888
G1 X120.676 Y139.306 E11.19431
G1 X120.557 Y139.334 E11.20715
G1 X119.74 Y139.513 E11.29497
G1 X119.619 Y139.538 E11.30794
G1 X118.978 Y139.655 E11.37636
G1 X118.847 Y139.676 E11.39029
G1 X117.86 Y139.818 E11.49499
G1 X117.739 Y139.833 E11.50779
G1 X117.159 Y139.896 E11.56905
G1 X117.036 Y139.908 E11.58203
G1 X116.165 Y139.972 E11.67373
G1 X116.034 Y139.979 E11.68751
G1 X115.009 Y140.016 E11.7952
G1 X114.918 Y140.018 E11.80476
G1 X114.327 Y140.024 E11.86682
G1 X114.29 Y140.024 E11.8707
G1 X108.528 Y140.023 E12.47571
G1 X108.418 Y140.021 E12.48726
G1 X106.922 Y139.974 E12.64442
G1 X106.784 Y139.967 E12.65893
G1 X105.964 Y139.909 E12.74524
G1 X105.839 Y139.898 E12.75842
G1 X105.361 Y139.847 E12.8089
G1 X105.241 Y139.832 E12.82159
G1 X104.209 Y139.686 E12.93103
G1 X104.084 Y139.666 E12.94432
G1 X103.473 Y139.557 E13.00949
G1 X103.348 Y139.533 E13.02286
G1 X102.524 Y139.355 E13.11137
G1 X102.398 Y139.325 E13.12497
G1 X101.683 Y139.143 E13.20244
G1 X101.569 Y139.112 E13.21485
G1 X100.761 Y138.877 E13.3032
G1 X100.633 Y138.837 E13.31728
G1 X99.992 Y138.624 E13.38821
G1 X99.875 Y138.583 E13.40122
G1 X99.044 Y138.274 E13.49432
G1 X98.928 Y138.228 E13.50742
G1 X98.286 Y137.963 E13.58034
G1 X98.175 Y137.915 E13.59304
G1 X97.445 Y137.584 E13.6772
G1 X97.332 Y137.531 E13.69031
G1 X96.69 Y137.212 E13.76558
G1 X96.571 Y137.15 E13.77967
G1 X95.755 Y136.705 E13.87726
G1 X95.645 Y136.642 E13.89057
G1 X95.085 Y136.31 E13.95893
G1 X94.986 Y136.249 E13.97114
G1 X94.294 Y135.807 E14.05736
G1 X94.181 Y135.732 E14.0716
G1 X93.56 Y135.301 E14.15097
G1 X93.464 Y135.231 E14.16344
G1 X92.828 Y134.757 E14.24673
G1 X92.728 Y134.68 E14.25998
G1 X92.125 Y134.196 E14.34117
G1 X92.027 Y134.115 E14.35452
G1 X91.455 Y133.621 E14.43388
G1 X91.364 Y133.539 E14.44674
G1 X90.767 Y132.986 E14.53219
G1 X90.667 Y132.89 E14.54674
G1 X90.159 Y132.381 E14.62225
G1 X90.081 Y132.3 E14.63406
G1 X89.506 Y131.686 E14.72238
G1 X89.414 Y131.584 E14.73681
G1 X88.904 Y130.995 E14.81861
G1 X88.829 Y130.906 E14.83083
G1 X88.378 Y130.349 E14.90609
G1 X88.298 Y130.246 E14.91978
G1 X87.818 Y129.606 E15.00378
G1 X87.742 Y129.501 E15.01739
G1 X87.297 Y128.86 E15.09932
G1 X87.23 Y128.76 E15.11196
G1 X86.789 Y128.076 E15.19742
G1 X86.723 Y127.969 E15.21062
G1 X86.386 Y127.403 E15.27978
G1 X86.324 Y127.294 E15.29295
G1 X85.891 Y126.504 E15.38754
G1 X85.829 Y126.386 E15.40154
G1 X85.494 Y125.716 E15.48019
G1 X85.443 Y125.611 E15.49245
G1 X85.129 Y124.927 E15.57148
G1 X85.08 Y124.814 E15.58441
G1 X84.802 Y124.148 E15.66019
G1 X84.754 Y124.026 E15.67395
G1 X84.44 Y123.187 E15.76801
G1 X84.396 Y123.064 E15.78173
G1 X84.174 Y122.397 E15.85554
G1 X84.139 Y122.283 E15.86807
G1 X83.907 Y121.498 E15.95401
G1 X83.872 Y121.372 E15.96775
G1 X83.694 Y120.676 E16.04318
G1 X83.666 Y120.557 E16.05601
G1 X83.487 Y119.74 E16.14383
G1 X83.462 Y119.619 E16.15681
G1 X83.345 Y118.978 E16.22522
G1 X83.324 Y118.847 E16.23915
G1 X83.182 Y117.86 E16.34386
G1 X83.167 Y117.739 E16.35666
G1 X83.104 Y117.159 E16.41792
G1 X83.092 Y117.036 E16.43089
G1 X83.028 Y116.165 E16.52259
G1 X83.021 Y116.034 E16.53637
G1 X82.984 Y115.01 E16.64396
G1 X82.982 Y114.919 E16.65352
G1 X82.976 Y114.327 E16.71568
G1 X82.976 Y114.29 E16.71957
G1 X82.977 Y108.528 E17.32458
G1 X82.979 Y108.418 E17.33613
G1 X83.026 Y106.922 E17.49328
G1 X83.033 Y106.784 E17.50779
G1 X83.091 Y105.964 E17.59411
G1 X83.102 Y105.839 E17.60728
G1 X83.153 Y105.361 E17.65776
G1 X83.168 Y105.241 E17.67046
G1 X83.314 Y104.209 E17.7799
G1 X83.334 Y104.084 E17.79319
G1 X83.443 Y103.473 E17.85836
G1 X83.467 Y103.348 E17.87172
G1 X83.645 Y102.524 E17.96024
G1 X83.674 Y102.401 E17.97351
G1 X83.855 Y101.688 E18.05074
G1 X83.888 Y101.569 E18.06371
G1 X84.124 Y100.759 E18.1523
G1 X84.163 Y100.633 E18.16615
G1 X84.376 Y99.992 E18.23707
G1 X84.417 Y99.875 E18.25009
G1 X84.726 Y99.044 E18.34318
G1 X84.772 Y98.928 E18.35628
G1 X85.037 Y98.286 E18.42921
G1 X85.086 Y98.173 E18.44214
G1 X85.425 Y97.427 E18.52818
G1 X85.477 Y97.317 E18.54096
G1 X85.788 Y96.691 E18.61435
G1 X85.85 Y96.571 E18.62853
G1 X86.295 Y95.755 E18.72613
G1 X86.357 Y95.647 E18.7392
G1 X86.688 Y95.088 E18.80741
G1 X86.751 Y94.985 E18.82009
G1 X87.194 Y94.292 E18.90645
G1 X87.267 Y94.182 E18.92032
G1 X87.697 Y93.562 E18.99954
G1 X87.768 Y93.464 E19.01225
G1 X88.243 Y92.827 E19.09568
G1 X88.32 Y92.728 E19.10885
G1 X88.803 Y92.126 E19.18989
G1 X88.885 Y92.028 E19.20331
G1 X89.38 Y91.455 E19.28281
G1 X89.461 Y91.364 E19.2956
G1 X90.013 Y90.768 E19.3809
G1 X90.109 Y90.668 E19.39546
G0 F4500 X90.356 Y90.916
G1 F1800 X90.866 Y90.407 E19.47111
G1 X90.939 Y90.336 E19.48181
G1 X91.552 Y89.762 E19.56998
G1 X91.643 Y89.68 E19.58285
G1 X92.233 Y89.169 E19.6648
G1 X92.315 Y89.101 E19.67599
G1 X92.871 Y88.651 E19.75109
G1 X92.962 Y88.579 E19.76328
G1 X93.603 Y88.098 E19.84742
G1 X93.699 Y88.029 E19.85984
G1 X94.339 Y87.585 E19.94162
G1 X94.428 Y87.526 E19.95284
G1 X95.124 Y87.077 E20.0398
G1 X95.224 Y87.015 E20.05216
G1 X95.778 Y86.686 E20.11981
G1 X95.872 Y86.632 E20.1312
G1 X96.665 Y86.197 E20.22617
G1 X96.772 Y86.141 E20.23885
G1 X97.44 Y85.807 E20.31727
G1 X97.535 Y85.762 E20.3283
G1 X98.219 Y85.448 E20.40733
G1 X98.321 Y85.403 E20.41903
G1 X98.987 Y85.125 E20.49481
G1 X99.097 Y85.081 E20.50725
G1 X99.936 Y84.767 E20.60131
G1 X100.046 Y84.728 E20.61357
G1 X100.713 Y84.506 E20.68738
G1 X100.816 Y84.474 E20.69871
G1 X101.601 Y84.242 E20.78466
G1 X101.714 Y84.211 E20.79696
G1 X102.41 Y84.033 E20.87239
G1 X102.517 Y84.008 E20.88393
G1 X103.334 Y83.829 E20.97175
G1 X103.444 Y83.807 E20.98353
G1 X104.085 Y83.69 E21.05194
G1 X104.203 Y83.67 E21.06451
G1 X105.19 Y83.528 E21.16921
G1 X105.299 Y83.515 E21.18074
G1 X105.879 Y83.452 E21.242
G1 X105.989 Y83.442 E21.25359
G1 X106.86 Y83.378 E21.3453
G1 X106.978 Y83.371 E21.35771
G1 X108.003 Y83.334 E21.4654
G1 X108.086 Y83.332 E21.47412
G1 X108.677 Y83.326 E21.53618
G1 X108.71 Y83.326 E21.53964
G1 X114.472 Y83.327 E22.14465
G1 X114.571 Y83.329 E22.15505
G1 X116.067 Y83.376 E22.31221
G1 X116.191 Y83.382 E22.32524
G1 X117.011 Y83.44 E22.41156
G1 X117.124 Y83.45 E22.42347
G1 X117.602 Y83.501 E22.47395
G1 X117.71 Y83.514 E22.48537
G1 X118.742 Y83.66 E22.59481
G1 X118.855 Y83.678 E22.60682
G1 X119.466 Y83.787 E22.67199
G1 X119.578 Y83.81 E22.68399
G1 X120.402 Y83.988 E22.77251
G1 X120.515 Y84.014 E22.78468
G1 X121.23 Y84.196 E22.86215
G1 X121.334 Y84.224 E22.87346
G1 X122.142 Y84.459 E22.96182
G1 X122.256 Y84.495 E22.97437
G1 X122.897 Y84.708 E23.04529
G1 X123.003 Y84.745 E23.05708
G1 X123.834 Y85.054 E23.15017
G1 X123.938 Y85.095 E23.16191
G1 X124.58 Y85.36 E23.23484
G1 X124.68 Y85.403 E23.24627
G1 X125.41 Y85.734 E23.33043
G1 X125.512 Y85.783 E23.34231
G1 X126.154 Y86.102 E23.41759
G1 X126.261 Y86.158 E23.43027
G1 X127.077 Y86.603 E23.52786
G1 X127.176 Y86.659 E23.5398
G1 X127.736 Y86.991 E23.60816
G1 X127.826 Y87.046 E23.61923
G1 X128.518 Y87.488 E23.70545
G1 X128.618 Y87.555 E23.71809
G1 X129.238 Y87.985 E23.79731
G1 X129.327 Y88.049 E23.80882
G1 X129.964 Y88.524 E23.89226
G1 X130.053 Y88.593 E23.90408
G1 X130.655 Y89.076 E23.98512
G1 X130.744 Y89.149 E23.99721
G1 X131.317 Y89.644 E24.07671
G1 X131.398 Y89.718 E24.08823
G1 X131.994 Y90.27 E24.17353
G1 X132.084 Y90.356 E24.1866
G1 X132.593 Y90.866 E24.26226
G1 X132.664 Y90.939 E24.27295
G1 X133.238 Y91.552 E24.36113
G1 X133.32 Y91.643 E24.37399
G1 X133.831 Y92.233 E24.45595
G1 X133.899 Y92.315 E24.46713
G1 X134.349 Y92.871 E24.54224
G1 X134.421 Y92.962 E24.55442
G1 X134.902 Y93.603 E24.63857
G1 X134.971 Y93.699 E24.65098
G1 X135.415 Y94.339 E24.73277
G1 X135.474 Y94.428 E24.74398
G1 X135.916 Y95.113 E24.82958
G1 X135.977 Y95.211 E24.8417
G1 X136.313 Y95.776 E24.91072
G1 X136.368 Y95.872 E24.92234
G1 X136.802 Y96.663 E25.01708
G1 X136.858 Y96.77 E25.02976
G1 X137.193 Y97.44 E25.10841
G1 X137.238 Y97.535 E25.11945
G1 X137.552 Y98.219 E25.19847
G1 X137.597 Y98.321 E25.21018
G1 X137.875 Y98.987 E25.28596
G1 X137.919 Y99.097 E25.2984
G1 X138.233 Y99.936 E25.39246
G1 X138.271 Y100.045 E25.40458
G1 X138.493 Y100.711 E25.47829
G1 X138.526 Y100.816 E25.48985
G1 X138.758 Y101.602 E25.5759
G1 X138.789 Y101.714 E25.5881
G1 X138.967 Y102.41 E25.66353
G1 X138.992 Y102.517 E25.67507
G1 X139.171 Y103.334 E25.76289
G1 X139.193 Y103.443 E25.77457
G1 X139.31 Y104.083 E25.84288
G1 X139.33 Y104.202 E25.85555
G1 X139.472 Y105.19 E25.96036
G1 X139.485 Y105.298 E25.97178
G1 X139.548 Y105.876 E26.03283
G1 X139.559 Y105.988 E26.04464
G1 X139.623 Y106.861 E26.13656
G1 X139.629 Y106.978 E26.14886
G1 X139.666 Y108.002 E26.25645
G1 X139.668 Y108.085 E26.26516
G1 X139.674 Y108.677 E26.32733
G1 X139.674 Y108.71 E26.33079
G1 X139.673 Y114.472 E26.9358
G1 X139.671 Y114.571 E26.9462
G1 X139.624 Y116.067 E27.10336
G1 X139.618 Y116.191 E27.11639
G1 X139.56 Y117.011 E27.20271
G1 X139.55 Y117.124 E27.21462
G1 X139.499 Y117.602 E27.26509
G1 X139.486 Y117.71 E27.27652
G1 X139.34 Y118.742 E27.38595
G1 X139.322 Y118.855 E27.39797
G1 X139.213 Y119.466 E27.46314
G1 X139.19 Y119.579 E27.47525
G1 X139.012 Y120.402 E27.56366
G1 X138.987 Y120.511 E27.5754
G1 X138.806 Y121.225 E27.65274
G1 X138.776 Y121.333 E27.66451
G1 X138.54 Y122.143 E27.7531
G1 X138.505 Y122.256 E27.76552
G1 X138.292 Y122.897 E27.83644
G1 X138.255 Y123.003 E27.84823
G1 X137.946 Y123.834 E27.94132
G1 X137.905 Y123.938 E27.95306
G1 X137.64 Y124.58 E28.02599
G1 X137.597 Y124.68 E28.03742
G1 X137.266 Y125.41 E28.12158
G1 X137.217 Y125.512 E28.13346
G1 X136.902 Y126.146 E28.20779
G1 X136.847 Y126.252 E28.22033
G1 X136.398 Y127.076 E28.31886
G1 X136.342 Y127.175 E28.33081
G1 X136.011 Y127.734 E28.39902
G1 X135.954 Y127.827 E28.41047
G1 X135.514 Y128.515 E28.49622
