;FLAVOR:UltiGCode
;TIME:6887
;MATERIAL:17220
;MATERIAL2:0
;NOZZLE_DIAMETER:0.4
;MINX:76.699
;MINY:76.698
;MINZ:0.36
;MAXX:146.3
;MAXY:146.299
;MAXZ:40.06
;Generated with Cura_SteamEngine 4.3.0
M82 ;absolute extrusion mode

G92 E0
G92 E0
G10
;LAYER_COUNT:194
;LAYER:-6
M107
G0 F9000 X78.335 Y78.312 Z0.36
;TYPE:SUPPORT-INTERFACE
G11
G1 F1350 X78.42 Y78.233 E0.03342
G1 X78.715 Y77.974 E0.14648
G1 X78.93 Y77.807 E0.22488
G1 X79.161 Y77.651 E0.30516
G1 X79.429 Y77.493 E0.39476
G1 X79.686 Y77.363 E0.47771
G1 X79.956 Y77.247 E0.56234
G1 X80.212 Y77.155 E0.64068
G1 X80.504 Y77.071 E0.72819
G1 X80.765 Y77.015 E0.80507
G1 X81.085 Y76.967 E0.89826
G1 X81.553 Y76.931 E1.03344
G1 X81.745 Y76.924 E1.08878
G1 X141.296 Y76.924 E18.23946
G1 X141.422 Y76.928 E18.27577
G1 X141.799 Y76.952 E18.38457
G1 X142.097 Y76.989 E18.47105
G1 X142.381 Y77.044 E18.55436
G1 X142.672 Y77.12 E18.64098
G1 X142.93 Y77.204 E18.71912
G1 X143.209 Y77.315 E18.8056
G1 X143.467 Y77.437 E18.88779
G1 X143.726 Y77.581 E18.97314
G1 X143.945 Y77.72 E19.04784
G1 X144.211 Y77.918 E19.14334
G1 X144.565 Y78.222 E19.27773
G1 X144.687 Y78.334 E19.32543
G1 X144.766 Y78.419 E19.35885
G1 X145.025 Y78.714 E19.4719
G1 X145.192 Y78.929 E19.55031
G1 X145.348 Y79.16 E19.63059
G1 X145.506 Y79.428 E19.72019
G1 X145.638 Y79.687 E19.80391
G1 X145.741 Y79.926 E19.87886
G1 X145.846 Y80.218 E19.96823
G1 X145.927 Y80.5 E20.05273
G1 X145.983 Y80.754 E20.12764
G1 X146.032 Y81.084 E20.22372
G1 X146.068 Y81.545 E20.35689
G1 X146.075 Y81.73 E20.41021
G1 X146.075 Y141.295 E37.56493
G1 X146.071 Y141.421 E37.60123
G1 X146.047 Y141.798 E37.71003
G1 X146.01 Y142.096 E37.79651
G1 X145.955 Y142.38 E37.87982
G1 X145.879 Y142.671 E37.96644
G1 X145.795 Y142.929 E38.04459
G1 X145.684 Y143.208 E38.13106
G1 X145.562 Y143.466 E38.21326
G1 X145.418 Y143.725 E38.2986
G1 X145.279 Y143.944 E38.37331
G1 X145.081 Y144.21 E38.46881
G1 X144.777 Y144.564 E38.60319
G1 X144.665 Y144.686 E38.65089
G1 X144.58 Y144.765 E38.68431
G1 X144.287 Y145.022 E38.79656
G1 X144.07 Y145.191 E38.87577
G1 X143.839 Y145.347 E38.95605
G1 X143.571 Y145.505 E39.04565
G1 X143.314 Y145.635 E39.12859
G1 X143.045 Y145.75 E39.21285
G1 X142.788 Y145.843 E39.29156
G1 X142.496 Y145.927 E39.37907
G1 X142.235 Y145.983 E39.45595
G1 X141.915 Y146.031 E39.54914
G1 X141.447 Y146.067 E39.68432
G1 X141.255 Y146.074 E39.73965
G1 X81.704 Y146.074 E56.89034
G1 X81.578 Y146.07 E56.92665
G1 X81.201 Y146.046 E57.03544
G1 X80.903 Y146.009 E57.12192
G1 X80.619 Y145.954 E57.20524
G1 X80.328 Y145.878 E57.29186
G1 X80.068 Y145.793 E57.37064
G1 X79.791 Y145.683 E57.45647
G1 X79.532 Y145.56 E57.53905
G1 X79.274 Y145.417 E57.624
G1 X79.055 Y145.278 E57.69871
G1 X78.789 Y145.08 E57.79421
G1 X78.435 Y144.776 E57.92859
G1 X78.313 Y144.664 E57.97629
G1 X78.234 Y144.579 E58.00971
G1 X77.975 Y144.284 E58.12277
G1 X77.808 Y144.069 E58.20117
G1 X77.649 Y143.833 E58.28313
G1 X77.494 Y143.57 E58.37105
G1 X77.364 Y143.313 E58.45399
G1 X77.248 Y143.043 E58.53863
G1 X77.156 Y142.787 E58.61697
G1 X77.072 Y142.495 E58.70448
G1 X77.016 Y142.234 E58.78136
G1 X76.968 Y141.914 E58.87455
G1 X76.931 Y141.436 E59.01262
G1 X76.925 Y141.268 E59.06104
G1 X76.925 Y81.703 E76.21576
G1 X76.929 Y81.577 E76.25206
G1 X76.953 Y81.2 E76.36086
G1 X76.99 Y80.902 E76.44734
G1 X77.045 Y80.618 E76.53065
G1 X77.121 Y80.327 E76.61727
G1 X77.205 Y80.069 E76.69542
G1 X77.316 Y79.79 E76.78189
G1 X77.438 Y79.532 E76.86409
G1 X77.577 Y79.282 E76.94647
G1 X77.729 Y79.044 E77.0278
G1 X77.919 Y78.788 E77.11961
G1 X78.223 Y78.434 E77.254
G1 X78.335 Y78.312 E77.3017
G0 F9000 X78.4 Y78.251
G1 F1350 X78.4 Y144.743 E96.45139
G0 F9000 X80 Y145.765
G1 F1350 X80 Y77.231 E116.18918
G0 F9000 X81.6 Y76.929
G1 F1350 X81.6 Y146.07 E136.10179
G0 F9000 X83.2 Y146.074
G1 F1350 X83.2 Y76.924 E156.01699
G0 F9000 X84.8 Y76.924
G1 F1350 X84.8 Y146.074 E175.93219
G0 F9000 X86.4 Y146.074
G1 F1350 X86.4 Y76.924 E195.84739
G0 F9000 X88 Y76.924
G1 F1350 X88 Y146.074 E215.76259
G0 F9000 X89.6 Y146.074
G1 F1350 X89.6 Y76.924 E235.67779
G0 F9000 X91.2 Y76.924
G1 F1350 X91.2 Y146.074 E255.59299
G0 F9000 X92.8 Y146.074
G1 F1350 X92.8 Y76.924 E275.50819
G0 F9000 X94.4 Y76.924
G1 F1350 X94.4 Y146.074 E295.42339
G0 F9000 X96 Y146.074
G1 F1350 X96 Y76.924 E315.33859
G0 F9000 X97.6 Y76.924
G1 F1350 X97.6 Y146.074 E335.25379
G0 F9000 X99.2 Y146.074
G1 F1350 X99.2 Y76.924 E355.16899
G0 F9000 X100.8 Y76.924
G1 F1350 X100.8 Y146.074 E375.08419
G0 F9000 X102.4 Y146.074
G1 F1350 X102.4 Y76.924 E394.99939
G0 F9000 X104 Y76.924
G1 F1350 X104 Y146.074 E414.91459
G0 F9000 X105.6 Y146.074
G1 F1350 X105.6 Y76.924 E434.82979
G0 F9000 X107.2 Y76.924
G1 F1350 X107.2 Y146.074 E454.74499
G0 F9000 X108.8 Y146.074
G1 F1350 X108.8 Y76.924 E474.66019
G0 F9000 X110.4 Y76.924
G1 F1350 X110.4 Y146.074 E494.57539
G0 F9000 X112 Y146.074
G1 F1350 X112 Y76.924 E514.49059
G0 F9000 X113.6 Y76.924
G1 F1350 X113.6 Y146.074 E534.40579
G0 F9000 X115.2 Y146.074
G1 F1350 X115.2 Y76.924 E554.32099
G0 F9000 X116.8 Y76.924
G1 F1350 X116.8 Y146.074 E574.23619
G0 F9000 X118.4 Y146.074
G1 F1350 X118.4 Y76.924 E594.15139
G0 F9000 X120 Y76.924
G1 F1350 X120 Y146.074 E614.06659
G0 F9000 X121.6 Y146.074
G1 F1350 X121.6 Y76.924 E633.98179
G0 F9000 X123.2 Y76.924
G1 F1350 X123.2 Y146.074 E653.89699
G0 F9000 X124.8 Y146.074
G1 F1350 X124.8 Y76.924 E673.81219
G0 F9000 X126.4 Y76.924
G1 F1350 X126.4 Y146.074 E693.72739
G0 F9000 X128 Y146.074
G1 F1350 X128 Y76.924 E713.64259
G0 F9000 X129.6 Y76.924
G1 F1350 X129.6 Y146.074 E733.55779
G0 F9000 X131.2 Y146.074
G1 F1350 X131.2 Y76.924 E753.47299
G0 F9000 X132.8 Y76.924
G1 F1350 X132.8 Y146.074 E773.38819
G0 F9000 X134.4 Y146.074
G1 F1350 X134.4 Y76.924 E793.30339
G0 F9000 X136 Y76.924
G1 F1350 X136 Y146.074 E813.21859
G0 F9000 X137.6 Y146.074
G1 F1350 X137.6 Y76.924 E833.13379
G0 F9000 X139.2 Y76.924
G1 F1350 X139.2 Y146.074 E853.04899
G0 F9000 X140.8 Y146.074
G1 F1350 X140.8 Y76.924 E872.96419
G0 F9000 X142.4 Y77.049
G1 F1350 X142.4 Y145.948 E892.8071
G0 F9000 X144 Y145.239
G1 F1350 X144 Y77.761 E912.24077
G0 F9000 X145.6 Y79.613
G1 F1350 X145.6 Y143.386 E930.60739
G0 F600 X145.6 Y143.386 Z0.66
G0 F9000 X145.402 Y79.153
;TIME_ELAPSED:149.122926
;LAYER:-5
;TYPE:SUPPORT
G1 F1350 X145.228 Y78.894 E930.67292
G1 X145.057 Y78.675 E930.73127
G1 X144.803 Y78.386 E930.81206
G1 X144.714 Y78.291 E930.8394
G1 X144.245 Y77.88 E930.97036
G1 X143.973 Y77.679 E931.04138
G1 X143.747 Y77.536 E931.09754
G1 X143.69 Y77.505 E931.11117
G1 X145.492 Y79.307 E931.64634
G1 X145.548 Y79.403 E931.66968
G1 X145.68 Y79.66 E931.73035
G1 X145.787 Y79.908 E931.78707
G1 X145.898 Y80.219 E931.85641
G1 X145.972 Y80.475 E931.91238
G1 X146.032 Y80.749 E931.97128
G1 X146.081 Y81.074 E932.0403
G1 X146.089 Y81.177 E932.062
G1 X141.815 Y76.903 E933.33131
G1 X141.806 Y76.902 E933.33321
G1 X141.422 Y76.878 E933.41401
G1 X141.296 Y76.873 E933.44049
G1 X140.514 Y76.874 E933.60471
G1 X146.124 Y82.484 E935.27079
G1 X146.124 Y83.757 E935.53812
G1 X139.241 Y76.874 E937.58227
G1 X137.968 Y76.874 E937.8496
G1 X146.124 Y85.03 E940.27181
G1 X146.124 Y86.303 E940.53914
G1 X136.695 Y76.874 E943.33941
G1 X135.422 Y76.874 E943.60674
G1 X146.124 Y87.575 E946.78492
G1 X146.124 Y88.848 E947.05225
G1 X134.15 Y76.874 E950.60835
G1 X132.877 Y76.874 E950.87568
G1 X146.124 Y90.121 E954.80984
G1 X146.124 Y91.394 E955.07717
G1 X131.604 Y76.874 E959.38939
G1 X130.331 Y76.874 E959.65672
G1 X146.124 Y92.667 E964.347
G1 X146.124 Y93.939 E964.61412
G1 X129.059 Y76.874 E969.68217
G1 X127.786 Y76.874 E969.9495
G1 X146.124 Y95.212 E975.3956
G1 X146.124 Y96.485 E975.66293
G1 X126.513 Y76.874 E981.4871
G1 X125.24 Y76.874 E981.75443
G1 X146.124 Y97.758 E987.95667
G1 X146.124 Y99.031 E988.224
G1 X123.967 Y76.874 E994.80429
G1 X122.695 Y76.874 E995.07141
G1 X146.124 Y100.303 E1002.02947
G1 X146.124 Y101.576 E1002.2968
G1 X121.422 Y76.874 E1009.63292
G1 X120.149 Y76.874 E1009.90025
G1 X146.124 Y102.849 E1017.61443
G1 X146.124 Y104.122 E1017.88176
G1 X118.876 Y76.874 E1025.974
G1 X117.603 Y76.874 E1026.24133
G1 X146.124 Y105.394 E1034.71149
G1 X146.124 Y106.667 E1034.97882
G1 X116.331 Y76.874 E1043.82689
G1 X115.058 Y76.874 E1044.09422
G1 X146.124 Y107.94 E1053.32035
G1 X146.124 Y109.213 E1053.58768
G1 X113.785 Y76.874 E1063.19187
G1 X112.512 Y76.874 E1063.4592
G1 X146.124 Y110.486 E1073.44146
G1 X146.124 Y111.758 E1073.70858
G1 X111.239 Y76.874 E1084.06874
G1 X109.967 Y76.874 E1084.33586
G1 X146.124 Y113.031 E1095.07394
G1 X146.124 Y114.304 E1095.34127
G1 X108.694 Y76.874 E1106.45742
G1 X107.421 Y76.874 E1106.72475
G1 X146.124 Y115.577 E1118.21895
G1 X146.124 Y116.85 E1118.48628
G1 X106.148 Y76.874 E1130.35855
G1 X104.875 Y76.874 E1130.62588
G1 X146.124 Y118.122 E1142.87606
G1 X146.124 Y119.395 E1143.14339
G1 X103.603 Y76.874 E1155.77148
G1 X102.33 Y76.874 E1156.03881
G1 X146.124 Y120.668 E1169.04497
G1 X146.124 Y121.941 E1169.3123
G1 X101.057 Y76.874 E1182.69651
G1 X99.784 Y76.874 E1182.96384
G1 X146.124 Y123.214 E1196.72612
G1 X146.124 Y124.486 E1196.99324
G1 X98.511 Y76.874 E1211.13343
G1 X97.239 Y76.874 E1211.40055
G1 X146.124 Y125.759 E1225.91865
G1 X146.124 Y127.032 E1226.18598
G1 X95.966 Y76.874 E1241.08215
G1 X94.693 Y76.874 E1241.34948
G1 X146.124 Y128.305 E1256.62371
G1 X146.124 Y129.578 E1256.89104
G1 X93.42 Y76.874 E1272.54333
G1 X92.148 Y76.874 E1272.81045
G1 X146.124 Y130.85 E1288.8405
G1 X146.124 Y132.123 E1289.10783
G1 X90.875 Y76.874 E1305.51595
G1 X89.602 Y76.874 E1305.78328
G1 X146.124 Y133.396 E1322.56946
G1 X146.124 Y134.669 E1322.83679
G1 X88.329 Y76.874 E1340.00102
G1 X87.056 Y76.874 E1340.26835
G1 X146.124 Y135.941 E1357.81051
G1 X146.124 Y137.214 E1358.07784
G1 X85.784 Y76.874 E1375.9979
G1 X84.511 Y76.874 E1376.26523
G1 X146.124 Y138.487 E1394.56336
G1 X146.124 Y139.76 E1394.83069
G1 X83.238 Y76.874 E1413.50688
G1 X81.965 Y76.874 E1413.77421
G1 X146.124 Y141.033 E1432.82846
G1 X146.124 Y141.297 E1432.8839
G1 X146.12 Y141.423 E1432.91037
G1 X146.096 Y141.806 E1432.99096
G1 X146.06 Y142.093 E1433.0517
G1 X146.037 Y142.218 E1433.07839
G1 X80.779 Y76.96 E1452.45903
G1 X80.759 Y76.963 E1452.46328
G1 X80.479 Y77.024 E1452.52346
G1 X80.21 Y77.102 E1452.58227
G1 X79.936 Y77.201 E1452.64346
G1 X79.804 Y77.258 E1452.67365
G1 X145.743 Y143.197 E1472.25653
G1 X145.735 Y143.215 E1472.26067
G1 X145.601 Y143.496 E1472.32605
G1 X145.462 Y143.747 E1472.3863
G1 X145.319 Y143.973 E1472.44246
G1 X145.288 Y144.015 E1472.45342
G1 X78.983 Y77.711 E1492.14486
G1 X78.895 Y77.769 E1492.16699
G1 X78.674 Y77.94 E1492.22567
G1 X78.394 Y78.187 E1492.30408
G1 X78.288 Y78.286 E1492.33454
G1 X78.287 Y78.287 E1492.33483
G1 X144.71 Y144.71 E1512.06146
G1 X144.605 Y144.809 E1512.09176
G1 X144.324 Y145.056 E1512.17033
G1 X144.104 Y145.227 E1512.22884
G1 X144.014 Y145.287 E1512.25156
G1 X77.71 Y78.983 E1531.94284
G1 X77.689 Y79.012 E1531.95036
G1 X77.529 Y79.263 E1532.01287
G1 X77.398 Y79.501 E1532.06992
G1 X77.263 Y79.782 E1532.13539
G1 X77.255 Y79.801 E1532.13972
G1 X143.194 Y145.739 E1551.72245
G1 X143.062 Y145.796 E1551.75265
G1 X142.789 Y145.895 E1551.81363
G1 X142.52 Y145.972 E1551.87239
G1 X142.24 Y146.033 E1551.93257
G1 X142.217 Y146.035 E1551.93742
G1 X76.962 Y80.78 E1571.31716
G1 X76.938 Y80.902 E1571.34327
G1 X76.903 Y81.191 E1571.40441
G1 X76.878 Y81.573 E1571.4848
G1 X76.875 Y81.7 E1571.51148
G1 X76.875 Y81.966 E1571.56734
G1 X141.032 Y146.123 E1590.62099
G1 X139.759 Y146.123 E1590.88832
G1 X76.875 Y83.239 E1609.56392
G1 X76.875 Y84.511 E1609.83104
G1 X138.486 Y146.123 E1628.12872
G1 X137.214 Y146.123 E1628.39584
G1 X76.875 Y85.784 E1646.31561
G1 X76.875 Y87.057 E1646.58294
G1 X135.941 Y146.123 E1664.12465
G1 X134.668 Y146.123 E1664.39198
G1 X76.875 Y88.33 E1681.55562
G1 X76.875 Y89.603 E1681.82295
G1 X133.395 Y146.123 E1698.60853
G1 X132.122 Y146.123 E1698.87586
G1 X76.875 Y90.875 E1715.28354
G1 X76.875 Y92.148 E1715.55087
G1 X130.85 Y146.123 E1731.58062
G1 X129.577 Y146.123 E1731.84795
G1 X76.875 Y93.421 E1747.49965
G1 X76.875 Y94.694 E1747.76698
G1 X128.304 Y146.123 E1763.04061
G1 X127.031 Y146.123 E1763.30794
G1 X76.875 Y95.967 E1778.20351
G1 X76.875 Y97.239 E1778.47063
G1 X125.758 Y146.123 E1792.98829
G1 X124.486 Y146.123 E1793.25541
G1 X76.875 Y98.512 E1807.39516
G1 X76.875 Y99.785 E1807.66249
G1 X123.213 Y146.123 E1821.42417
G1 X121.94 Y146.123 E1821.6915
G1 X76.875 Y101.058 E1835.07512
G1 X76.875 Y102.331 E1835.34245
G1 X120.667 Y146.123 E1848.34801
G1 X119.394 Y146.123 E1848.61534
G1 X76.875 Y103.603 E1861.24299
G1 X76.875 Y104.876 E1861.51032
G1 X118.122 Y146.123 E1873.76006
G1 X116.849 Y146.123 E1874.02739
G1 X76.875 Y106.149 E1885.89906
G1 X76.875 Y107.422 E1886.16639
G1 X115.576 Y146.123 E1897.66
G1 X114.303 Y146.123 E1897.92733
G1 X76.875 Y108.695 E1909.04288
G1 X76.875 Y109.967 E1909.31
G1 X113.031 Y146.123 E1920.04778
G1 X111.758 Y146.123 E1920.31511
G1 X76.875 Y111.24 E1930.67483
G1 X76.875 Y112.513 E1930.94216
G1 X110.485 Y146.123 E1940.92383
G1 X109.212 Y146.123 E1941.19116
G1 X76.875 Y113.786 E1950.79475
G1 X76.875 Y115.059 E1951.06208
G1 X107.939 Y146.123 E1960.28762
G1 X106.667 Y146.123 E1960.55474
G1 X76.875 Y116.331 E1969.40251
G1 X76.875 Y117.604 E1969.66984
G1 X105.394 Y146.123 E1978.13955
G1 X104.121 Y146.123 E1978.40688
G1 X76.875 Y118.877 E1986.49853
G1 X76.875 Y120.15 E1986.76586
G1 X102.848 Y146.123 E1994.47945
G1 X101.575 Y146.123 E1994.74678
G1 X76.875 Y121.422 E2002.08246
G1 X76.875 Y122.695 E2002.34979
G1 X100.303 Y146.123 E2009.30755
G1 X99.03 Y146.123 E2009.57488
G1 X76.875 Y123.968 E2016.15458
G1 X76.875 Y125.241 E2016.42191
G1 X97.757 Y146.123 E2022.62354
G1 X96.484 Y146.123 E2022.89087
G1 X76.875 Y126.514 E2028.71445
G1 X76.875 Y127.786 E2028.98157
G1 X95.211 Y146.123 E2034.42723
G1 X93.939 Y146.123 E2034.69435
G1 X76.875 Y129.059 E2039.7621
G1 X76.875 Y130.332 E2040.02943
G1 X92.666 Y146.123 E2044.71912
G1 X91.393 Y146.123 E2044.98645
G1 X76.875 Y131.605 E2049.29808
G1 X76.875 Y132.878 E2049.56541
G1 X90.12 Y146.123 E2053.49897
G1 X88.847 Y146.123 E2053.7663
G1 X76.875 Y134.15 E2057.32195
G1 X76.875 Y135.423 E2057.58928
G1 X87.575 Y146.123 E2060.76702
G1 X86.302 Y146.123 E2061.03435
G1 X76.875 Y136.696 E2063.83403
G1 X76.875 Y137.969 E2064.10136
G1 X85.029 Y146.123 E2066.52297
G1 X83.756 Y146.123 E2066.7903
G1 X76.875 Y139.242 E2068.83385
G1 X76.875 Y140.514 E2069.10097
G1 X82.484 Y146.123 E2070.76676
G1 X81.701 Y146.123 E2070.93119
G1 X81.576 Y146.119 E2070.95745
G1 X81.192 Y146.095 E2071.03825
G1 X81.181 Y146.093 E2071.0406
G1 X76.909 Y141.822 E2072.30917
G1 X76.917 Y141.923 E2072.33045
G1 X76.965 Y142.238 E2072.39736
G1 X77.025 Y142.518 E2072.45749
G1 X77.102 Y142.787 E2072.51625
G1 X77.201 Y143.061 E2072.57743
G1 X77.322 Y143.343 E2072.64188
G1 X77.444 Y143.584 E2072.6986
G1 X77.509 Y143.694 E2072.72543
G1 X79.305 Y145.49 E2073.25882
G1 X79.251 Y145.461 E2073.27169
G1 X79.025 Y145.318 E2073.32785
G1 X78.754 Y145.115 E2073.39896
G1 X78.285 Y144.706 E2073.52964
G1 X78.189 Y144.603 E2073.55921
G1 X77.942 Y144.322 E2073.63777
G1 X77.771 Y144.101 E2073.69645
G1 X77.605 Y143.857 E2073.75843
G0 F600 X77.605 Y143.857 Z0.86
G0 F9000 X79.862 Y145.95
;TIME_ELAPSED:391.398123
;LAYER:-4
;TYPE:SUPPORT-INTERFACE
G1 F1800 X143.126 Y145.95 E2078.18691
G1 X142.839 Y146.063 E2078.2085
G1 X142.272 Y146.206 E2078.24943
G1 X141.462 Y146.292 E2078.30645
G1 X81.696 Y146.299 E2082.49007
G1 X81.177 Y146.269 E2082.52646
G1 X80.564 Y146.173 E2082.56989
G1 X79.986 Y146.004 E2082.61205
G0 F9000 X143.126 Y145.95
G1 F1800 X143.417 Y145.836 E2082.63392
G1 X143.845 Y145.6 E2082.66814
G1 X79.157 Y145.6 E2087.1963
G1 X78.916 Y145.456 E2087.21595
G1 X78.661 Y145.25 E2087.2389
G1 X144.355 Y145.25 E2091.83748
G1 X144.434 Y145.193 E2091.8443
G1 X144.745 Y144.9 E2091.87421
G1 X78.244 Y144.9 E2096.52928
G1 X77.914 Y144.55 E2096.56295
G1 X145.078 Y144.55 E2101.26443
G1 X145.361 Y144.2 E2101.29593
G1 X77.636 Y144.2 E2106.03668
G1 X77.454 Y143.948 E2106.05844
G1 X77.4 Y143.85 E2106.06628
G1 X145.595 Y143.85 E2110.83993
G1 X145.759 Y143.575 E2110.86234
G1 X145.791 Y143.5 E2110.86805
G1 X77.208 Y143.5 E2115.66886
G1 X77.162 Y143.415 E2115.67562
G1 X77.057 Y143.15 E2115.69558
