;FLAVOR:UltiGCode
;TIME:4998
;MATERIAL:11263
;MATERIAL2:0
;NOZZLE_DIAMETER:0.4
;MINX:78.325
;MINY:78.324
;MINZ:0.3
;MAXX:144.675
;MAXY:144.674
;MAXZ:36.9
;Generated with Cura_SteamEngine 4.3.0
M82 ;absolute extrusion mode

G92 E0
G92 E0
G10
;LAYER_COUNT:184
;LAYER:0
M106 S178.5
G0 F4500 X79.314 Y79.214 Z0.3
;TYPE:SKIRT
G11
G1 F1800 X79.704 Y78.896 E0.05284
G1 X80.14 Y78.643 E0.10577
G1 X80.61 Y78.463 E0.15861
G1 X81.103 Y78.359 E0.21152
G1 X81.42 Y78.334 E0.2449
G1 X81.741 Y78.325 E0.27862
G1 X81.83 Y78.324 E0.28797
G1 X140.838 Y78.324 E6.48381
G1 X141.536 Y78.334 E6.55711
G1 X142.038 Y78.381 E6.61005
G1 X142.525 Y78.507 E6.66287
G1 X142.987 Y78.709 E6.71581
G1 X143.411 Y78.98 E6.76865
G1 X143.787 Y79.316 E6.82159
G1 X144.105 Y79.706 E6.87443
G1 X144.357 Y80.142 E6.92731
G1 X144.537 Y80.612 E6.98015
G1 X144.64 Y81.105 E7.03303
G1 X144.665 Y81.42 E7.06621
G1 X144.674 Y81.74 E7.09983
G1 X144.675 Y81.829 E7.10917
G1 X144.675 Y140.802 E13.30134
G1 X144.666 Y141.529 E13.37768
G1 X144.62 Y142.031 E13.43061
G1 X144.495 Y142.519 E13.4835
G1 X144.294 Y142.981 E13.53641
G1 X144.023 Y143.405 E13.58924
G1 X143.689 Y143.781 E13.64205
G1 X143.299 Y144.1 E13.69495
G1 X142.863 Y144.353 E13.74788
G1 X142.393 Y144.534 E13.80077
G1 X141.901 Y144.638 E13.85357
G1 X141.58 Y144.664 E13.88738
G1 X141.259 Y144.673 E13.9211
G1 X141.17 Y144.674 E13.93045
G1 X82.166 Y144.674 E20.12587
G1 X81.468 Y144.665 E20.19916
G1 X80.967 Y144.618 E20.252
G1 X80.479 Y144.493 E20.30489
G1 X80.017 Y144.293 E20.35775
G1 X79.593 Y144.021 E20.41065
G1 X79.216 Y143.687 E20.46353
G1 X78.898 Y143.296 E20.51645
G1 X78.645 Y142.861 E20.56929
G1 X78.464 Y142.391 E20.62217
G1 X78.36 Y141.898 E20.67508
G1 X78.335 Y141.576 E20.70899
G1 X78.326 Y141.243 E20.74397
G1 X78.325 Y141.157 E20.753
G1 X78.325 Y82.13 E26.95083
G1 X78.334 Y81.465 E27.02066
G1 X78.381 Y80.964 E27.0735
G1 X78.506 Y80.476 E27.12639
G1 X78.707 Y80.014 E27.1793
G1 X78.979 Y79.59 E27.23219
G1 X79.314 Y79.214 E27.28507
G10
;MESH:nesten front.stl
G0 F4500 X82.039 Y80.828
G0 X82.039 Y82.038
G0 X95.733 Y90.37
G0 X96.854 Y90.854
;TYPE:WALL-INNER
G11
G1 F1800 X97.466 Y90.619 E27.3539
G1 X97.961 Y90.193 E27.42247
G1 X98.283 Y89.621 E27.4914
G1 X98.387 Y88.974 E27.5602
G1 X98.265 Y88.33 E27.62903
G1 X97.93 Y87.766 E27.6979
G1 X97.421 Y87.353 E27.76673
G1 X96.806 Y87.136 E27.83521
G1 X96.146 Y87.144 E27.90451
G1 X95.534 Y87.379 E27.97335
G1 X95.039 Y87.805 E28.04192
G1 X94.717 Y88.377 E28.11084
G1 X94.613 Y89.024 E28.17965
G1 X94.735 Y89.668 E28.24847
G1 X95.07 Y90.23 E28.31717
G1 X95.578 Y90.646 E28.38611
G1 X96.194 Y90.862 E28.45465
G1 X96.854 Y90.854 E28.52396
G0 F4500 X103.125 Y102.374
G1 F1800 X119.875 Y102.374 E30.28271
G1 X119.875 Y94.624 E31.09646
G1 X103.125 Y94.624 E32.85521
G1 X103.125 Y102.374 E33.66896
G0 F4500 X103.447 Y94.946
G0 X126.854 Y90.854
G1 F1800 X127.466 Y90.619 E33.73779
G1 X127.961 Y90.193 E33.80636
G1 X128.283 Y89.621 E33.87529
G1 X128.387 Y88.974 E33.94409
G1 X128.265 Y88.33 E34.01292
G1 X127.93 Y87.766 E34.0818
G1 X127.421 Y87.353 E34.15062
G1 X126.806 Y87.136 E34.2191
G1 X126.146 Y87.144 E34.2884
G1 X125.534 Y87.379 E34.35724
G1 X125.039 Y87.805 E34.42581
G1 X124.717 Y88.377 E34.49473
G1 X124.613 Y89.024 E34.56354
G1 X124.735 Y89.668 E34.63236
G1 X125.07 Y90.23 E34.70106
G1 X125.578 Y90.646 E34.77
G1 X126.194 Y90.862 E34.83854
G1 X126.854 Y90.854 E34.90785
G0 F4500 X128.071 Y133.979
G0 X127.768 Y134.902
G0 X126.854 Y135.854
G1 F1800 X127.466 Y135.619 E34.97668
G1 X127.961 Y135.193 E35.04526
G1 X128.283 Y134.621 E35.11418
G1 X128.387 Y133.974 E35.18299
G1 X128.265 Y133.33 E35.25181
G1 X127.93 Y132.766 E35.32069
G1 X127.421 Y132.353 E35.38951
G1 X126.806 Y132.136 E35.45799
G1 X126.146 Y132.144 E35.52729
G1 X125.534 Y132.379 E35.59613
G1 X125.039 Y132.805 E35.6647
G1 X124.717 Y133.377 E35.73362
G1 X124.613 Y134.024 E35.80243
G1 X124.735 Y134.668 E35.87125
G1 X125.07 Y135.23 E35.93995
G1 X125.578 Y135.646 E36.00889
G1 X126.194 Y135.862 E36.07744
G1 X126.854 Y135.854 E36.14674
G0 F4500 X96.854 Y135.854
G1 F1800 X97.466 Y135.619 E36.21558
G1 X97.961 Y135.193 E36.28415
G1 X98.283 Y134.621 E36.35307
G1 X98.387 Y133.974 E36.42188
G1 X98.265 Y133.33 E36.4907
G1 X97.93 Y132.766 E36.55958
G1 X97.421 Y132.353 E36.6284
G1 X96.806 Y132.136 E36.69688
G1 X96.146 Y132.144 E36.76619
G1 X95.534 Y132.379 E36.83502
G1 X95.039 Y132.805 E36.90359
G1 X94.717 Y133.377 E36.97252
G1 X94.613 Y134.024 E37.04132
G1 X94.735 Y134.668 E37.11015
G1 X95.07 Y135.23 E37.17884
G1 X95.578 Y135.646 E37.24779
G1 X96.194 Y135.862 E37.31633
G1 X96.854 Y135.854 E37.38563
G0 F4500 X82.375 Y140.624
G1 F1800 X82.375 Y82.374 E43.50188
G1 X140.625 Y82.374 E49.61813
G1 X140.625 Y140.624 E55.73438
G1 X82.375 Y140.624 E61.85063
G0 F4500 X82.025 Y140.974
G1 F1800 X82.025 Y82.024 E68.04038
G1 X140.975 Y82.024 E74.23013
G1 X140.975 Y140.974 E80.41988
G1 X82.025 Y140.974 E86.60963
G0 F4500 X82.095 Y140.904
G0 X96.805 Y135.603
G0 X96.787 Y135.505
G1 F1800 X97.284 Y135.314 E86.66554
G1 X97.686 Y134.968 E86.72123
G1 X97.947 Y134.504 E86.77713
G1 X98.032 Y133.979 E86.83297
G1 X97.933 Y133.456 E86.88886
G1 X97.661 Y132.998 E86.94479
G1 X97.248 Y132.663 E87.00063
G1 X96.748 Y132.487 E87.05629
G1 X96.213 Y132.493 E87.11247
G1 X95.716 Y132.684 E87.16837
G1 X95.314 Y133.03 E87.22406
G1 X95.053 Y133.494 E87.27996
G1 X94.968 Y134.019 E87.33581
G1 X95.067 Y134.542 E87.3917
G1 X95.339 Y134.998 E87.44745
G1 X95.752 Y135.336 E87.50348
G1 X96.252 Y135.511 E87.55911
G1 X96.787 Y135.505 E87.61528
G0 F4500 X96.805 Y135.603
G0 X126.805 Y135.603
G0 X126.787 Y135.505
G1 F1800 X127.284 Y135.314 E87.67119
G1 X127.686 Y134.968 E87.72688
G1 X127.947 Y134.504 E87.78278
G1 X128.032 Y133.979 E87.83862
G1 X127.933 Y133.456 E87.89451
G1 X127.661 Y132.998 E87.95045
G1 X127.248 Y132.663 E88.00628
G1 X126.748 Y132.487 E88.06194
G1 X126.213 Y132.493 E88.11812
G1 X125.716 Y132.684 E88.17402
G1 X125.314 Y133.03 E88.22972
G1 X125.053 Y133.494 E88.28561
G1 X124.968 Y134.019 E88.34146
G1 X125.067 Y134.542 E88.39735
G1 X125.339 Y134.998 E88.4531
G1 X125.752 Y135.336 E88.50914
G1 X126.252 Y135.511 E88.56476
G1 X126.787 Y135.505 E88.62094
G0 F4500 X126.805 Y135.603
G0 X125.733 Y135.37
G0 X103.405 Y102.094
G0 X103.475 Y102.024
G1 F1800 X119.525 Y102.024 E90.30619
G1 X119.525 Y94.974 E91.04644
G1 X103.475 Y94.974 E92.73169
G1 X103.475 Y102.024 E93.47194
G0 F4500 X103.405 Y102.094
G0 X96.805 Y90.603
G0 X96.787 Y90.505
G1 F1800 X97.284 Y90.314 E93.52784
G1 X97.686 Y89.968 E93.58353
G1 X97.947 Y89.504 E93.63943
G1 X98.032 Y88.979 E93.69528
G1 X97.933 Y88.456 E93.75117
G1 X97.661 Y87.998 E93.8071
G1 X97.248 Y87.663 E93.86293
G1 X96.748 Y87.487 E93.91859
G1 X96.213 Y87.493 E93.97477
G1 X95.716 Y87.684 E94.03068
G1 X95.314 Y88.03 E94.08637
G1 X95.053 Y88.494 E94.14227
G1 X94.968 Y89.019 E94.19811
G1 X95.067 Y89.542 E94.254
G1 X95.339 Y89.998 E94.30975
G1 X95.752 Y90.336 E94.36579
G1 X96.252 Y90.511 E94.42141
G1 X96.787 Y90.505 E94.47759
G0 F4500 X96.805 Y90.603
G0 X126.805 Y90.603
G0 X126.787 Y90.505
G1 F1800 X127.284 Y90.314 E94.53349
G1 X127.686 Y89.968 E94.58919
G1 X127.947 Y89.504 E94.64508
G1 X128.032 Y88.979 E94.70093
G1 X127.933 Y88.456 E94.75682
G1 X127.661 Y87.998 E94.81275
G1 X127.248 Y87.663 E94.86859
G1 X126.748 Y87.487 E94.92424
G1 X126.213 Y87.493 E94.98042
G1 X125.716 Y87.684 E95.03633
G1 X125.314 Y88.03 E95.09202
G1 X125.053 Y88.494 E95.14792
G1 X124.968 Y89.019 E95.20376
G1 X125.067 Y89.542 E95.25965
G1 X125.339 Y89.998 E95.3154
G1 X125.752 Y90.336 E95.37144
G1 X126.252 Y90.511 E95.42706
G1 X126.787 Y90.505 E95.48324
G0 F4500 X126.725 Y90.181
;TYPE:WALL-OUTER
G1 F1800 X127.115 Y90.031 E95.52711
G1 X127.431 Y89.759 E95.57089
G1 X127.635 Y89.395 E95.61471
G1 X127.702 Y88.983 E95.65853
G1 X127.624 Y88.573 E95.70236
G1 X127.411 Y88.214 E95.74619
G1 X127.087 Y87.951 E95.79
G1 X126.694 Y87.813 E95.83374
G1 X126.275 Y87.817 E95.87774
G1 X125.885 Y87.967 E95.92161
G1 X125.569 Y88.239 E95.96539
G1 X125.365 Y88.603 E96.0092
G1 X125.298 Y89.015 E96.05303
G1 X125.376 Y89.425 E96.09685
G1 X125.589 Y89.783 E96.14059
G1 X125.913 Y90.048 E96.18454
G1 X126.306 Y90.185 E96.22824
G1 X126.725 Y90.181 E96.27224
G0 F4500 X126.912 Y90.11
G0 X127.063 Y90.506
G0 X103.447 Y94.946
G0 X103.375 Y101.699
G0 X103.8 Y101.699
G1 F1800 X119.2 Y101.699 E97.88924
G1 X119.2 Y95.299 E98.56124
G1 X103.8 Y95.299 E100.17824
G1 X103.8 Y101.699 E100.85024
G0 F4500 X104 Y101.699
G0 X104 Y102.124
G0 X96.729 Y90.606
G0 X96.725 Y90.181
G1 F1800 X97.115 Y90.031 E100.89412
G1 X97.431 Y89.759 E100.93789
G1 X97.635 Y89.395 E100.98171
G1 X97.702 Y88.983 E101.02554
G1 X97.624 Y88.573 E101.06936
G1 X97.411 Y88.214 E101.11319
G1 X97.087 Y87.951 E101.15701
G1 X96.694 Y87.813 E101.20074
G1 X96.275 Y87.817 E101.24474
G1 X95.885 Y87.967 E101.28861
G1 X95.569 Y88.239 E101.33239
G1 X95.365 Y88.603 E101.3762
G1 X95.298 Y89.015 E101.42003
G1 X95.376 Y89.425 E101.46385
G1 X95.589 Y89.783 E101.50759
G1 X95.913 Y90.048 E101.55154
G1 X96.306 Y90.185 E101.59524
G1 X96.725 Y90.181 E101.63924
G0 F4500 X96.912 Y90.11
G0 X97.063 Y90.506
G0 X98.071 Y133.979
G0 X97.716 Y134.993
G0 X96.729 Y135.606
G0 X96.725 Y135.181
G1 F1800 X97.115 Y135.031 E101.68312
G1 X97.431 Y134.759 E101.7269
G1 X97.635 Y134.395 E101.77071
G1 X97.702 Y133.983 E101.81454
G1 X97.624 Y133.573 E101.85836
G1 X97.411 Y133.214 E101.90219
G1 X97.087 Y132.951 E101.94601
G1 X96.694 Y132.813 E101.98974
G1 X96.275 Y132.817 E102.03374
G1 X95.885 Y132.967 E102.07761
G1 X95.569 Y133.239 E102.12139
G1 X95.365 Y133.603 E102.1652
G1 X95.298 Y134.015 E102.20903
G1 X95.376 Y134.425 E102.25286
G1 X95.589 Y134.783 E102.2966
G1 X95.913 Y135.048 E102.34055
G1 X96.306 Y135.185 E102.38425
G1 X96.725 Y135.181 E102.42824
G0 F4500 X96.912 Y135.11
G0 X97.063 Y135.506
G0 X82.095 Y140.904
G0 X81.7 Y141.299
G1 F1800 X81.7 Y81.699 E108.68624
G1 X141.3 Y81.699 E114.94424
G1 X141.3 Y141.299 E121.20224
G1 X81.7 Y141.299 E127.46024
G0 F4500 X81.7 Y141.099
G0 X82.095 Y140.904
G0 X126.729 Y135.606
G0 X126.725 Y135.181
G1 F1800 X127.115 Y135.031 E127.50412
G1 X127.431 Y134.759 E127.5479
G1 X127.635 Y134.395 E127.59171
G1 X127.702 Y133.983 E127.63554
G1 X127.624 Y133.573 E127.67936
G1 X127.411 Y133.214 E127.72319
G1 X127.087 Y132.951 E127.76701
G1 X126.694 Y132.813 E127.81074
G1 X126.275 Y132.817 E127.85474
G1 X125.885 Y132.967 E127.89861
G1 X125.569 Y133.239 E127.94239
G1 X125.365 Y133.603 E127.98621
G1 X125.298 Y134.015 E128.03003
G1 X125.376 Y134.425 E128.07386
G1 X125.589 Y134.783 E128.1176
G1 X125.913 Y135.048 E128.16155
G1 X126.306 Y135.185 E128.20525
G1 X126.725 Y135.181 E128.24924
G0 F4500 X126.912 Y135.11
G0 X127.063 Y135.506
G0 X126.919 Y136.194
;TYPE:SKIN
G1 F1800 X127.643 Y135.915 E128.33071
G1 X128.228 Y135.412 E128.41172
G1 X128.609 Y134.735 E128.49329
G1 X128.733 Y133.97 E128.57466
G1 X128.588 Y133.208 E128.65611
G1 X128.192 Y132.54 E128.73765
G1 X127.59 Y132.052 E128.81902
G1 X126.862 Y131.796 E128.90005
G1 X126.081 Y131.804 E128.98206
G1 X125.357 Y132.083 E129.06352
G1 X124.772 Y132.586 E129.14453
G1 X124.391 Y133.263 E129.2261
G1 X124.267 Y134.028 E129.30748
G1 X124.412 Y134.79 E129.38892
G1 X124.808 Y135.455 E129.47019
G1 X125.409 Y135.947 E129.55174
G1 X126.138 Y136.202 E129.63284
G1 X126.919 Y136.194 E129.71484
G0 F4500 X140.285 Y140.284
G1 F1800 X82.715 Y140.284 E135.75969
G1 X82.715 Y82.714 E141.80454
G1 X140.285 Y82.714 E147.84939
G1 X140.285 Y140.284 E153.89424
G0 F4500 X98.733 Y133.97
G1 F1800 X98.588 Y133.208 E153.97569
G1 X98.192 Y132.54 E154.05723
G1 X97.59 Y132.052 E154.1386
G1 X96.862 Y131.796 E154.21963
G1 X96.081 Y131.804 E154.30164
G1 X95.357 Y132.083 E154.38311
G1 X94.772 Y132.586 E154.46411
G1 X94.391 Y133.263 E154.54568
G1 X94.267 Y134.028 E154.62706
G1 X94.412 Y134.79 E154.7085
G1 X94.808 Y135.455 E154.78977
G1 X95.409 Y135.947 E154.87132
G1 X96.138 Y136.202 E154.95242
G1 X96.919 Y136.194 E155.03443
G1 X97.643 Y135.915 E155.1159
G1 X98.228 Y135.412 E155.1969
G1 X98.609 Y134.735 E155.27847
G1 X98.733 Y133.97 E155.35985
G0 F4500 X120.215 Y102.714
G1 F1800 X120.215 Y94.284 E156.245
G1 X102.785 Y94.284 E158.07515
G1 X102.785 Y102.714 E158.9603
G1 X120.215 Y102.714 E160.79045
G0 F4500 X126.138 Y91.202
G1 F1800 X126.919 Y91.194 E160.87246
G1 X127.643 Y90.915 E160.95392
G1 X128.228 Y90.412 E161.03493
G1 X128.609 Y89.735 E161.1165
G1 X128.733 Y88.97 E161.19788
G1 X128.588 Y88.208 E161.27932
G1 X128.192 Y87.54 E161.36086
G1 X127.59 Y87.052 E161.44223
G1 X126.862 Y86.796 E161.52326
G1 X126.081 Y86.804 E161.60527
G1 X125.357 Y87.083 E161.68674
G1 X124.772 Y87.586 E161.76775
G1 X124.391 Y88.263 E161.84931
G1 X124.267 Y89.028 E161.93069
G1 X124.412 Y89.79 E162.01213
G1 X124.808 Y90.455 E162.0934
G1 X125.409 Y90.947 E162.17496
G1 X126.138 Y91.202 E162.25605
G0 F4500 X97.643 Y90.915
G1 F1800 X98.228 Y90.412 E162.33706
G1 X98.609 Y89.735 E162.41863
G1 X98.733 Y88.97 E162.5
G1 X98.588 Y88.208 E162.58144
G1 X98.192 Y87.54 E162.66298
G1 X97.59 Y87.052 E162.74435
G1 X96.862 Y86.796 E162.82538
G1 X96.081 Y86.804 E162.90739
G1 X95.357 Y87.083 E162.98886
G1 X94.772 Y87.586 E163.06987
G1 X94.391 Y88.263 E163.15144
G1 X94.267 Y89.028 E163.23281
G1 X94.412 Y89.79 E163.31426
G1 X94.808 Y90.455 E163.39552
G1 X95.409 Y90.947 E163.47708
G1 X96.138 Y91.202 E163.55817
G1 X96.919 Y91.194 E163.64018
G1 X97.643 Y90.915 E163.72165
G0 F4500 X140.127 Y83.205
G1 F1800 X139.793 Y82.871 E163.77125
G0 F4500 X139.298 Y82.871
G1 F1800 X140.127 Y83.7 E163.89435
G0 F4500 X140.127 Y84.195
G1 F1800 X138.803 Y82.871 E164.09095
G0 F4500 X138.308 Y82.871
G1 F1800 X140.127 Y84.69 E164.36106
G0 F4500 X140.127 Y85.185
G1 F1800 X137.813 Y82.871 E164.70467
G0 F4500 X137.318 Y82.871
G1 F1800 X140.127 Y85.68 E165.12178
G0 F4500 X140.127 Y86.175
G1 F1800 X136.823 Y82.871 E165.6124
G0 F4500 X136.328 Y82.871
G1 F1800 X140.127 Y86.67 E166.17653
G0 F4500 X140.127 Y87.165
G1 F1800 X135.833 Y82.871 E166.81415
G0 F4500 X135.338 Y82.871
G1 F1800 X140.127 Y87.66 E167.52528
G0 F4500 X140.127 Y88.155
G1 F1800 X134.843 Y82.871 E168.30992
G0 F4500 X134.348 Y82.871
G1 F1800 X140.127 Y88.649 E169.16798
G0 F4500 X140.127 Y89.144
G1 F1800 X133.853 Y82.871 E170.09955
G0 F4500 X133.358 Y82.871
G1 F1800 X140.127 Y89.639 E171.10462
G0 F4500 X140.127 Y90.134
G1 F1800 X132.863 Y82.871 E172.18319
G0 F4500 X132.368 Y82.871
G1 F1800 X140.127 Y90.629 E173.33527
G0 F4500 X140.127 Y91.124
G1 F1800 X131.874 Y82.871 E174.56078
G0 F4500 X131.379 Y82.871
G1 F1800 X140.127 Y91.619 E175.85979
G0 F4500 X140.127 Y92.114
G1 F1800 X130.884 Y82.871 E177.23231
G0 F4500 X130.389 Y82.871
G1 F1800 X140.127 Y92.609 E178.67833
G0 F4500 X140.127 Y93.104
G1 F1800 X129.894 Y82.871 E180.19785
G0 F4500 X129.399 Y82.871
G1 F1800 X140.127 Y93.599 E181.79088
G0 F4500 X140.127 Y94.094
G1 F1800 X128.904 Y82.871 E183.45741
G0 F4500 X128.409 Y82.871
G1 F1800 X140.127 Y94.589 E185.19744
G0 F4500 X140.127 Y95.084
G1 F1800 X127.914 Y82.871 E187.01098
G0 F4500 X127.419 Y82.871
G1 F1800 X140.127 Y95.579 E188.89802
G0 F4500 X140.127 Y96.074
G1 F1800 X126.924 Y82.871 E190.85857
G0 F4500 X126.429 Y82.871
G1 F1800 X140.127 Y96.569 E192.89261
G0 F4500 X140.127 Y97.064
G1 F1800 X125.934 Y82.871 E195.00017
G0 F4500 X125.439 Y82.871
G1 F1800 X140.127 Y97.559 E197.18122
G0 F4500 X140.127 Y98.054
G1 F1800 X124.944 Y82.871 E199.43579
G0 F4500 X124.449 Y82.871
G1 F1800 X140.127 Y98.549 E201.76385
G0 F4500 X140.127 Y99.044
G1 F1800 X123.954 Y82.871 E204.16542
G0 F4500 X123.459 Y82.871
G1 F1800 X127.41 Y86.822 E204.75211
G1 X127.472 Y86.884
G0 F4500 X126.733 Y86.64
G1 F1800 X122.964 Y82.871 E205.31178
G0 F4500 X122.469 Y82.871
G1 F1800 X126.243 Y86.645 E205.87219
G0 F4500 X125.833 Y86.73
G1 F1800 X121.974 Y82.871 E206.44522
G0 F4500 X121.479 Y82.871
G1 F1800 X125.476 Y86.868 E207.03875
G0 F4500 X125.159 Y87.046
G1 F1800 X120.984 Y82.871 E207.6587
G0 F4500 X120.489 Y82.871
G1 F1800 X124.892 Y87.274 E208.31251
G0 F4500 X124.633 Y87.51
G1 F1800 X119.994 Y82.871 E209.00137
G0 F4500 X119.499 Y82.871
G1 F1800 X124.455 Y87.827 E209.7373
G0 F4500 X124.276 Y88.143
G1 F1800 X119.004 Y82.871 E210.52015
G0 F4500 X118.509 Y82.871
G1 F1800 X124.185 Y88.547 E211.36299
G0 F4500 X124.117 Y88.973
