;FLAVOR:UltiGCode
;TIME:8355
;MATERIAL:20520
;MATERIAL2:0
;NOZZLE_DIAMETER:0.4
;MINX:78.418
;MINY:73.817
;MINZ:0.27
;MAXX:144.579
;MAXY:140.045
;MAXZ:54.87
;Generated with Cura_SteamEngine 4.3.0
M82 ;absolute extrusion mode

G92 E0
G92 E0
G10
;LAYER_COUNT:274
;LAYER:0
M107
G0 F4500 X79.413 Y74.811 Z0.27
;TYPE:SKIRT
G11
G1 F1800 X79.698 Y74.569 E0.03533
G1 X79.843 Y74.46 E0.05247
G1 X80.268 Y74.19 E0.10006
G1 X80.731 Y73.991 E0.14768
G1 X81.219 Y73.868 E0.19524
G1 X81.714 Y73.823 E0.24221
G1 X82.229 Y73.817 E0.29088
G1 X82.31 Y73.817 E0.29853
G1 X82.892 Y73.825 E0.35354
G1 X83.393 Y73.872 E0.40109
G1 X83.677 Y73.935 E0.42858
G1 X84.021 Y74.028 E0.46226
G1 X84.079 Y74.044 E0.46794
G1 X86.053 Y74.619 E0.66224
G1 X88.686 Y75.305 E0.91936
G1 X91.36 Y75.924 E1.17874
G1 X94.026 Y76.458 E1.43568
G1 X96.739 Y76.925 E1.69583
G1 X99.458 Y77.314 E1.95539
G1 X102.158 Y77.622 E2.21219
G1 X104.875 Y77.856 E2.4699
G1 X107.62 Y78.012 E2.72972
G1 X110.376 Y78.092 E2.99027
G1 X113.094 Y78.094 E3.24713
G1 X115.845 Y78.018 E3.50719
G1 X118.569 Y77.865 E3.76502
G1 X121.304 Y77.635 E4.02439
G1 X124.01 Y77.328 E4.28174
G1 X126.738 Y76.942 E4.54211
G1 X129.456 Y76.478 E4.80268
G1 X132.105 Y75.948 E5.05797
G1 X134.774 Y75.336 E5.31673
G1 X137.43 Y74.647 E5.57603
G1 X138.943 Y74.218 E5.72465
G1 X138.943 Y74.219 E5.72474
G1 X139.845 Y73.955 E5.81356
G1 X140.338 Y73.852 E5.86115
G1 X140.725 Y73.827 E5.8978
G1 X141.281 Y73.825 E5.95034
G1 X141.783 Y73.863 E5.99792
G1 X142.273 Y73.98 E6.04552
G1 X142.738 Y74.173 E6.0931
G1 X143.166 Y74.437 E6.14062
G1 X143.468 Y74.688 E6.17773
G1 X143.57 Y74.784 E6.19097
G1 X143.908 Y75.157 E6.23854
G1 X144.183 Y75.579 E6.28613
G1 X144.388 Y76.039 E6.33373
G1 X144.517 Y76.526 E6.38133
G1 X144.568 Y77.037 E6.42986
G1 X144.578 Y77.579 E6.48109
G1 X144.579 Y77.638 E6.48667
G1 X144.579 Y136.106 E12.01189
G1 X144.569 Y136.805 E12.07796
G1 X144.522 Y137.307 E12.1256
G1 X144.396 Y137.794 E12.17314
G1 X144.194 Y138.256 E12.22079
G1 X143.923 Y138.68 E12.26834
G1 X143.684 Y138.96 E12.30313
G1 X143.586 Y139.062 E12.3165
G1 X143.209 Y139.396 E12.36409
G1 X142.784 Y139.667 E12.41173
G1 X142.322 Y139.867 E12.4593
G1 X141.834 Y139.991 E12.50688
G1 X141.296 Y140.037 E12.55791
G1 X140.748 Y140.037 E12.6097
G1 X140.094 Y139.969 E12.67183
G1 X139.771 Y139.901 E12.70302
G1 X139.664 Y139.877 E12.71339
G1 X139.04 Y139.723 E12.77412
G1 X138.961 Y139.702 E12.78185
G1 X137.838 Y139.394 E12.89189
G1 X137.792 Y139.381 E12.89641
G1 X137.406 Y139.269 E12.93439
G1 X134.781 Y138.585 E13.19074
G1 X132.091 Y137.963 E13.45165
G1 X129.426 Y137.43 E13.70848
G1 X126.729 Y136.966 E13.96709
G1 X124.034 Y136.581 E14.22435
G1 X121.26 Y136.265 E14.48819
G1 X118.584 Y136.036 E14.742
G1 X115.835 Y135.879 E15.0022
G1 X113.082 Y135.8 E15.26247
G1 X110.364 Y135.798 E15.51932
G1 X107.611 Y135.875 E15.77958
G1 X104.891 Y136.028 E16.03702
G1 X102.15 Y136.26 E16.29697
G1 X99.416 Y136.569 E16.55698
G1 X96.749 Y136.948 E16.81155
G1 X94 Y137.417 E17.07508
G1 X91.36 Y137.946 E17.32952
G1 X88.675 Y138.562 E17.58984
G1 X86.014 Y139.252 E17.84962
G1 X84.123 Y139.801 E18.0357
G1 X84.082 Y139.813 E18.03974
G1 X83.701 Y139.918 E18.07709
G1 X83.206 Y140.013 E18.12472
G1 X82.929 Y140.031 E18.15095
G1 X82.359 Y140.044 E18.20483
G1 X82.242 Y140.045 E18.21589
G1 X81.676 Y140.037 E18.26938
G1 X81.175 Y139.99 E18.31693
G1 X80.687 Y139.864 E18.36456
G1 X80.225 Y139.663 E18.41217
G1 X79.801 Y139.391 E18.45977
G1 X79.548 Y139.177 E18.49109
G1 X79.434 Y139.07 E18.50586
G1 X79.095 Y138.697 E18.5535
G1 X78.82 Y138.276 E18.60102
G1 X78.615 Y137.816 E18.64861
G1 X78.484 Y137.33 E18.69617
G1 X78.432 Y136.804 E18.74612
G1 X78.42 Y136.034 E18.8189
G1 X78.42 Y135.989 E18.82315
G1 X78.418 Y134.256 E18.98692
G1 X78.418 Y134.251 E18.98739
G1 X78.42 Y128.893 E19.49372
G1 X78.421 Y77.801 E24.32191
G1 X78.421 Y77.755 E24.32626
G1 X78.431 Y77.061 E24.39185
G1 X78.478 Y76.56 E24.4394
G1 X78.604 Y76.072 E24.48703
G1 X78.806 Y75.611 E24.5346
G1 X79.078 Y75.187 E24.5822
G1 X79.413 Y74.811 E24.62979
G0 F4500 X81.78 Y77.165
;TYPE:SUPPORT
G1 F1800 X82.805 Y77.165 E24.72665
G1 X85.358 Y78.819 E25.01412
G1 X85.405 Y78.819 E25.01856
G1 X85.672 Y78.984 E25.04822
G1 X85.687 Y78.985 E25.04964
G1 X86.306 Y79.367 E25.11838
G1 X86.322 Y79.367 E25.11989
G1 X89.589 Y81.37 E25.48203
G1 X89.592 Y81.376 E25.48266
G1 X88.103 Y82.865 E25.68165
G1 X88.099 Y87.331 E26.10369
G1 X88.336 Y87.59 E26.13687
G1 X88.339 Y96.528 E26.98151
G1 X88.338 Y116.097 E28.83078
G1 X88.101 Y116.355 E28.86389
G1 X88.103 Y130.786 E30.22762
G1 X88.264 Y131.173 E30.26723
G1 X89.587 Y132.483 E30.44317
G1 X87.414 Y133.814 E30.68398
G1 X86.888 Y134.149 E30.74291
G1 X86.869 Y134.149 E30.7447
G1 X86.028 Y134.674 E30.83839
G1 X86.014 Y134.674 E30.83972
G1 X85.131 Y135.211 E30.93738
G1 X82.789 Y136.697 E31.19949
G1 X81.772 Y136.697 E31.2956
G1 X81.768 Y134.138 E31.53742
G1 X81.77 Y128.894 E32.03298
G1 X81.771 Y77.175 E36.92043
G1 X81.78 Y77.165 E36.9217
G0 F4500 X81.911 Y79.322
G1 F1800 X85.966 Y79.322 E37.30489
G0 F4500 X86.321 Y79.531
G1 F1800 X86.321 Y134.327 E42.48312
G0 F4500 X84.706 Y135.314
G1 F1800 X81.908 Y135.314 E42.74753
G0 F4500 X83.988 Y135.771
G1 F1800 X83.988 Y78.099 E48.19753
G0 F4500 X81.911 Y81.655
G1 F1800 X89.114 Y81.655 E48.87821
G0 F4500 X88.654 Y82.116
G1 F1800 X88.654 Y80.961 E48.98736
G0 F4500 X87.961 Y83.988
G1 F1800 X81.911 Y83.988 E49.55909
G0 F4500 X81.911 Y86.321
G1 F1800 X87.959 Y86.321 E50.13062
G0 F4500 X88.197 Y88.654
G1 F1800 X81.911 Y88.654 E50.72465
G0 F4500 X81.911 Y90.987
G1 F1800 X88.198 Y90.987 E51.31877
G0 F4500 X88.198 Y93.32
G1 F1800 X81.911 Y93.32 E51.91289
G0 F4500 X81.911 Y95.653
G1 F1800 X88.199 Y95.653 E52.50711
G0 F4500 X88.198 Y97.986
G1 F1800 X81.911 Y97.986 E53.10123
G0 F4500 X81.911 Y100.319
G1 F1800 X88.198 Y100.319 E53.69535
G0 F4500 X88.198 Y102.652
G1 F1800 X81.911 Y102.652 E54.28947
G0 F4500 X81.911 Y104.985
G1 F1800 X88.198 Y104.985 E54.88359
G0 F4500 X88.198 Y107.318
G1 F1800 X81.911 Y107.318 E55.47772
G0 F4500 X81.911 Y109.651
G1 F1800 X88.198 Y109.651 E56.07184
G0 F4500 X88.198 Y111.984
G1 F1800 X81.911 Y111.984 E56.66596
G0 F4500 X81.911 Y114.317
G1 F1800 X88.198 Y114.317 E57.26008
G0 F4500 X87.962 Y116.65
G1 F1800 X81.911 Y116.65 E57.8319
G0 F4500 X81.91 Y118.983
G1 F1800 X87.961 Y118.983 E58.40372
G0 F4500 X87.961 Y121.316
G1 F1800 X81.91 Y121.316 E58.97554
G0 F4500 X81.91 Y123.649
G1 F1800 X87.962 Y123.649 E59.54745
G0 F4500 X87.962 Y125.982
G1 F1800 X81.91 Y125.982 E60.11937
G0 F4500 X81.91 Y128.315
G1 F1800 X87.962 Y128.315 E60.69128
G0 F4500 X87.962 Y130.648
G1 F1800 X81.909 Y130.648 E61.26329
G0 F4500 X81.908 Y132.981
G1 F1800 X88.505 Y132.981 E61.88671
G0 F4500 X88.654 Y132.891
G1 F1800 X88.654 Y131.756 E61.99396
G0 F4500 X96.656 Y127.59
G1 F1800 X96.656 Y127.346 E62.01702
G1 X96.965 Y126.963 E62.06353
G1 X97.003 Y126.947 E62.06742
G1 X97.256 Y126.568 E62.11048
G1 X97.257 Y87.256 E65.82547
G1 X96.657 Y86.522 E65.91506
G1 X96.657 Y86.274 E65.93849
G1 X96.663 Y86.267 E65.93936
G1 X96.905 Y86.267 E65.96223
G1 X97.305 Y86.596 E66.01118
G1 X97.316 Y86.621 E66.01376
G1 X97.695 Y86.868 E66.05651
G1 X124.811 Y86.867 E68.61897
G1 X125.161 Y86.517 E68.66575
G1 X125.161 Y86.195 E68.69617
G1 X126.29 Y86.195 E68.80286
G1 X126.549 Y85.96 E68.83591
G1 X126.65 Y85.96 E68.84546
G1 X126.887 Y86.195 E68.877
G1 X130.85 Y86.195 E69.2515
G1 X131.2 Y85.845 E69.29828
G1 X131.2 Y83.212 E69.5471
G1 X131.306 Y82.88 E69.58003
G1 X131.304 Y82.628 E69.60384
G1 X136.978 Y79.188 E70.23089
G1 X136.989 Y79.188 E70.23192
G1 X137.287 Y79.006 E70.26492
G1 X137.526 Y79.006 E70.28751
G1 X138.166 Y78.434 E70.36862
G1 X138.529 Y78.434 E70.40293
G1 X139.492 Y77.608 E70.52282
G1 X139.792 Y77.608 E70.55117
G1 X140.154 Y77.39 E70.5911
G1 X140.493 Y77.39 E70.62314
G1 X140.83 Y77.165 E70.66143
G1 X141.228 Y77.165 E70.69904
G1 X141.229 Y136.696 E76.32472
G1 X140.828 Y136.697 E76.36262
G1 X140.48 Y136.473 E76.40173
G1 X139.84 Y136.473 E76.46221
G1 X138.179 Y135.396 E76.64928
G1 X133.426 Y132.534 E77.17358
G1 X133.404 Y132.483 E77.17883
G1 X134.898 Y130.976 E77.37936
G1 X134.898 Y111.769 E79.19442
G1 X134.548 Y111.419 E79.2412
G1 X132.938 Y111.419 E79.39334
G1 X132.911 Y98.332 E80.63007
G1 X132.703 Y98.124 E80.65787
G1 X132.703 Y95.187 E80.93541
G1 X132.747 Y95.143 E80.94129
G1 X132.907 Y94.756 E80.98087
G1 X132.892 Y89.04 E81.52103
G1 X132.542 Y88.692 E81.56767
G1 X132.187 Y88.693 E81.60122
G1 X132.173 Y87.036 E81.75781
G1 X131.823 Y86.689 E81.80439
G1 X128.161 Y86.689 E82.15045
G1 X127.811 Y87.039 E82.19722
G1 X127.811 Y88.845 E82.36789
G1 X126.095 Y88.845 E82.53005
G1 X125.745 Y89.195 E82.57682
G1 X125.743 Y126.561 E86.10791
G1 X125.997 Y126.939 E86.15095
G1 X126.004 Y126.942 E86.15167
G1 X126.343 Y127.343 E86.20129
G1 X126.343 Y127.588 E86.22444
G1 X126.337 Y127.595 E86.22531
G1 X126.095 Y127.595 E86.24818
G1 X125.696 Y127.269 E86.29687
G1 X125.683 Y127.241 E86.29979
G1 X125.304 Y126.994 E86.34254
G1 X97.694 Y126.995 E88.95168
G1 X97.316 Y127.242 E88.99436
G1 X97.307 Y127.263 E88.99652
G1 X96.909 Y127.596 E89.04555
G1 X96.663 Y127.596 E89.0688
G1 X96.656 Y127.59 E89.06967
G0 F4500 X98.234 Y125.814
G1 F1800 X98.44 Y126.019 E89.09714
G1 X105.712 Y126.009 E89.78434
G1 X118.468 Y126.009 E90.98978
G1 X124.562 Y126.018 E91.56567
G1 X124.766 Y125.813 E91.593
G1 X124.754 Y119.678 E92.17276
G1 X124.755 Y98.517 E94.17247
G1 X124.766 Y88.048 E95.16179
G1 X124.56 Y87.843 E95.18925
G1 X117.288 Y87.853 E95.87646
G1 X104.532 Y87.853 E97.0819
G1 X99.022 Y87.843 E97.6026
G1 X98.438 Y87.844 E97.65779
G1 X98.234 Y88.049 E97.68512
G1 X98.246 Y94.184 E98.26487
G1 X98.245 Y120.062 E100.71035
G1 X98.234 Y125.814 E101.25391
G0 F4500 X98.204 Y125.982
G1 F1800 X97.396 Y125.982 E101.33027
G0 F4500 X97.986 Y126.855
G1 F1800 X97.986 Y87.007 E105.0959
G0 F4500 X98.096 Y88.654
G1 F1800 X97.397 Y88.654 E105.16196
G0 F4500 X97.397 Y90.987
G1 F1800 X98.1 Y90.987 E105.22839
G0 F4500 X98.105 Y93.32
G1 F1800 X97.397 Y93.32 E105.2953
G0 F4500 X97.397 Y95.653
G1 F1800 X98.105 Y95.653 E105.3622
G0 F4500 X98.105 Y97.986
G1 F1800 X97.397 Y97.986 E105.42911
G0 F4500 X97.397 Y100.319
G1 F1800 X98.105 Y100.319 E105.49602
G0 F4500 X98.105 Y102.652
G1 F1800 X97.397 Y102.652 E105.56292
G0 F4500 X97.397 Y104.985
G1 F1800 X98.105 Y104.985 E105.62983
G0 F4500 X98.105 Y107.318
G1 F1800 X97.397 Y107.318 E105.69673
G0 F4500 X97.397 Y109.651
G1 F1800 X98.105 Y109.651 E105.76364
G0 F4500 X98.105 Y111.984
G1 F1800 X97.397 Y111.984 E105.83055
G0 F4500 X97.397 Y114.317
G1 F1800 X98.105 Y114.317 E105.89745
G0 F4500 X98.105 Y116.65
G1 F1800 X97.397 Y116.65 E105.96436
G0 F4500 X97.396 Y118.983
G1 F1800 X98.104 Y118.983 E106.03126
G0 F4500 X98.101 Y121.316
G1 F1800 X97.396 Y121.316 E106.09789
G0 F4500 X97.396 Y123.649
G1 F1800 X98.097 Y123.649 E106.16413
G10
G0 F4500 X98.449 Y125.296
G0 X100.319 Y126.156
G11
G1 F1800 X100.319 Y126.855 E106.23019
G0 F4500 X102.652 Y126.855
G1 F1800 X102.652 Y126.153 E106.29652
G0 F4500 X104.985 Y126.149
G1 F1800 X104.985 Y126.855 E106.36324
G0 F4500 X107.318 Y126.855
G1 F1800 X107.318 Y126.149 E106.42996
G0 F4500 X109.651 Y126.149
G1 F1800 X109.651 Y126.855 E106.49668
G0 F4500 X111.984 Y126.855
G1 F1800 X111.984 Y126.149 E106.56339
G0 F4500 X114.317 Y126.149
G1 F1800 X114.317 Y126.855 E106.63011
G0 F4500 X116.65 Y126.855
G1 F1800 X116.65 Y126.149 E106.69683
G0 F4500 X118.983 Y126.15
G1 F1800 X118.983 Y126.855 E106.76345
G0 F4500 X121.316 Y126.855
G1 F1800 X121.316 Y126.154 E106.82969
G0 F4500 X123.649 Y126.157
G1 F1800 X123.649 Y126.855 E106.89565
G0 F4500 X124.793 Y125.982
G1 F1800 X125.602 Y125.982 E106.97211
G0 F4500 X125.982 Y127.134
G1 F1800 X125.982 Y127.321 E106.98978
G0 F4500 X125.602 Y123.649
G1 F1800 X124.9 Y123.649 E107.05612
G0 F4500 X124.896 Y121.316
G1 F1800 X125.602 Y121.316 E107.12283
G0 F4500 X125.602 Y118.983
G1 F1800 X124.894 Y118.983 E107.18974
G0 F4500 X124.895 Y116.65
G1 F1800 X125.603 Y116.65 E107.25664
G0 F4500 X125.603 Y114.317
G1 F1800 X124.895 Y114.317 E107.32355
G0 F4500 X124.895 Y111.984
G1 F1800 X125.603 Y111.984 E107.39046
G0 F4500 X125.603 Y109.651
G1 F1800 X124.895 Y109.651 E107.45736
G0 F4500 X124.895 Y107.318
G1 F1800 X125.604 Y107.318 E107.52436
G0 F4500 X125.604 Y104.985
G1 F1800 X124.895 Y104.985 E107.59136
G0 F4500 X124.895 Y102.652
G1 F1800 X125.604 Y102.652 E107.65836
G0 F4500 X125.604 Y100.319
G1 F1800 X124.895 Y100.319 E107.72536
G0 F4500 X124.896 Y97.986
G1 F1800 X125.604 Y97.986 E107.79227
G0 F4500 X125.604 Y95.653
G1 F1800 X124.898 Y95.653 E107.85899
G0 F4500 X124.901 Y93.32
G1 F1800 X125.604 Y93.32 E107.92542
G0 F4500 X125.604 Y90.987
G1 F1800 X124.903 Y90.987 E107.99167
G0 F4500 X124.906 Y88.654
G1 F1800 X127.671 Y88.654 E108.25296
G0 F4500 X125.982 Y88.761
G1 F1800 X125.982 Y86.335 E108.48222
G0 F4500 X126.359 Y86.321
G1 F1800 X126.817 Y86.321 E108.5255
G0 F4500 X128.315 Y86.335
G1 F1800 X128.315 Y86.549 E108.54572
G0 F4500 X130.648 Y86.549
G1 F1800 X130.648 Y86.335 E108.56594
G0 F4500 X130.92 Y86.321
G1 F1800 X141.089 Y86.321 E109.52691
G0 F4500 X141.089 Y83.988
G1 F1800 X131.34 Y83.988 E110.44819
G0 F4500 X132.981 Y81.775
G1 F1800 X132.981 Y88.931 E111.12444
G0 F4500 X132.702 Y88.654
G1 F1800 X141.089 Y88.654 E111.91701
G0 F4500 X141.089 Y90.987
G1 F1800 X133.037 Y90.987 E112.67792
G0 F4500 X133.043 Y93.32
G1 F1800 X141.089 Y93.32 E113.43827
G0 F4500 X141.089 Y95.653
G1 F1800 X132.843 Y95.653 E114.21751
G0 F4500 X132.981 Y94.943
G1 F1800 X132.981 Y98.203 E114.52558
G0 F4500 X132.843 Y97.986
G1 F1800 X141.089 Y97.986 E115.30483
G0 F4500 X141.089 Y100.319
G1 F1800 X133.055 Y100.319 E116.06404
G0 F4500 X133.06 Y102.652
G1 F1800 X141.089 Y102.652 E116.82279
G0 F4500 X141.089 Y104.985
G1 F1800 X133.064 Y104.985 E117.58115
G0 F4500 X133.069 Y107.318
G1 F1800 X141.089 Y107.318 E118.33904
G0 F4500 X141.089 Y109.651
G1 F1800 X133.074 Y109.651 E119.09646
G0 F4500 X135.038 Y111.984
G1 F1800 X141.089 Y111.984 E119.66827
G0 F4500 X141.089 Y114.317
G1 F1800 X135.038 Y114.317 E120.24009
G0 F4500 X135.038 Y116.65
G1 F1800 X141.089 Y116.65 E120.81191
G0 F4500 X141.089 Y118.983
G1 F1800 X135.038 Y118.983 E121.38373
G0 F4500 X135.038 Y121.316
G1 F1800 X141.089 Y121.316 E121.95555
G0 F4500 X141.089 Y123.649
G1 F1800 X135.038 Y123.649 E122.52737
G0 F4500 X135.038 Y125.982
G1 F1800 X141.089 Y125.982 E123.09919
G0 F4500 X141.089 Y128.315
G1 F1800 X135.038 Y128.315 E123.67101
G0 F4500 X135.038 Y130.648
G1 F1800 X141.089 Y130.648 E124.24283
G0 F4500 X141.089 Y132.981
G1 F1800 X134.438 Y132.981 E124.87135
G0 F4500 X135.314 Y133.507
G1 F1800 X135.314 Y80.361 E129.89365
G0 F4500 X137.037 Y79.322
G1 F1800 X141.089 Y79.322 E130.27656
G0 F4500 X139.98 Y77.658
G1 F1800 X139.98 Y136.333 E135.82135
G0 F4500 X141.089 Y135.314
G1 F1800 X138.309 Y135.314 E136.08406
G0 F4500 X137.647 Y134.912
G1 F1800 X137.647 Y79.086 E141.35962
G0 F4500 X141.089 Y81.655
G1 F1800 X133.179 Y81.655 E142.10711
G0 F4500 X123.649 Y87.007
G1 F1800 X123.649 Y87.705 E142.17307
G0 F4500 X121.316 Y87.708
G1 F1800 X121.316 Y87.007 E142.23932
G0 F4500 X118.983 Y87.007
G1 F1800 X118.983 Y87.711 E142.30584
G0 F4500 X116.65 Y87.713
G1 F1800 X116.65 Y87.007 E142.37256
G0 F4500 X114.317 Y87.007
G1 F1800 X114.317 Y87.713 E142.43928
G0 F4500 X111.984 Y87.713
G1 F1800 X111.984 Y87.007 E142.506
G0 F4500 X109.651 Y87.007
G1 F1800 X109.651 Y87.713 E142.57271
G0 F4500 X107.318 Y87.713
G1 F1800 X107.318 Y87.007 E142.63943
G0 F4500 X104.985 Y87.007
G1 F1800 X104.985 Y87.713 E142.70615
G0 F4500 X102.652 Y87.709
G1 F1800 X102.652 Y87.007 E142.77249
G0 F4500 X100.319 Y87.007
G1 F1800 X100.319 Y87.705 E142.83845
G10
;MESH:nesten front.stl
G0 F4500 X100.604 Y89.272
G0 X106.125 Y99.806
;TYPE:WALL-INNER
G11
G1 F1800 X116.875 Y99.806 E143.85432
G1 X116.875 Y89.606 E144.81822
G1 X122.831 Y89.605 E145.38106
G1 X123.006 Y89.605 E145.3976
G1 X123.006 Y89.78 E145.4083
G1 X122.996 Y96.115 E146.00696
G1 X122.995 Y119.678 E148.23366
G1 X123.005 Y124.084 E148.65003
G1 X123.005 Y124.259 E148.66657
G1 X122.83 Y124.259 E148.67727
G1 X122.396 Y124.26 E148.71829
G1 X117.618 Y124.255 E149.16981
G1 X100.167 Y124.257 E150.81893
G1 X99.992 Y124.257 E150.83546
