;FLAVOR:UltiGCode
;TIME:6805
;MATERIAL:18085
;MATERIAL2:0
;NOZZLE_DIAMETER:0.4
;MINX:78.325
;MINY:78.325
;MINZ:0.3
;MAXX:144.675
;MAXY:144.675
;MAXZ:28.9
;Generated with Cura_SteamEngine 4.3.0
M82 ;absolute extrusion mode

G92 E0
G92 E0
G10
;LAYER_COUNT:144
;LAYER:0
M106 S178.5
G0 F4500 X79.314 Y79.215 Z0.3
;TYPE:SKIRT
G11
G1 F1800 X79.704 Y78.897 E0.05284
G1 X80.14 Y78.644 E0.10577
G1 X80.61 Y78.464 E0.15861
G1 X81.103 Y78.36 E0.21152
G1 X81.42 Y78.335 E0.2449
G1 X81.741 Y78.326 E0.27862
G1 X81.83 Y78.325 E0.28797
G1 X140.838 Y78.325 E6.48381
G1 X141.536 Y78.335 E6.55711
G1 X142.038 Y78.382 E6.61005
G1 X142.525 Y78.508 E6.66287
G1 X142.987 Y78.71 E6.71581
G1 X143.411 Y78.981 E6.76865
G1 X143.787 Y79.317 E6.82159
G1 X144.105 Y79.707 E6.87443
G1 X144.357 Y80.143 E6.92731
G1 X144.537 Y80.613 E6.98015
G1 X144.64 Y81.106 E7.03303
G1 X144.665 Y81.421 E7.06621
G1 X144.674 Y81.741 E7.09983
G1 X144.675 Y81.83 E7.10917
G1 X144.675 Y140.803 E13.30134
G1 X144.666 Y141.53 E13.37768
G1 X144.62 Y142.032 E13.43061
G1 X144.495 Y142.52 E13.4835
G1 X144.294 Y142.982 E13.53641
G1 X144.023 Y143.406 E13.58924
G1 X143.689 Y143.782 E13.64205
G1 X143.299 Y144.101 E13.69495
G1 X142.863 Y144.354 E13.74788
G1 X142.393 Y144.535 E13.80077
G1 X141.901 Y144.639 E13.85357
G1 X141.58 Y144.665 E13.88738
G1 X141.259 Y144.674 E13.9211
G1 X141.17 Y144.675 E13.93045
G1 X82.166 Y144.675 E20.12587
G1 X81.468 Y144.666 E20.19916
G1 X80.967 Y144.619 E20.252
G1 X80.479 Y144.494 E20.30489
G1 X80.017 Y144.294 E20.35775
G1 X79.593 Y144.022 E20.41065
G1 X79.216 Y143.688 E20.46353
G1 X78.898 Y143.297 E20.51645
G1 X78.645 Y142.862 E20.56929
G1 X78.464 Y142.392 E20.62217
G1 X78.36 Y141.899 E20.67508
G1 X78.335 Y141.577 E20.70899
G1 X78.326 Y141.244 E20.74397
G1 X78.325 Y141.158 E20.753
G1 X78.325 Y82.131 E26.95083
G1 X78.334 Y81.466 E27.02066
G1 X78.381 Y80.965 E27.0735
G1 X78.506 Y80.477 E27.12639
G1 X78.707 Y80.015 E27.1793
G1 X78.979 Y79.591 E27.23219
G1 X79.314 Y79.215 E27.28507
G10
G0 F4500 X81.152 Y81.065
G0 X95.853 Y95.852
G0 X96.1 Y96.1
;TYPE:SUPPORT
G11
G1 F1800 X126.9 Y96.1 E30.51907
G1 X126.9 Y126.9 E33.75307
G1 X96.1 Y126.9 E36.98707
G1 X96.1 Y96.1 E40.22107
G0 F4500 X106.155 Y105.955
G1 F1800 X105.708 Y106.42 E40.28879
G1 X105.356 Y106.842 E40.34649
G1 X105.207 Y107.061 E40.37431
G1 X104.822 Y107.668 E40.44978
G1 X104.556 Y108.177 E40.51008
G1 X104.333 Y108.696 E40.56939
G1 X104.169 Y109.118 E40.61693
G1 X104.012 Y109.702 E40.68043
G1 X103.901 Y110.214 E40.73544
G1 X103.859 Y110.578 E40.77391
G1 X103.804 Y111.242 E40.84387
G1 X103.804 Y111.711 E40.89312
G1 X103.869 Y112.455 E40.97153
G1 X103.9 Y112.74 E41.00164
G1 X104.028 Y113.343 E41.06636
G1 X104.161 Y113.829 E41.11927
G1 X104.352 Y114.352 E41.17773
G1 X104.563 Y114.848 E41.23433
G1 X104.79 Y115.26 E41.28372
G1 X105.129 Y115.82 E41.35245
G1 X105.354 Y116.145 E41.39396
G1 X105.731 Y116.604 E41.45633
G1 X106.067 Y116.95 E41.50697
G1 X106.495 Y117.355 E41.56884
G1 X106.893 Y117.672 E41.62226
G1 X107.358 Y117.99 E41.68141
G1 X107.838 Y118.279 E41.74024
G1 X108.21 Y118.464 E41.78387
G1 X108.785 Y118.711 E41.84958
G1 X109.323 Y118.891 E41.90914
G1 X109.749 Y119.002 E41.95537
G1 X110.301 Y119.111 E42.01445
G1 X110.87 Y119.172 E42.07453
G1 X111.417 Y119.196 E42.13203
G1 X111.785 Y119.185 E42.17068
G1 X112.456 Y119.148 E42.24124
G1 X112.942 Y119.068 E42.29296
G1 X113.407 Y118.965 E42.34297
G1 X113.963 Y118.797 E42.40396
G1 X114.521 Y118.583 E42.46671
G1 X115.01 Y118.351 E42.52354
G1 X115.441 Y118.123 E42.57474
G1 X115.812 Y117.885 E42.62102
G1 X116.312 Y117.509 E42.6867
G1 X116.681 Y117.194 E42.73765
G1 X117.127 Y116.762 E42.80284
G1 X117.467 Y116.377 E42.85678
G1 X117.731 Y116.024 E42.90306
G1 X118.137 Y115.413 E42.98009
G1 X118.287 Y115.155 E43.01142
G1 X118.537 Y114.629 E43.07257
G1 X118.765 Y114.051 E43.13781
G1 X118.908 Y113.609 E43.18659
G1 X119.04 Y113.075 E43.24435
G1 X119.128 Y112.501 E43.30532
G1 X119.172 Y112.077 E43.35008
G1 X119.195 Y111.469 E43.41397
G1 X119.166 Y110.893 E43.47453
G1 X119.125 Y110.454 E43.52082
G1 X119.047 Y109.991 E43.57012
G1 X118.879 Y109.305 E43.64428
G1 X118.76 Y108.941 E43.68449
G1 X118.528 Y108.376 E43.74862
G1 X118.32 Y107.932 E43.8001
G1 X118.065 Y107.482 E43.85441
G1 X117.721 Y106.962 E43.91988
G1 X117.421 Y106.587 E43.9703
G1 X117.078 Y106.187 E44.02563
G1 X116.748 Y105.868 E44.07382
G1 X116.249 Y105.435 E44.14319
G1 X115.821 Y105.131 E44.19832
G1 X115.467 Y104.9 E44.2427
G1 X115 Y104.644 E44.29862
G1 X114.442 Y104.392 E44.36291
G1 X113.994 Y104.216 E44.41345
G1 X113.418 Y104.041 E44.47666
G1 X112.958 Y103.937 E44.52618
G1 X112.4 Y103.853 E44.58543
G1 X111.86 Y103.808 E44.64232
G1 X111.352 Y103.803 E44.69567
G1 X110.838 Y103.824 E44.74968
G1 X110.323 Y103.889 E44.80419
G1 X109.797 Y103.987 E44.86037
G1 X109.276 Y104.128 E44.91704
G1 X108.769 Y104.301 E44.97329
G1 X108.348 Y104.47 E45.02092
G1 X107.775 Y104.76 E45.08835
G1 X107.315 Y105.041 E45.14495
G1 X106.852 Y105.358 E45.20387
G1 X106.512 Y105.627 E45.24939
G1 X106.155 Y105.955 E45.3003
G0 F4500 X107.149 Y104.985
G1 F1800 X96.24 Y104.985 E46.44574
G0 F4500 X96.24 Y102.652
G1 F1800 X126.76 Y102.652 E49.65034
G0 F4500 X126.76 Y100.319
G1 F1800 X96.24 Y100.319 E52.85494
G0 F4500 X96.24 Y97.986
G1 F1800 X126.76 Y97.986 E56.05954
G0 F4500 X125.982 Y96.24
G1 F1800 X125.982 Y126.76 E59.26414
G0 F4500 X126.759 Y125.982
G1 F1800 X96.239 Y125.982 E62.46874
G0 F4500 X97.986 Y126.76
G1 F1800 X97.986 Y96.24 E65.67334
G0 F4500 X100.319 Y96.24
G1 F1800 X100.319 Y126.76 E68.87794
G0 F4500 X102.652 Y126.76
G1 F1800 X102.652 Y96.24 E72.08254
G0 F4500 X104.985 Y96.24
G1 F1800 X104.985 Y107.151 E73.2282
G0 F4500 X104.878 Y107.318
G1 F1800 X96.24 Y107.318 E74.13519
G0 F4500 X96.24 Y109.651
G1 F1800 X103.881 Y109.651 E74.93749
G0 F4500 X103.688 Y111.984
G1 F1800 X96.24 Y111.984 E75.71953
G0 F4500 X96.24 Y114.317
G1 F1800 X104.191 Y114.317 E76.55439
G0 F4500 X104.985 Y115.853
G1 F1800 X104.985 Y126.76 E77.69962
G0 F4500 X107.318 Y126.76
G1 F1800 X107.318 Y118.13 E78.60577
G0 F4500 X109.156 Y118.983
G1 F1800 X96.239 Y118.983 E79.96206
G0 F4500 X96.239 Y121.316
G1 F1800 X126.759 Y121.316 E83.16666
G0 F4500 X126.759 Y118.983
G1 F1800 X113.83 Y118.983 E84.5242
G0 F4500 X114.317 Y118.81
G1 F1800 X114.317 Y126.76 E85.35895
G0 F4500 X111.984 Y126.76
G1 F1800 X111.984 Y119.314 E86.14078
G0 F4500 X109.651 Y119.122
G1 F1800 X109.651 Y126.76 E86.94277
G0 F4500 X116.65 Y126.76
G1 F1800 X116.65 Y117.404 E87.92515
G0 F4500 X117.414 Y116.65
G1 F1800 X126.76 Y116.65 E88.90648
G0 F4500 X126.76 Y114.317
G1 F1800 X118.811 Y114.317 E89.74113
G0 F4500 X118.983 Y113.832
G1 F1800 X118.983 Y126.76 E91.09857
G0 F4500 X121.316 Y126.76
G1 F1800 X121.316 Y96.24 E94.30317
G0 F4500 X118.983 Y96.24
G1 F1800 X118.983 Y109.173 E95.66113
G0 F4500 X119.107 Y109.651
G1 F1800 X126.76 Y109.651 E96.4647
G0 F4500 X126.76 Y107.318
G1 F1800 X118.125 Y107.318 E97.37137
G0 F4500 X116.65 Y105.597
G1 F1800 X116.65 Y96.24 E98.35386
G0 F4500 X114.317 Y96.24
G1 F1800 X114.317 Y104.193 E99.18892
G0 F4500 X115.854 Y104.985
G1 F1800 X126.76 Y104.985 E100.33405
G0 F4500 X126.76 Y111.984
G1 F1800 X119.316 Y111.984 E101.11567
G0 F4500 X111.984 Y103.677
G1 F1800 X111.984 Y96.24 E101.89656
G0 F4500 X109.651 Y96.24
G1 F1800 X109.651 Y103.882 E102.69897
G0 F4500 X107.318 Y104.876
G1 F1800 X107.318 Y96.24 E103.60575
G0 F4500 X123.649 Y96.24
G1 F1800 X123.649 Y126.76 E106.81035
G0 F4500 X126.759 Y123.649
G1 F1800 X96.239 Y123.649 E110.01495
G0 F4500 X96.24 Y116.65
G1 F1800 X105.587 Y116.65 E110.99638
G10
;MESH:Front.stl
G0 F4500 X95.921 Y116.65
G0 X94.725 Y116.65
G0 X94.375 Y128.625
;TYPE:WALL-INNER
G11
G1 F1800 X128.625 Y128.625 E114.59263
G1 X128.625 Y94.375 E118.18888
G1 X94.375 Y94.375 E121.78513
G1 X94.375 Y128.625 E125.38138
G0 F4500 X95.272 Y133.316
G1 F1800 X95.096 Y134.021 E125.45768
G1 X95.293 Y134.719 E125.53383
G1 X95.816 Y135.228 E125.61046
G1 X96.521 Y135.404 E125.68676
G1 X97.219 Y135.207 E125.76291
G1 X97.728 Y134.684 E125.83954
G1 X97.904 Y133.979 E125.91584
G1 X97.707 Y133.281 E125.99199
G1 X97.184 Y132.772 E126.06862
G1 X96.479 Y132.596 E126.14491
G1 X95.781 Y132.793 E126.22107
G1 X95.272 Y133.316 E126.2977
G0 F4500 X82.375 Y140.625
G1 F1800 X82.375 Y82.375 E132.41395
G1 X140.625 Y82.375 E138.5302
G1 X140.625 Y140.625 E144.64645
G1 X82.375 Y140.625 E150.7627
G0 F4500 X125.272 Y133.316
G1 F1800 X125.096 Y134.021 E150.83899
G1 X125.293 Y134.719 E150.91515
G1 X125.816 Y135.228 E150.99178
G1 X126.521 Y135.404 E151.06807
G1 X127.219 Y135.207 E151.14423
G1 X127.728 Y134.684 E151.22086
G1 X127.904 Y133.979 E151.29715
G1 X127.707 Y133.281 E151.37331
G1 X127.184 Y132.772 E151.44993
G1 X126.479 Y132.596 E151.52623
G1 X125.781 Y132.793 E151.60238
G1 X125.272 Y133.316 E151.67901
G0 F4500 X128.303 Y128.303
G0 X128.303 Y94.697
G0 X126.586 Y94.691
G0 X125.272 Y88.316
G1 F1800 X125.096 Y89.021 E151.75531
G1 X125.293 Y89.719 E151.83146
G1 X125.816 Y90.228 E151.90809
G1 X126.521 Y90.404 E151.98439
G1 X127.219 Y90.207 E152.06054
G1 X127.728 Y89.684 E152.13717
G1 X127.904 Y88.979 E152.21347
G1 X127.707 Y88.281 E152.28962
G1 X127.184 Y87.772 E152.36625
G1 X126.479 Y87.596 E152.44255
G1 X125.781 Y87.793 E152.5187
G1 X125.272 Y88.316 E152.59533
G0 F4500 X96.484 Y87.919
G0 X95.272 Y88.316
G1 F1800 X95.096 Y89.021 E152.67163
G1 X95.293 Y89.719 E152.74778
G1 X95.816 Y90.228 E152.82441
G1 X96.521 Y90.404 E152.90071
G1 X97.219 Y90.207 E152.97686
G1 X97.728 Y89.684 E153.05349
G1 X97.904 Y88.979 E153.12978
G1 X97.707 Y88.281 E153.20594
G1 X97.184 Y87.772 E153.28257
G1 X96.479 Y87.596 E153.35886
G1 X95.781 Y87.793 E153.43502
G1 X95.272 Y88.316 E153.51165
G0 F4500 X95.589 Y88.492
G1 F1800 X95.458 Y89.016 E153.56836
G1 X95.604 Y89.534 E153.62487
G1 X95.992 Y89.911 E153.68167
G1 X96.516 Y90.042 E153.73839
G1 X97.034 Y89.896 E153.7949
G1 X97.411 Y89.508 E153.8517
G1 X97.542 Y88.984 E153.90841
G1 X97.396 Y88.466 E153.96492
G1 X97.008 Y88.089 E154.02173
G1 X96.484 Y87.958 E154.07844
G1 X95.966 Y88.104 E154.13495
G1 X95.589 Y88.492 E154.19175
G0 F4500 X95.502 Y88.444
G0 X96.381 Y87.949
G0 X125.502 Y88.444
G0 X125.589 Y88.492
G1 F1800 X125.458 Y89.016 E154.24847
G1 X125.604 Y89.534 E154.30498
G1 X125.992 Y89.911 E154.36178
G1 X126.516 Y90.042 E154.41849
G1 X127.034 Y89.896 E154.475
G1 X127.411 Y89.508 E154.53181
G1 X127.542 Y88.984 E154.58852
G1 X127.396 Y88.466 E154.64503
G1 X127.008 Y88.089 E154.70183
G1 X126.484 Y87.958 E154.75855
G1 X125.966 Y88.104 E154.81506
G1 X125.589 Y88.492 E154.87186
G0 F4500 X125.502 Y88.444
G0 X125.502 Y94.685
G0 X128.303 Y94.697
G0 X128.303 Y128.303
G0 X125.502 Y133.444
G0 X125.589 Y133.492
G1 F1800 X125.458 Y134.016 E154.92857
G1 X125.604 Y134.534 E154.98508
G1 X125.992 Y134.911 E155.04189
G1 X126.516 Y135.042 E155.0986
G1 X127.034 Y134.896 E155.15511
G1 X127.411 Y134.508 E155.21191
G1 X127.542 Y133.984 E155.26863
G1 X127.396 Y133.466 E155.32514
G1 X127.008 Y133.089 E155.38194
G1 X126.484 Y132.958 E155.43865
G1 X125.966 Y133.104 E155.49516
G1 X125.589 Y133.492 E155.55197
G0 F4500 X125.502 Y133.444
G0 X96.484 Y132.919
G0 X95.502 Y133.444
G0 X95.589 Y133.492
G1 F1800 X95.458 Y134.016 E155.60868
G1 X95.604 Y134.534 E155.66519
G1 X95.992 Y134.911 E155.72199
G1 X96.516 Y135.042 E155.77871
G1 X97.034 Y134.896 E155.83522
G1 X97.411 Y134.508 E155.89202
G1 X97.542 Y133.984 E155.94873
G1 X97.396 Y133.466 E156.00524
G1 X97.008 Y133.089 E156.06205
G1 X96.484 Y132.958 E156.11876
G1 X95.966 Y133.104 E156.17527
G1 X95.589 Y133.492 E156.23207
G0 F4500 X95.502 Y133.444
G0 X94.655 Y128.345
G0 X94.725 Y128.275
G1 F1800 X128.275 Y128.275 E159.75482
G1 X128.275 Y94.725 E163.27757
G1 X94.725 Y94.725 E166.80032
G1 X94.725 Y128.275 E170.32307
G0 F4500 X94.655 Y128.345
G0 X82.095 Y140.905
G0 X82.025 Y140.975
G1 F1800 X82.025 Y82.025 E176.51282
G1 X140.975 Y82.025 E182.70257
G1 X140.975 Y140.975 E188.89232
G1 X82.025 Y140.975 E195.08207
G0 F4500 X81.7 Y141.3
;TYPE:WALL-OUTER
G1 F1800 X81.7 Y81.7 E201.34007
G1 X141.3 Y81.7 E207.59807
G1 X141.3 Y141.3 E213.85607
G1 X81.7 Y141.3 E220.11407
G0 F4500 X81.7 Y141.1
G0 X82.095 Y140.905
G0 X95.597 Y134.665
G0 X95.893 Y134.362
G1 F1800 X96.156 Y134.617 E220.15254
G1 X96.511 Y134.706 E220.19097
G1 X96.862 Y134.607 E220.22926
G1 X97.117 Y134.344 E220.26772
G1 X97.206 Y133.989 E220.30615
G1 X97.107 Y133.638 E220.34444
G1 X96.844 Y133.383 E220.38291
G1 X96.489 Y133.294 E220.42134
G1 X96.138 Y133.393 E220.45963
G1 X95.883 Y133.656 E220.49809
G1 X95.794 Y134.011 E220.53652
G1 X95.893 Y134.362 E220.57482
G0 F4500 X96.036 Y134.501
G0 X95.741 Y134.805
G0 X94.625 Y127.95
G0 X95.05 Y127.95
G1 F1800 X127.95 Y127.95 E224.02932
G1 X127.95 Y95.05 E227.48382
G1 X95.05 Y95.05 E230.93832
G1 X95.05 Y127.95 E234.39282
G0 F4500 X95.25 Y127.95
G0 X95.25 Y128.375
G0 X125.597 Y134.665
G0 X125.893 Y134.362
G1 F1800 X126.156 Y134.617 E234.43128
G1 X126.511 Y134.706 E234.46971
G1 X126.862 Y134.607 E234.508
G1 X127.117 Y134.344 E234.54647
G1 X127.206 Y133.989 E234.58489
G1 X127.107 Y133.638 E234.62319
G1 X126.844 Y133.383 E234.66165
G1 X126.489 Y133.294 E234.70008
G1 X126.138 Y133.393 E234.73837
G1 X125.883 Y133.656 E234.77684
G1 X125.794 Y134.011 E234.81526
G1 X125.893 Y134.362 E234.85356
G0 F4500 X126.036 Y134.501
G0 X125.741 Y134.805
G0 X125.419 Y134.016
G0 X125.719 Y128.313
G0 X128.303 Y128.303
G0 X128.303 Y94.697
G0 X125.597 Y89.665
G0 X125.893 Y89.362
G1 F1800 X126.156 Y89.617 E234.89202
G1 X126.511 Y89.706 E234.93045
G1 X126.862 Y89.607 E234.96874
G1 X127.117 Y89.344 E235.00721
G1 X127.206 Y88.989 E235.04564
G1 X127.107 Y88.638 E235.08393
G1 X126.844 Y88.383 E235.12239
G1 X126.489 Y88.294 E235.16082
G1 X126.138 Y88.393 E235.19911
G1 X125.883 Y88.656 E235.23758
G1 X125.794 Y89.011 E235.27601
G1 X125.893 Y89.362 E235.3143
G0 F4500 X126.036 Y89.501
G0 X125.741 Y89.805
G0 X96.516 Y90.081
G0 X95.597 Y89.665
G0 X95.893 Y89.362
G1 F1800 X96.156 Y89.617 E235.35276
G1 X96.511 Y89.706 E235.39119
G1 X96.862 Y89.607 E235.42949
G1 X97.117 Y89.344 E235.46795
G1 X97.206 Y88.989 E235.50638
G1 X97.107 Y88.638 E235.54467
G1 X96.844 Y88.383 E235.58314
G1 X96.489 Y88.294 E235.62156
G1 X96.138 Y88.393 E235.65986
G1 X95.883 Y88.656 E235.69832
G1 X95.794 Y89.011 E235.73675
G1 X95.893 Y89.362 E235.77504
G0 F4500 X96.036 Y89.501
G0 X95.741 Y89.805
G0 X95.645 Y90.535
;TYPE:SKIN
G1 F1800 X96.527 Y90.756 E235.87052
G1 X97.399 Y90.51 E235.96565
G1 X98.035 Y89.855 E236.06151
G1 X98.256 Y88.973 E236.15698
G1 X98.01 Y88.101 E236.25212
G1 X97.355 Y87.465 E236.34798
G1 X96.473 Y87.244 E236.44345
G1 X95.601 Y87.49 E236.53859
G1 X94.965 Y88.145 E236.63445
G1 X94.744 Y89.027 E236.72992
G1 X94.99 Y89.899 E236.82506
G1 X95.645 Y90.535 E236.92092
G0 F4500 X94.035 Y94.035
G1 F1800 X94.035 Y128.965 E240.58857
G1 X128.965 Y128.965 E244.25622
G1 X128.965 Y94.035 E247.92387
G1 X94.035 Y94.035 E251.59152
G0 F4500 X82.715 Y82.715
G1 F1800 X140.285 Y82.715 E257.63637
G1 X140.285 Y140.285 E263.68122
G1 X82.715 Y140.285 E269.72607
G1 X82.715 Y82.715 E275.77092
G0 F4500 X124.744 Y89.027
G1 F1800 X124.99 Y89.899 E275.86605
G1 X125.645 Y90.535 E275.96191
G1 X126.527 Y90.756 E276.05739
G1 X127.399 Y90.51 E276.15252
G1 X128.035 Y89.855 E276.24838
G1 X128.256 Y88.973 E276.34386
G1 X128.01 Y88.101 E276.43899
G1 X127.355 Y87.465 E276.53485
G1 X126.473 Y87.244 E276.63032
G1 X125.601 Y87.49 E276.72546
G1 X124.965 Y88.145 E276.82132
G1 X124.744 Y89.027 E276.91679
G0 F4500 X128.303 Y94.697
G0 X128.303 Y128.303
G0 X125.601 Y132.49
G1 F1800 X124.965 Y133.145 E277.01266
G1 X124.744 Y134.027 E277.10813
G1 X124.99 Y134.899 E277.20326
G1 X125.645 Y135.535 E277.29912
G1 X126.527 Y135.756 E277.3946
G1 X127.399 Y135.51 E277.48973
G1 X128.035 Y134.855 E277.58559
G1 X128.256 Y133.973 E277.68107
G1 X128.01 Y133.101 E277.7762
G1 X127.355 Y132.465 E277.87206
G1 X126.473 Y132.244 E277.96754
G1 X125.601 Y132.49 E278.06267
G0 F4500 X96.473 Y132.244
G1 F1800 X95.601 Y132.49 E278.1578
G1 X94.965 Y133.145 E278.25367
G1 X94.744 Y134.027 E278.34914
G1 X94.99 Y134.899 E278.44427
G1 X95.645 Y135.535 E278.54013
G1 X96.527 Y135.756 E278.63561
G1 X97.399 Y135.51 E278.73074
G1 X98.035 Y134.855 E278.8266
G1 X98.256 Y133.973 E278.92208
