;FLAVOR:UltiGCode
;TIME:6264
;MATERIAL:14810
;MATERIAL2:0
;NOZZLE_DIAMETER:0.4
;MINX:77.325
;MINY:77.325
;MINZ:0.27
;MAXX:145.675
;MAXY:145.675
;MAXZ:17.87
;Generated with Cura_SteamEngine 4.3.0
M82 ;absolute extrusion mode

G92 E0
G92 E0
G10
;LAYER_COUNT:89
;LAYER:0
M107
G0 F4500 X78.314 Y78.215 Z0.27
;TYPE:SKIRT
G11
G1 F1800 X78.704 Y77.897 E0.04755
G1 X79.14 Y77.644 E0.09519
G1 X79.61 Y77.464 E0.14275
G1 X80.103 Y77.36 E0.19036
G1 X80.42 Y77.335 E0.22041
G1 X80.741 Y77.326 E0.25076
G1 X80.83 Y77.325 E0.25917
G1 X141.838 Y77.325 E6.02443
G1 X142.536 Y77.335 E6.0904
G1 X143.038 Y77.382 E6.13804
G1 X143.525 Y77.508 E6.18558
G1 X143.987 Y77.71 E6.23323
G1 X144.411 Y77.981 E6.28078
G1 X144.787 Y78.317 E6.32843
G1 X145.105 Y78.707 E6.37599
G1 X145.357 Y79.143 E6.42358
G1 X145.537 Y79.613 E6.47114
G1 X145.64 Y80.106 E6.51873
G1 X145.665 Y80.421 E6.54859
G1 X145.674 Y80.741 E6.57884
G1 X145.675 Y80.83 E6.58726
G1 X145.675 Y141.803 E12.3492
G1 X145.666 Y142.53 E12.41791
G1 X145.62 Y143.032 E12.46555
G1 X145.495 Y143.52 E12.51315
G1 X145.294 Y143.982 E12.56077
G1 X145.023 Y144.406 E12.60832
G1 X144.689 Y144.782 E12.65584
G1 X144.299 Y145.101 E12.70346
G1 X143.863 Y145.354 E12.75109
G1 X143.393 Y145.535 E12.79869
G1 X142.901 Y145.639 E12.84621
G1 X142.58 Y145.665 E12.87664
G1 X142.259 Y145.674 E12.90699
G1 X142.17 Y145.675 E12.9154
G1 X81.166 Y145.675 E18.68028
G1 X80.468 Y145.666 E18.74625
G1 X79.967 Y145.619 E18.7938
G1 X79.479 Y145.494 E18.8414
G1 X79.017 Y145.294 E18.88898
G1 X78.593 Y145.022 E18.93658
G1 X78.216 Y144.688 E18.98418
G1 X77.898 Y144.297 E19.03181
G1 X77.645 Y143.862 E19.07936
G1 X77.464 Y143.392 E19.12696
G1 X77.36 Y142.899 E19.17457
G1 X77.335 Y142.577 E19.20509
G1 X77.326 Y142.244 E19.23657
G1 X77.325 Y142.158 E19.2447
G1 X77.325 Y81.131 E25.01175
G1 X77.334 Y80.466 E25.0746
G1 X77.381 Y79.965 E25.12215
G1 X77.506 Y79.477 E25.16975
G1 X77.707 Y79.015 E25.21737
G1 X77.979 Y78.591 E25.26497
G1 X78.314 Y78.215 E25.31256
G10
;MESH:batter holder.stl
G0 F4500 X81.039 Y79.804
G0 X81.039 Y81.039
G0 X94.654 Y96.893
;TYPE:WALL-INNER
G11
G1 F1800 X94.901 Y97.501 E25.37458
G1 X95.339 Y97.986 E25.43633
G1 X95.917 Y98.294 E25.49822
G1 X96.567 Y98.385 E25.56025
G1 X97.207 Y98.248 E25.6221
G1 X97.763 Y97.901 E25.68403
G1 X98.165 Y97.385 E25.74585
G1 X98.368 Y96.763 E25.80768
G1 X98.346 Y96.107 E25.8697
G1 X98.099 Y95.499 E25.93172
G1 X97.661 Y95.014 E25.99348
G1 X97.083 Y94.706 E26.05537
G1 X96.433 Y94.615 E26.11739
G1 X95.793 Y94.752 E26.17924
G1 X95.237 Y95.099 E26.24118
G1 X94.835 Y95.615 E26.30299
G1 X94.632 Y96.237 E26.36482
G1 X94.654 Y96.893 E26.42685
G0 F4500 X94.654 Y126.893
G1 F1800 X94.901 Y127.501 E26.48886
G1 X95.339 Y127.986 E26.55062
G1 X95.917 Y128.294 E26.61251
G1 X96.567 Y128.385 E26.67454
G1 X97.207 Y128.248 E26.73639
G1 X97.763 Y127.901 E26.79832
G1 X98.165 Y127.385 E26.86013
G1 X98.368 Y126.763 E26.92196
G1 X98.346 Y126.107 E26.98399
G1 X98.099 Y125.499 E27.04601
G1 X97.661 Y125.014 E27.10776
G1 X97.083 Y124.706 E27.16966
G1 X96.433 Y124.615 E27.23168
G1 X95.793 Y124.752 E27.29353
G1 X95.237 Y125.099 E27.35547
G1 X94.835 Y125.615 E27.41728
G1 X94.632 Y126.237 E27.47911
G1 X94.654 Y126.893 E27.54114
G0 F4500 X95.114 Y125.764
G0 X95.911 Y125.044
G0 X111.953 Y122.367
G1 F1800 X112.602 Y122.318 E27.60264
G1 X113.246 Y122.234 E27.66401
G1 X113.885 Y122.11 E27.72553
G1 X114.514 Y121.948 E27.78691
G1 X115.134 Y121.75 E27.84841
G1 X115.741 Y121.513 E27.90999
G1 X116.33 Y121.243 E27.97122
G1 X116.905 Y120.937 E28.03277
G1 X117.459 Y120.597 E28.0942
G1 X117.991 Y120.224 E28.1556
G1 X118.501 Y119.821 E28.21702
G1 X118.987 Y119.387 E28.2786
G1 X119.445 Y118.926 E28.34001
G1 X119.875 Y118.437 E28.40154
G1 X120.273 Y117.925 E28.46283
G1 X120.641 Y117.389 E28.52427
G1 X120.976 Y116.832 E28.58569
G1 X121.279 Y116.255 E28.64728
G1 X121.546 Y115.662 E28.70874
G1 X121.776 Y115.055 E28.77008
G1 X121.971 Y114.435 E28.8315
G1 X122.127 Y113.803 E28.89301
G1 X122.245 Y113.163 E28.95451
G1 X122.326 Y112.519 E29.01585
G1 X122.368 Y111.87 E29.07731
G1 X122.371 Y111.22 E29.13873
G1 X122.332 Y110.53 E29.20404
G1 X122.255 Y109.882 E29.26571
G1 X122.138 Y109.24 E29.32738
G1 X121.985 Y108.611 E29.38855
G1 X121.793 Y107.988 E29.45016
G1 X121.565 Y107.379 E29.51161
G1 X121.301 Y106.785 E29.57304
G1 X121.002 Y106.209 E29.63437
G1 X120.668 Y105.649 E29.69598
G1 X120.301 Y105.111 E29.75753
G1 X119.905 Y104.598 E29.81877
G1 X119.477 Y104.108 E29.88025
G1 X119.021 Y103.644 E29.94173
G1 X118.536 Y103.209 E30.0033
G1 X118.029 Y102.804 E30.06462
G1 X117.497 Y102.429 E30.12612
G1 X116.946 Y102.087 E30.18741
G1 X116.373 Y101.777 E30.24897
G1 X115.782 Y101.504 E30.31049
G1 X115.177 Y101.267 E30.3719
G1 X114.558 Y101.064 E30.43346
G1 X113.929 Y100.901 E30.49486
G1 X113.293 Y100.775 E30.55613
G1 X112.647 Y100.687 E30.61774
G1 X112.003 Y100.637 E30.67878
G1 X111.351 Y100.625 E30.74041
G1 X110.699 Y100.653 E30.80208
G1 X110.052 Y100.722 E30.86357
G1 X109.412 Y100.827 E30.92486
G1 X108.778 Y100.97 E30.98627
G1 X108.152 Y101.152 E31.04788
G1 X107.541 Y101.371 E31.10922
G1 X106.942 Y101.625 E31.1707
G1 X106.359 Y101.917 E31.23232
G1 X105.798 Y102.24 E31.29349
G1 X105.253 Y102.597 E31.35506
G1 X104.732 Y102.987 E31.41656
G1 X104.236 Y103.406 E31.47792
G1 X103.766 Y103.854 E31.53928
G1 X103.321 Y104.331 E31.60093
G1 X102.908 Y104.834 E31.66243
G1 X102.526 Y105.358 E31.72371
G1 X102.175 Y105.906 E31.78521
G1 X101.858 Y106.473 E31.84659
G1 X101.573 Y107.058 E31.90809
G1 X101.326 Y107.659 E31.96949
G1 X101.115 Y108.275 E32.03102
G1 X100.941 Y108.9 E32.09233
G1 X100.805 Y109.537 E32.15389
G1 X100.706 Y110.179 E32.21527
G1 X100.645 Y110.826 E32.27668
G1 X100.626 Y111.476 E32.33814
G1 X100.641 Y112.126 E32.39958
G1 X100.699 Y112.775 E32.46115
G1 X100.795 Y113.418 E32.52259
G1 X100.928 Y114.054 E32.58399
G1 X101.1 Y114.684 E32.6457
G1 X101.31 Y115.299 E32.70712
G1 X101.555 Y115.899 E32.76836
G1 X101.835 Y116.485 E32.82974
G1 X102.151 Y117.055 E32.89132
G1 X102.499 Y117.602 E32.95259
G1 X102.879 Y118.131 E33.01414
G1 X103.292 Y118.633 E33.07557
G1 X103.733 Y119.112 E33.1371
G1 X104.202 Y119.562 E33.19852
G1 X104.697 Y119.984 E33.25999
G1 X105.216 Y120.375 E33.3214
G1 X105.757 Y120.735 E33.38281
G1 X106.32 Y121.062 E33.44433
G1 X106.901 Y121.354 E33.50578
G1 X107.497 Y121.611 E33.56712
G1 X108.111 Y121.833 E33.62882
G1 X108.733 Y122.017 E33.69011
G1 X109.368 Y122.162 E33.75167
G1 X110.008 Y122.27 E33.813
G1 X110.653 Y122.34 E33.87431
G1 X111.301 Y122.372 E33.93562
G1 X111.953 Y122.367 E33.99724
G0 F4500 X124.654 Y126.893
G1 F1800 X124.901 Y127.501 E34.05925
G1 X125.339 Y127.986 E34.12101
G1 X125.917 Y128.294 E34.1829
G1 X126.567 Y128.385 E34.24493
G1 X127.207 Y128.248 E34.30678
G1 X127.763 Y127.901 E34.36871
G1 X128.165 Y127.385 E34.43052
G1 X128.368 Y126.763 E34.49235
G1 X128.346 Y126.107 E34.55438
G1 X128.099 Y125.499 E34.6164
G1 X127.661 Y125.014 E34.67815
G1 X127.083 Y124.706 E34.74005
G1 X126.433 Y124.615 E34.80207
G1 X125.793 Y124.752 E34.86392
G1 X125.237 Y125.099 E34.92586
G1 X124.835 Y125.615 E34.98767
G1 X124.632 Y126.237 E35.0495
G1 X124.654 Y126.893 E35.11153
G0 F4500 X124.654 Y96.893
G1 F1800 X124.901 Y97.501 E35.17354
G1 X125.339 Y97.986 E35.2353
G1 X125.917 Y98.294 E35.29719
G1 X126.567 Y98.385 E35.35921
G1 X127.207 Y98.248 E35.42106
G1 X127.763 Y97.901 E35.483
G1 X128.165 Y97.385 E35.54481
G1 X128.368 Y96.763 E35.60664
G1 X128.346 Y96.107 E35.66867
G1 X128.099 Y95.499 E35.73069
G1 X127.661 Y95.014 E35.79244
G1 X127.083 Y94.706 E35.85433
G1 X126.433 Y94.615 E35.91636
G1 X125.793 Y94.752 E35.97821
G1 X125.237 Y95.099 E36.04014
G1 X124.835 Y95.615 E36.10196
G1 X124.632 Y96.237 E36.16379
G1 X124.654 Y96.893 E36.22581
G0 F4500 X108.248 Y101.447
G0 X106.507 Y102.19
G0 X104.926 Y103.23
G0 X103.554 Y104.536
G0 X102.654 Y105.775
G0 X81.375 Y141.625
G1 F1800 X81.375 Y81.375 E41.91944
G1 X141.625 Y81.375 E47.61306
G1 X141.625 Y141.625 E53.30669
G1 X81.375 Y141.625 E59.00031
G0 F4500 X81.025 Y141.975
G1 F1800 X81.025 Y81.025 E64.76009
G1 X141.975 Y81.025 E70.51986
G1 X141.975 Y141.975 E76.27964
G1 X81.025 Y141.975 E82.03941
G0 F4500 X81.095 Y141.905
G0 X94.905 Y126.839
G0 X95.002 Y126.819
G1 F1800 X95.202 Y127.312 E82.08969
G1 X95.558 Y127.706 E82.13987
G1 X96.027 Y127.956 E82.19009
G1 X96.554 Y128.03 E82.24038
G1 X97.074 Y127.919 E82.29063
G1 X97.525 Y127.637 E82.3409
G1 X97.851 Y127.218 E82.39107
G1 X98.016 Y126.713 E82.44127
G1 X97.998 Y126.181 E82.49157
G1 X97.798 Y125.688 E82.54185
G1 X97.442 Y125.294 E82.59203
G1 X96.973 Y125.044 E82.64225
G1 X96.446 Y124.97 E82.69254
G1 X95.926 Y125.081 E82.74279
G1 X95.475 Y125.363 E82.79306
G1 X95.149 Y125.782 E82.84322
G1 X94.984 Y126.287 E82.89343
G1 X95.002 Y126.819 E82.94373
G0 F4500 X94.905 Y126.839
G0 X95.114 Y125.764
G0 X95.864 Y125.073
G0 X111.943 Y122.116
G0 X111.939 Y122.017
G1 F1800 X112.566 Y121.97 E83.00315
G1 X113.19 Y121.888 E83.06263
G1 X113.808 Y121.768 E83.12212
G1 X114.417 Y121.612 E83.18153
G1 X115.017 Y121.42 E83.24106
G1 X115.604 Y121.191 E83.3006
G1 X116.175 Y120.929 E83.35997
G1 X116.731 Y120.633 E83.41949
G1 X117.267 Y120.304 E83.47893
G1 X117.782 Y119.943 E83.53836
G1 X118.276 Y119.553 E83.59784
G1 X118.746 Y119.133 E83.6574
G1 X119.189 Y118.687 E83.71681
G1 X119.605 Y118.214 E83.77633
G1 X119.99 Y117.718 E83.83567
G1 X120.347 Y117.199 E83.8952
G1 X120.671 Y116.66 E83.95463
G1 X120.964 Y116.102 E84.01419
G1 X121.222 Y115.528 E84.07366
G1 X121.445 Y114.94 E84.13308
G1 X121.634 Y114.34 E84.19253
G1 X121.785 Y113.729 E84.25201
G1 X121.899 Y113.11 E84.31149
G1 X121.977 Y112.486 E84.37091
G1 X122.018 Y111.858 E84.43039
G1 X122.021 Y111.229 E84.48983
G1 X121.983 Y110.56 E84.55315
G1 X121.909 Y109.934 E84.61272
G1 X121.796 Y109.313 E84.67237
G1 X121.647 Y108.704 E84.73161
G1 X121.462 Y108.101 E84.79122
G1 X121.241 Y107.512 E84.85067
G1 X120.985 Y106.937 E84.91015
G1 X120.696 Y106.379 E84.96953
G1 X120.373 Y105.837 E85.02916
G1 X120.018 Y105.317 E85.08866
G1 X119.634 Y104.82 E85.14801
G1 X119.22 Y104.346 E85.20748
G1 X118.779 Y103.897 E85.26695
G1 X118.31 Y103.476 E85.32651
G1 X117.819 Y103.084 E85.38589
G1 X117.304 Y102.721 E85.44543
G1 X116.77 Y102.39 E85.5048
G1 X116.216 Y102.09 E85.56433
G1 X115.645 Y101.826 E85.62378
G1 X115.059 Y101.596 E85.68327
G1 X114.46 Y101.4 E85.74283
G1 X113.851 Y101.242 E85.80229
G1 X113.235 Y101.12 E85.86163
G1 X112.61 Y101.035 E85.92124
G1 X111.986 Y100.987 E85.98038
G1 X111.355 Y100.975 E86.04002
G1 X110.725 Y101.002 E86.09961
G1 X110.099 Y101.069 E86.1591
G1 X109.479 Y101.171 E86.21848
G1 X108.865 Y101.309 E86.27795
G1 X108.26 Y101.485 E86.33749
G1 X107.669 Y101.697 E86.39683
G1 X107.089 Y101.943 E86.45636
G1 X106.525 Y102.225 E86.51595
G1 X105.981 Y102.538 E86.57526
G1 X105.454 Y102.884 E86.63484
G1 X104.95 Y103.261 E86.69432
G1 X104.47 Y103.667 E86.75373
G1 X104.015 Y104.1 E86.81308
G1 X103.584 Y104.562 E86.87279
G1 X103.185 Y105.048 E86.93221
G1 X102.815 Y105.556 E86.9916
G1 X102.475 Y106.086 E87.05111
G1 X102.168 Y106.635 E87.11055
G1 X101.893 Y107.201 E87.17001
G1 X101.654 Y107.783 E87.22947
G1 X101.449 Y108.379 E87.28903
G1 X101.281 Y108.984 E87.34837
G1 X101.149 Y109.6 E87.4079
G1 X101.054 Y110.222 E87.46736
G1 X100.995 Y110.848 E87.52678
G1 X100.976 Y111.477 E87.58625
G1 X100.991 Y112.106 E87.6457
G1 X101.047 Y112.734 E87.70529
G1 X101.14 Y113.356 E87.76472
G1 X101.268 Y113.972 E87.82417
G1 X101.435 Y114.581 E87.88385
G1 X101.638 Y115.176 E87.94326
G1 X101.875 Y115.757 E88.00256
G1 X102.146 Y116.325 E88.06203
G1 X102.452 Y116.876 E88.12159
G1 X102.789 Y117.406 E88.18094
G1 X103.157 Y117.917 E88.24045
G1 X103.556 Y118.403 E88.29987
G1 X103.983 Y118.867 E88.35946
G1 X104.437 Y119.302 E88.41888
G1 X104.916 Y119.711 E88.4784
G1 X105.418 Y120.089 E88.53778
G1 X105.942 Y120.438 E88.59728
G1 X106.487 Y120.754 E88.65681
G1 X107.049 Y121.037 E88.71628
G1 X107.626 Y121.285 E88.77563
G1 X108.22 Y121.5 E88.83532
G1 X108.822 Y121.678 E88.89465
G1 X109.436 Y121.819 E88.95418
G1 X110.056 Y121.923 E89.01359
G1 X110.681 Y121.991 E89.073
G1 X111.308 Y122.022 E89.13232
G1 X111.939 Y122.017 E89.19195
G0 F4500 X111.943 Y122.116
G0 X124.905 Y126.839
G0 X125.002 Y126.819
G1 F1800 X125.202 Y127.312 E89.24223
G1 X125.558 Y127.706 E89.29241
G1 X126.027 Y127.956 E89.34263
G1 X126.554 Y128.03 E89.39292
G1 X127.074 Y127.919 E89.44317
G1 X127.525 Y127.637 E89.49344
G1 X127.851 Y127.218 E89.54361
G1 X128.016 Y126.713 E89.59381
G1 X127.998 Y126.181 E89.64411
G1 X127.798 Y125.688 E89.69439
G1 X127.442 Y125.294 E89.74457
G1 X126.973 Y125.044 E89.79479
G1 X126.446 Y124.97 E89.84508
G1 X125.926 Y125.081 E89.89533
G1 X125.475 Y125.363 E89.9456
G1 X125.149 Y125.782 E89.99576
G1 X124.984 Y126.287 E90.04597
G1 X125.002 Y126.819 E90.09627
G0 F4500 X124.905 Y126.839
G0 X124.905 Y96.839
G0 X125.002 Y96.819
G1 F1800 X125.202 Y97.312 E90.14655
G1 X125.558 Y97.706 E90.19673
G1 X126.027 Y97.956 E90.24695
G1 X126.554 Y98.03 E90.29724
G1 X127.074 Y97.919 E90.34749
G1 X127.525 Y97.637 E90.39776
G1 X127.851 Y97.218 E90.44792
G1 X128.016 Y96.713 E90.49813
G1 X127.998 Y96.181 E90.54843
G1 X127.798 Y95.688 E90.59871
G1 X127.442 Y95.294 E90.64889
G1 X126.973 Y95.044 E90.69911
G1 X126.446 Y94.97 E90.7494
G1 X125.926 Y95.081 E90.79965
G1 X125.475 Y95.363 E90.84992
G1 X125.149 Y95.782 E90.90008
G1 X124.984 Y96.287 E90.95029
G1 X125.002 Y96.819 E91.00059
G0 F4500 X124.905 Y96.839
G0 X96.555 Y98.069
G0 X95.534 Y97.737
G0 X94.905 Y96.839
G0 X95.002 Y96.819
G1 F1800 X95.202 Y97.312 E91.05087
G1 X95.558 Y97.706 E91.10105
G1 X96.027 Y97.956 E91.15127
G1 X96.554 Y98.03 E91.20156
G1 X97.074 Y97.919 E91.25181
G1 X97.525 Y97.637 E91.30207
G1 X97.851 Y97.218 E91.35224
G1 X98.016 Y96.713 E91.40245
G1 X97.998 Y96.181 E91.45275
G1 X97.798 Y95.688 E91.50303
G1 X97.442 Y95.294 E91.55321
G1 X96.973 Y95.044 E91.60343
G1 X96.446 Y94.97 E91.65372
G1 X95.926 Y95.081 E91.70397
G1 X95.475 Y95.363 E91.75423
G1 X95.149 Y95.782 E91.8044
G1 X94.984 Y96.287 E91.85461
G1 X95.002 Y96.819 E91.90491
G0 F4500 X95.325 Y96.75
;TYPE:WALL-OUTER
G1 F1800 X95.482 Y97.137 E91.94438
G1 X95.761 Y97.446 E91.98372
G1 X96.129 Y97.642 E92.02312
G1 X96.542 Y97.7 E92.06253
G1 X96.95 Y97.613 E92.10195
G1 X97.304 Y97.392 E92.14139
G1 X97.56 Y97.063 E92.18079
G1 X97.689 Y96.667 E92.22014
G1 X97.675 Y96.25 E92.25957
G1 X97.518 Y95.863 E92.29904
G1 X97.239 Y95.554 E92.33838
G1 X96.871 Y95.358 E92.37778
G1 X96.458 Y95.3 E92.41719
G1 X96.05 Y95.387 E92.45662
G1 X95.696 Y95.608 E92.49605
G1 X95.44 Y95.937 E92.53545
G1 X95.311 Y96.333 E92.5748
G1 X95.325 Y96.75 E92.61423
G0 F4500 X95.4 Y96.935
G0 X95.006 Y97.094
G0 X101.839 Y115.773
G0 X102.756 Y117.428
G0 X103.955 Y118.894
G0 X105.395 Y120.121
G0 X107.033 Y121.073
G0 X108.812 Y121.716
G0 X110.323 Y121.969
G0 X111.956 Y122.116
G0 X111.926 Y121.692
G1 F1800 X112.533 Y121.647 E92.67175
G1 X113.138 Y121.567 E92.72942
G1 X113.737 Y121.451 E92.78708
G1 X114.327 Y121.3 E92.84463
G1 X114.908 Y121.114 E92.90228
G1 X115.477 Y120.892 E92.96
G1 X116.031 Y120.638 E93.01759
G1 X116.569 Y120.351 E93.07521
G1 X117.089 Y120.032 E93.13286
G1 X117.588 Y119.682 E93.19046
G1 X118.067 Y119.304 E93.24812
G1 X118.522 Y118.897 E93.30581
G1 X118.951 Y118.465 E93.36335
G1 X119.354 Y118.007 E93.421
G1 X119.728 Y117.526 E93.47858
G1 X120.074 Y117.023 E93.53627
G1 X120.388 Y116.501 E93.59384
G1 X120.672 Y115.96 E93.65158
G1 X120.922 Y115.404 E93.70919
G1 X121.138 Y114.834 E93.76679
G1 X121.321 Y114.252 E93.82444
G1 X121.467 Y113.66 E93.88206
G1 X121.578 Y113.06 E93.93972
G1 X121.653 Y112.455 E93.99733
G1 X121.693 Y111.847 E94.05492
G1 X121.696 Y111.237 E94.11256
G1 X121.659 Y110.588 E94.17399
G1 X121.587 Y109.982 E94.23166
G1 X121.478 Y109.381 E94.28938
G1 X121.334 Y108.79 E94.34687
G1 X121.154 Y108.206 E94.40462
G1 X120.94 Y107.635 E94.46224
G1 X120.692 Y107.078 E94.51986
G1 X120.412 Y106.537 E94.57742
G1 X120.099 Y106.012 E94.63518
G1 X119.755 Y105.508 E94.69285
G1 X119.383 Y105.026 E94.75039
G1 X118.982 Y104.567 E94.80798
G1 X118.554 Y104.132 E94.86565
G1 X118.1 Y103.724 E94.92333
G1 X117.624 Y103.344 E94.98089
G1 X117.125 Y102.992 E95.0386
G1 X116.607 Y102.671 E95.09619
G1 X116.07 Y102.381 E95.15386
