;FLAVOR:UltiGCode
;TIME:8108
;MATERIAL:20242
;MATERIAL2:0
;NOZZLE_DIAMETER:0.4
;MINX:76.699
;MINY:78.498
;MINZ:0.36
;MAXX:146.3
;MAXY:145.3
;MAXZ:61.06
;Generated with Cura_SteamEngine 4.3.0
M82 ;absolute extrusion mode

G92 E0
G92 E0
G10
;LAYER_COUNT:299
;LAYER:-6
M107
G0 F9000 X94.144 Y82.086 Z0.36
;TYPE:SUPPORT-INTERFACE
G11
G1 F1350 X94.55 Y81.653 E0.17095
G1 X94.696 Y81.509 E0.23001
G1 X95.091 Y81.157 E0.38238
G1 X95.351 Y80.942 E0.47955
G1 X95.802 Y80.589 E0.64449
G1 X95.959 Y80.475 E0.70037
G1 X96.464 Y80.141 E0.87474
G1 X96.629 Y80.042 E0.93016
G1 X96.966 Y79.858 E1.04074
G1 X97.382 Y79.655 E1.17405
G1 X97.912 Y79.424 E1.34056
G1 X98.111 Y79.348 E1.40191
G1 X98.685 Y79.155 E1.57632
G1 X98.879 Y79.098 E1.63455
G1 X99.296 Y78.996 E1.75819
G1 X99.552 Y78.941 E1.8336
G1 X100.044 Y78.848 E1.9778
G1 X100.24 Y78.821 E2.03478
G1 X100.895 Y78.759 E2.22427
G1 X101.112 Y78.749 E2.28683
G1 X107.134 Y78.724 E4.02118
G1 X116.32 Y78.724 E6.66675
G1 X121.267 Y78.732 E8.09149
G1 X121.443 Y78.738 E8.1422
G1 X121.782 Y78.76 E8.24004
G1 X122.093 Y78.799 E8.33031
G1 X122.381 Y78.855 E8.41481
G1 X122.649 Y78.925 E8.49458
G1 X122.929 Y79.017 E8.57946
G1 X123.204 Y79.128 E8.66487
G1 X123.459 Y79.249 E8.74616
G1 X123.708 Y79.388 E8.82829
G1 X123.95 Y79.543 E8.91105
G1 X124.199 Y79.729 E9.00057
G1 X124.573 Y80.051 E9.1427
G1 X124.678 Y80.149 E9.18406
G1 X124.79 Y80.27 E9.23155
G1 X125.025 Y80.539 E9.33442
G1 X125.207 Y80.775 E9.42025
G1 X125.367 Y81.013 E9.50284
G1 X125.506 Y81.25 E9.58197
G1 X125.652 Y81.541 E9.67574
G1 X125.754 Y81.782 E9.75111
G1 X125.853 Y82.064 E9.83718
G1 X125.93 Y82.338 E9.91915
G1 X125.99 Y82.614 E10.0005
G1 X126.035 Y82.927 E10.09157
G1 X126.069 Y83.38 E10.2224
G1 X126.075 Y83.536 E10.26736
G1 X126.071 Y88.422 E11.67453
G1 X126.047 Y88.799 E11.78332
G1 X126.01 Y89.097 E11.86981
G1 X125.955 Y89.381 E11.95312
G1 X125.879 Y89.672 E12.03974
G1 X125.795 Y89.93 E12.11788
G1 X125.684 Y90.209 E12.20436
G1 X125.562 Y90.467 E12.28655
G1 X125.419 Y90.726 E12.37176
G1 X125.258 Y90.977 E12.45764
G1 X124.934 Y91.563 E12.65048
G1 X124.681 Y92.197 E12.84708
G1 X124.51 Y92.859 E13.04399
G1 X124.425 Y93.537 E13.24078
G1 X124.425 Y94.219 E13.4372
G1 X124.511 Y94.895 E13.63346
G1 X124.65 Y95.449 E13.79795
G1 X124.781 Y95.88 E13.92769
G1 X124.865 Y96.196 E14.02186
G1 X124.991 Y96.758 E14.18773
G1 X125.044 Y97.028 E14.26698
G1 X125.131 Y97.563 E14.42308
G1 X125.174 Y97.917 E14.52578
G1 X125.231 Y98.529 E14.7028
G1 X125.248 Y98.819 E14.78646
G1 X125.268 Y99.538 E14.99362
G1 X125.272 Y103.741 E16.20408
G1 X125.315 Y104.41 E16.39715
G1 X125.444 Y105.08 E16.59365
G1 X125.658 Y105.729 E16.79046
G1 X125.949 Y106.342 E16.98589
G1 X126.175 Y106.711 E17.11051
G1 X142.571 Y131.31 E25.6245
G1 X142.977 Y131.844 E25.8177
G1 X143.456 Y132.33 E26.01422
G1 X144.015 Y132.767 E26.21857
G1 X144.072 Y132.805 E26.2383
G1 X144.317 Y132.998 E26.32812
G1 X144.609 Y133.259 E26.44092
G1 X144.743 Y133.387 E26.49429
G1 X144.799 Y133.449 E26.51835
G1 X145.055 Y133.748 E26.63171
G1 X145.241 Y133.995 E26.72076
G1 X145.381 Y134.21 E26.79465
G1 X145.544 Y134.496 E26.88946
G1 X145.66 Y134.734 E26.96571
G1 X145.775 Y135.013 E27.05262
G1 X145.87 Y135.295 E27.13832
G1 X145.94 Y135.55 E27.21448
G1 X146.002 Y135.853 E27.30355
G1 X146.041 Y136.141 E27.38725
G1 X146.068 Y136.543 E27.50329
G1 X146.075 Y136.73 E27.55718
G1 X146.071 Y140.422 E28.62048
G1 X146.047 Y140.799 E28.72927
G1 X146.01 Y141.097 E28.81576
G1 X145.955 Y141.381 E28.89907
G1 X145.879 Y141.672 E28.98569
G1 X145.795 Y141.93 E29.06383
G1 X145.684 Y142.209 E29.15031
G1 X145.562 Y142.467 E29.2325
G1 X145.418 Y142.726 E29.31784
G1 X145.279 Y142.945 E29.39255
G1 X145.081 Y143.211 E29.48805
G1 X144.777 Y143.565 E29.62244
G1 X144.665 Y143.687 E29.67013
G1 X144.58 Y143.766 E29.70355
G1 X144.287 Y144.023 E29.8158
G1 X144.07 Y144.192 E29.89501
G1 X143.839 Y144.348 E29.97529
G1 X143.571 Y144.506 E30.06489
G1 X143.314 Y144.636 E30.14783
G1 X143.045 Y144.751 E30.23209
G1 X142.788 Y144.844 E30.3108
G1 X142.496 Y144.928 E30.39831
G1 X142.235 Y144.984 E30.47519
G1 X141.915 Y145.032 E30.56838
G1 X141.447 Y145.068 E30.70356
G1 X141.255 Y145.075 E30.75889
G1 X81.704 Y145.075 E47.90958
G1 X81.578 Y145.071 E47.94589
G1 X81.201 Y145.047 E48.05468
G1 X80.903 Y145.01 E48.14117
G1 X80.619 Y144.955 E48.22448
G1 X80.328 Y144.879 E48.3111
G1 X80.068 Y144.794 E48.38988
G1 X79.791 Y144.684 E48.47571
G1 X79.532 Y144.561 E48.55829
G1 X79.274 Y144.418 E48.64324
G1 X79.055 Y144.279 E48.71795
G1 X78.789 Y144.081 E48.81345
G1 X78.435 Y143.777 E48.94783
G1 X78.313 Y143.665 E48.99553
G1 X78.234 Y143.58 E49.02895
G1 X77.975 Y143.285 E49.14201
G1 X77.808 Y143.07 E49.22042
G1 X77.649 Y142.834 E49.30237
G1 X77.494 Y142.571 E49.39029
G1 X77.364 Y142.314 E49.47324
G1 X77.248 Y142.044 E49.55787
G1 X77.156 Y141.788 E49.63621
G1 X77.072 Y141.496 E49.72372
G1 X77.016 Y141.235 E49.8006
G1 X76.968 Y140.915 E49.89379
G1 X76.931 Y140.437 E50.03187
G1 X76.925 Y140.269 E50.08028
G1 X76.929 Y136.576 E51.14386
G1 X76.953 Y136.199 E51.25266
G1 X76.99 Y135.901 E51.33914
G1 X77.045 Y135.617 E51.42246
G1 X77.121 Y135.326 E51.50907
G1 X77.205 Y135.068 E51.58722
G1 X77.316 Y134.789 E51.6737
G1 X77.438 Y134.531 E51.75589
G1 X77.584 Y134.268 E51.84252
G1 X77.726 Y134.047 E51.91817
G1 X77.923 Y133.783 E52.01304
G1 X78.211 Y133.445 E52.14093
G1 X78.323 Y133.323 E52.18863
G1 X78.4 Y133.249 E52.21938
G1 X78.672 Y133.008 E52.32405
G1 X78.925 Y132.81 E52.41657
G1 X79.002 Y132.757 E52.44349
G1 X79.529 Y132.344 E52.63632
G1 X80.009 Y131.858 E52.83305
G1 X80.419 Y131.321 E53.02763
G1 X90.824 Y115.713 E58.43002
G1 X91.16 Y115.132 E58.62331
G1 X91.424 Y114.504 E58.81951
G1 X91.608 Y113.846 E59.01628
G1 X91.706 Y113.174 E59.21187
G1 X91.724 Y112.736 E59.33812
G1 X91.724 Y94.596 E64.56244
G1 X91.737 Y88.328 E66.36762
G1 X91.778 Y87.784 E66.52474
G1 X91.797 Y87.611 E66.57486
G1 X91.955 Y86.555 E66.88238
G1 X91.989 Y86.376 E66.93485
G1 X92.108 Y85.854 E67.08904
G1 X92.156 Y85.674 E67.1427
G1 X92.25 Y85.368 E67.23489
G1 X92.303 Y85.219 E67.28043
G1 X92.482 Y84.757 E67.42313
G1 X92.57 Y84.555 E67.48658
G1 X92.829 Y84.015 E67.65907
G1 X93.018 Y83.667 E67.77312
G1 X93.1 Y83.527 E67.81985
G1 X93.406 Y83.045 E67.98427
G1 X93.728 Y82.595 E68.14363
G1 X94.015 Y82.234 E68.27646
G1 X94.144 Y82.086 E68.333
G0 F9000 X94.4 Y81.812
G1 F1350 X94.4 Y145.075 E86.55274
G0 F9000 X92.8 Y145.075
G1 F1350 X92.8 Y84.075 E104.12074
G0 F9000 X96 Y80.447
G1 F1350 X96 Y145.075 E122.73361
G0 F9000 X97.6 Y145.075
G1 F1350 X97.6 Y79.559 E141.60221
G0 F9000 X99.2 Y79.019
G1 F1350 X99.2 Y145.075 E160.62634
G0 F9000 X100.8 Y145.075
G1 F1350 X100.8 Y78.767 E179.72305
G0 F9000 X102.4 Y78.743
G1 F1350 X102.4 Y145.075 E198.82666
G0 F9000 X104 Y145.075
G1 F1350 X104 Y78.737 E217.93201
G0 F9000 X105.6 Y78.73
G1 F1350 X105.6 Y145.075 E237.03937
G0 F9000 X107.2 Y145.075
G1 F1350 X107.2 Y78.724 E256.14845
G0 F9000 X108.8 Y78.724
G1 F1350 X108.8 Y145.075 E275.25754
G0 F9000 X110.4 Y145.075
G1 F1350 X110.4 Y78.724 E294.36663
G0 F9000 X112 Y78.724
G1 F1350 X112 Y145.075 E313.47572
G0 F9000 X113.6 Y145.075
G1 F1350 X113.6 Y78.724 E332.58481
G0 F9000 X115.2 Y78.724
G1 F1350 X115.2 Y145.075 E351.69389
G0 F9000 X116.8 Y145.075
G1 F1350 X116.8 Y78.725 E370.80269
G0 F9000 X118.4 Y78.728
G1 F1350 X118.4 Y145.075 E389.91063
G0 F9000 X120 Y145.075
G1 F1350 X120 Y78.73 E409.01799
G0 F9000 X121.6 Y78.749
G1 F1350 X121.6 Y145.075 E428.11988
G0 F9000 X123.2 Y145.075
G1 F1350 X123.2 Y79.127 E447.1129
G0 F9000 X124.8 Y80.282
G1 F1350 X124.8 Y91.899 E450.4586
G0 F9000 X124.8 Y95.952
G1 F1350 X124.8 Y145.075 E464.60602
G0 F9000 X126.4 Y145.075
G1 F1350 X126.4 Y107.049 E475.55751
G0 F9000 X128 Y109.45
G1 F1350 X128 Y145.075 E485.81751
G0 F9000 X129.6 Y145.075
G1 F1350 X129.6 Y111.85 E495.38631
G0 F9000 X131.2 Y114.251
G1 F1350 X131.2 Y145.075 E504.26362
G0 F9000 X132.8 Y145.075
G1 F1350 X132.8 Y116.651 E512.44973
G0 F9000 X134.4 Y119.052
G1 F1350 X134.4 Y145.075 E519.94436
G0 F9000 X136 Y145.075
G1 F1350 X136 Y121.452 E526.74778
G0 F9000 X137.6 Y123.852
G1 F1350 X137.6 Y145.075 E532.86001
G0 F9000 X139.2 Y145.075
G1 F1350 X139.2 Y126.253 E538.28074
G0 F9000 X140.8 Y128.653
G1 F1350 X140.8 Y145.075 E543.01028
G0 F9000 X142.4 Y144.949
G1 F1350 X142.4 Y131.054 E547.01204
G0 F9000 X144 Y132.756
G1 F1350 X144 Y144.24 E550.31943
G0 F9000 X145.6 Y142.387
G1 F1350 X145.6 Y134.611 E552.55892
G0 F9000 X91.2 Y145.075
G1 F1350 X91.2 Y115.036 E561.21015
G0 F9000 X89.6 Y117.549
G1 F1350 X89.6 Y145.075 E569.13764
G0 F9000 X88 Y145.075
G1 F1350 X88 Y119.949 E576.37393
G0 F9000 X86.4 Y122.349
G1 F1350 X86.4 Y145.075 E582.91901
G0 F9000 X84.8 Y145.075
G1 F1350 X84.8 Y124.749 E588.7729
G0 F9000 X83.2 Y127.149
G1 F1350 X83.2 Y145.075 E593.93559
G0 F9000 X81.6 Y145.071
G1 F1350 X81.6 Y129.549 E598.40593
G0 F9000 X80 Y131.867
G1 F1350 X80 Y144.766 E602.12084
G0 F9000 X78.4 Y143.744
G1 F1350 X78.4 Y133.249 E605.1434
G0 F600 X78.4 Y133.249 Z0.66
G0 F9000 X80.378 Y131.289
;TIME_ELAPSED:99.247630
;LAYER:-5
;TYPE:SUPPORT
G1 F1350 X80.886 Y130.525 E605.33607
G1 X95.484 Y145.123 E609.67145
G1 X96.757 Y145.123 E609.93878
G1 X81.395 Y129.761 E614.50106
G1 X81.904 Y128.998 E614.69368
G1 X98.03 Y145.123 E619.4827
G1 X99.303 Y145.123 E619.75003
G1 X82.414 Y128.234 E624.76581
G1 X82.923 Y127.47 E624.9586
G1 X100.576 Y145.123 E630.20127
G1 X101.848 Y145.123 E630.46839
G1 X83.432 Y126.707 E635.93766
G1 X83.941 Y125.943 E636.13045
G1 X103.121 Y145.123 E641.82662
G1 X104.394 Y145.123 E642.09395
G1 X84.45 Y125.179 E648.01702
G1 X84.959 Y124.416 E648.20963
G1 X105.667 Y145.123 E654.35944
G1 X106.94 Y145.123 E654.62677
G1 X85.468 Y123.652 E661.00348
G1 X85.977 Y122.888 E661.19627
G1 X108.212 Y145.123 E667.79973
G1 X109.485 Y145.123 E668.06706
G1 X86.486 Y122.125 E674.89726
G1 X86.996 Y121.361 E675.09016
G1 X110.758 Y145.123 E682.14712
G1 X112.031 Y145.123 E682.41445
G1 X87.505 Y120.597 E689.6983
G1 X88.014 Y119.834 E689.89091
G1 X113.303 Y145.123 E697.40136
G1 X114.576 Y145.123 E697.66869
G1 X88.523 Y119.07 E705.40604
G1 X89.032 Y118.306 E705.59882
G1 X115.849 Y145.123 E713.56306
G1 X117.122 Y145.123 E713.83039
G1 X89.541 Y117.543 E722.02138
G1 X90.05 Y116.779 E722.21417
G1 X118.395 Y145.123 E730.63206
G1 X119.667 Y145.123 E730.89918
G1 X90.559 Y116.015 E739.54381
G1 X90.78 Y115.686 E739.62704
G1 X91.045 Y115.228 E739.73816
G1 X120.94 Y145.123 E748.61652
G1 X122.213 Y145.123 E748.88385
G1 X91.419 Y114.329 E758.02921
G1 X91.559 Y113.835 E758.13703
G1 X91.639 Y113.277 E758.25541
G1 X123.486 Y145.123 E767.71334
G1 X124.759 Y145.123 E767.98067
G1 X91.673 Y112.038 E777.80656
G1 X91.673 Y110.765 E778.07389
G1 X126.031 Y145.123 E788.2777
G1 X127.304 Y145.123 E788.54503
G1 X91.673 Y109.492 E799.12689
G1 X91.673 Y108.219 E799.39422
G1 X128.577 Y145.123 E810.35415
G1 X129.85 Y145.123 E810.62148
G1 X91.673 Y106.947 E821.95932
G1 X91.673 Y105.674 E822.22665
G1 X131.123 Y145.123 E833.94256
G1 X132.395 Y145.123 E834.20968
G1 X91.673 Y104.401 E846.30349
G1 X91.673 Y103.128 E846.57082
G1 X133.668 Y145.123 E859.0427
G1 X134.941 Y145.123 E859.31003
G1 X91.673 Y101.855 E872.15997
G1 X91.673 Y100.583 E872.42709
G1 X136.214 Y145.123 E885.65495
G1 X137.487 Y145.123 E885.92228
G1 X91.673 Y99.31 E899.52819
G1 X91.673 Y98.037 E899.79552
G1 X138.759 Y145.123 E913.77935
G1 X140.032 Y145.123 E914.04668
G1 X91.673 Y96.764 E928.40857
G1 X91.673 Y95.491 E928.6759
G1 X141.303 Y145.122 E943.41541
G1 X141.451 Y145.117 E943.44651
G1 X141.924 Y145.081 E943.54612
G1 X142.24 Y145.034 E943.61321
G1 X142.443 Y144.989 E943.65688
G1 X91.673 Y94.219 E958.7348
G1 X91.674 Y92.947 E959.00192
G1 X143.383 Y144.656 E974.35871
G1 X143.595 Y144.548 E974.40867
G1 X143.85 Y144.398 E974.4708
G1 X144.104 Y144.228 E974.53498
G1 X144.173 Y144.173 E974.55351
G1 X91.677 Y91.677 E990.14403
G1 X91.678 Y90.405 E990.41115
G1 X144.838 Y143.566 E1006.19901
G1 X145.117 Y143.246 E1006.28817
G1 X145.318 Y142.974 E1006.35919
G1 X145.396 Y142.851 E1006.38978
G1 X91.679 Y89.134 E1022.34291
G1 X91.681 Y88.473 E1022.48172
G1 X91.687 Y88.311 E1022.51577
G1 X91.717 Y87.899 E1022.60252
G1 X145.82 Y142.001 E1038.67014
G1 X145.832 Y141.969 E1038.67732
G1 X145.926 Y141.683 E1038.74054
G1 X146.004 Y141.386 E1038.80502
G1 X146.059 Y141.094 E1038.86742
G1 X146.074 Y140.982 E1038.89115
G1 X91.869 Y86.778 E1054.98907
G1 X91.901 Y86.561 E1055.03513
G1 X91.942 Y86.353 E1055.07965
G1 X92.055 Y85.855 E1055.18689
G1 X92.09 Y85.726 E1055.21496
G1 X146.121 Y139.757 E1071.26135
G1 X146.122 Y138.486 E1071.52826
G1 X92.418 Y84.781 E1087.47768
G1 X92.435 Y84.736 E1087.48778
G1 X92.523 Y84.534 E1087.53405
G1 X92.785 Y83.99 E1087.66085
G1 X92.826 Y83.916 E1087.67862
G1 X146.124 Y137.214 E1103.50731
G1 X146.124 Y136.715 E1103.6121
G1 X146.091 Y136.15 E1103.73096
G1 X146.052 Y135.87 E1103.79032
G1 X93.299 Y83.116 E1119.45731
G1 X93.357 Y83.024 E1119.48015
G1 X93.68 Y82.574 E1119.59648
G1 X93.834 Y82.379 E1119.64866
G1 X142.363 Y130.908 E1134.06103
G1 X139.818 Y127.09 E1135.02461
G1 X94.431 Y81.704 E1148.50372
G1 X94.503 Y81.628 E1148.5257
G1 X94.649 Y81.484 E1148.56877
G1 X95.062 Y81.115 E1148.68507
G1 X95.091 Y81.091 E1148.69298
G1 X137.273 Y123.272 E1161.22024
G1 X134.729 Y119.455 E1162.18353
G1 X95.8 Y80.527 E1173.74471
G1 X95.93 Y80.433 E1173.7784
G1 X96.435 Y80.098 E1173.90566
G1 X96.566 Y80.02 E1173.93768
G1 X132.184 Y115.638 E1184.51568
G1 X129.64 Y111.821 E1185.47897
G1 X97.408 Y79.589 E1195.05139
G1 X97.895 Y79.376 E1195.16301
G1 X98.079 Y79.305 E1195.20443
G1 X98.317 Y79.225 E1195.25716
G1 X127.095 Y108.003 E1203.80379
G1 X126.215 Y106.684 E1204.13676
G1 X125.992 Y106.317 E1204.22695
G1 X125.703 Y105.71 E1204.36813
G1 X125.522 Y105.157 E1204.49032
G1 X99.306 Y78.942 E1212.27593
G1 X99.542 Y78.89 E1212.32667
G1 X100.024 Y78.801 E1212.42961
G1 X100.241 Y78.77 E1212.47564
G1 X100.394 Y78.756 E1212.5079
G1 X125.321 Y103.683 E1219.91084
G1 X125.32 Y102.41 E1220.17817
G1 X101.608 Y78.698 E1227.22028
G1 X102.875 Y78.692 E1227.48635
G1 X125.319 Y101.136 E1234.15188
G1 X125.318 Y99.862 E1234.41942
G1 X104.142 Y78.686 E1240.70837
G1 X105.41 Y78.681 E1240.97465
G1 X125.282 Y98.553 E1246.87634
G1 X125.28 Y98.524 E1246.88244
G1 X125.222 Y97.911 E1247.01174
G1 X125.181 Y97.568 E1247.08429
G1 X125.107 Y97.106 E1247.18254
G1 X106.677 Y78.676 E1252.65597
G1 X107.132 Y78.674 E1252.75153
G1 X107.948 Y78.674 E1252.92289
G1 X124.694 Y95.419 E1257.89605
G1 X124.558 Y94.885 E1258.01177
G1 X124.474 Y94.215 E1258.15357
G1 X124.474 Y93.927 E1258.21405
G1 X109.221 Y78.674 E1262.74396
G1 X110.493 Y78.674 E1263.01108
G1 X124.585 Y92.766 E1267.19619
G1 X124.728 Y92.213 E1267.31614
G1 X124.892 Y91.8 E1267.40945
G1 X111.766 Y78.674 E1271.30768
G1 X113.039 Y78.674 E1271.57501
G1 X125.327 Y90.962 E1275.22436
G1 X125.466 Y90.743 E1275.27883
G1 X125.598 Y90.504 E1275.33617
G1 X125.735 Y90.216 E1275.40314
G1 X125.769 Y90.131 E1275.42236
G1 X114.312 Y78.674 E1278.82492
G1 X115.585 Y78.674 E1279.09225
G1 X126.051 Y89.14 E1282.20049
G1 X126.06 Y89.095 E1282.21013
G1 X126.096 Y88.806 E1282.27129
G1 X126.12 Y88.424 E1282.35167
G1 X126.12 Y87.937 E1282.45394
G1 X116.859 Y78.675 E1285.20446
G1 X118.134 Y78.677 E1285.47221
G1 X126.122 Y86.665 E1287.84453
G1 X126.123 Y85.393 E1288.11165
G1 X119.408 Y78.679 E1290.10575
G1 X120.683 Y78.681 E1290.3735
G1 X126.124 Y84.122 E1291.9894
G1 X126.124 Y83.534 E1292.11288
G1 X126.118 Y83.377 E1292.14587
G1 X126.083 Y82.91 E1292.24422
G1 X126.067 Y82.792 E1292.26922
G1 X122.013 Y78.738 E1293.4732
G1 X122.09 Y78.747 E1293.48948
G1 X122.389 Y78.806 E1293.55348
G1 X122.67 Y78.879 E1293.61445
G1 X122.931 Y78.964 E1293.67209
G1 X123.227 Y79.084 E1293.73917
G1 X123.474 Y79.201 E1293.79656
G1 X123.746 Y79.352 E1293.86189
G1 X123.969 Y79.496 E1293.91764
G1 X124.24 Y79.699 E1293.98874
G1 X124.29 Y79.743 E1294.00273
G1 X125.09 Y80.542 E1294.24017
G0 F9000 X125.065 Y80.51
G1 F1350 X124.819 Y80.227 E1294.31892
G1 X124.722 Y80.123 E1294.34878
G1 X124.594 Y80.004 E1294.38548
G1 X124.29 Y79.743 E1294.46962
G0 F9000 X80.378 Y131.289
G1 F1350 X94.212 Y145.123 E1298.57811
G1 X92.939 Y145.123 E1298.84544
G1 X79.806 Y131.99 E1302.74574
G1 X79.495 Y132.306 E1302.83885
