;FLAVOR:UltiGCode
;TIME:3673
;MATERIAL:8493
;MATERIAL2:0
;NOZZLE_DIAMETER:0.4
;MINX:82.976
;MINY:82.976
;MINZ:0.3
;MAXX:140.024
;MAXY:140.024
;MAXZ:16.9
;Generated with Cura_SteamEngine 4.3.0
M82 ;absolute extrusion mode

G92 E0
G92 E0
G10
;LAYER_COUNT:84
;LAYER:0
M106 S178.5
G0 F4500 X90.194 Y90.143 Z0.3
;TYPE:SKIRT
G11
G1 F1800 X90.761 Y89.596 E0.08272
G1 X90.85 Y89.513 E0.0955
G1 X91.371 Y89.044 E0.16911
G1 X91.471 Y88.957 E0.18302
G1 X92.087 Y88.443 E0.26726
G1 X92.186 Y88.363 E0.28063
G1 X92.838 Y87.858 E0.36722
G1 X92.943 Y87.78 E0.38096
G1 X93.491 Y87.387 E0.45176
G1 X93.593 Y87.317 E0.46475
G1 X94.265 Y86.87 E0.5495
G1 X94.381 Y86.796 E0.56394
G1 X95.056 Y86.384 E0.64698
G1 X95.162 Y86.322 E0.65987
G1 X95.794 Y85.966 E0.73604
G1 X95.909 Y85.904 E0.74975
G1 X96.584 Y85.556 E0.82949
G1 X96.696 Y85.501 E0.8426
G1 X97.451 Y85.145 E0.93024
G1 X97.572 Y85.09 E0.9442
G1 X98.201 Y84.822 E1.01599
G1 X98.316 Y84.776 E1.02899
G1 X99.087 Y84.479 E1.11575
G1 X99.213 Y84.433 E1.12983
G1 X99.856 Y84.213 E1.20119
G1 X99.976 Y84.174 E1.21444
G1 X100.845 Y83.911 E1.30977
G1 X100.971 Y83.875 E1.32353
G1 X101.592 Y83.712 E1.39094
G1 X101.71 Y83.684 E1.40368
G1 X102.533 Y83.498 E1.49227
G1 X102.665 Y83.47 E1.50644
G1 X103.337 Y83.345 E1.57821
G1 X103.465 Y83.324 E1.59183
G1 X104.274 Y83.204 E1.6777
G1 X104.398 Y83.188 E1.69083
G1 X105.201 Y83.098 E1.77567
G1 X105.33 Y83.086 E1.78928
G1 X106.036 Y83.033 E1.86362
G1 X106.167 Y83.025 E1.8774
G1 X107.283 Y82.983 E1.99466
G1 X107.383 Y82.981 E2.00516
G1 X107.911 Y82.976 E2.0606
G1 X107.946 Y82.976 E2.06428
G1 X115.581 Y82.98 E2.86595
G1 X115.668 Y82.981 E2.87509
G1 X116.456 Y83.001 E2.95786
G1 X116.619 Y83.009 E2.97499
G1 X117.678 Y83.085 E3.08647
G1 X117.808 Y83.097 E3.10018
G1 X118.524 Y83.175 E3.17581
G1 X118.652 Y83.191 E3.18935
G1 X119.411 Y83.302 E3.26989
G1 X119.534 Y83.322 E3.28298
G1 X120.273 Y83.457 E3.36186
G1 X120.405 Y83.484 E3.376
G1 X121.215 Y83.664 E3.46313
G1 X121.338 Y83.694 E3.47642
G1 X121.991 Y83.864 E3.54727
G1 X122.114 Y83.898 E3.56067
G1 X122.946 Y84.147 E3.65186
G1 X123.069 Y84.186 E3.66541
G1 X123.734 Y84.412 E3.73916
G1 X123.854 Y84.455 E3.75254
G1 X124.603 Y84.74 E3.83669
G1 X124.729 Y84.791 E3.85096
G1 X125.406 Y85.079 E3.92821
G1 X125.514 Y85.127 E3.94062
G1 X126.212 Y85.452 E4.02146
G1 X126.329 Y85.51 E4.03518
G1 X127.019 Y85.863 E4.11656
G1 X127.14 Y85.927 E4.13093
G1 X127.824 Y86.311 E4.21329
G1 X127.932 Y86.375 E4.22647
G1 X128.531 Y86.74 E4.30013
G1 X128.634 Y86.805 E4.31292
G1 X129.335 Y87.266 E4.40101
G1 X129.447 Y87.343 E4.41528
G1 X130.074 Y87.791 E4.49619
G1 X130.174 Y87.865 E4.50926
G1 X130.689 Y88.261 E4.57747
G1 X130.793 Y88.344 E4.59144
G1 X131.48 Y88.915 E4.68524
G1 X131.576 Y88.998 E4.69856
G1 X132.104 Y89.47 E4.77293
G1 X132.197 Y89.556 E4.78623
G1 X132.759 Y90.096 E4.86806
G1 X132.854 Y90.19 E4.8821
G1 X133.405 Y90.761 E4.96541
G1 X133.488 Y90.851 E4.97827
G1 X133.956 Y91.371 E5.05172
G1 X134.042 Y91.47 E5.06549
G1 X134.557 Y92.087 E5.14988
G1 X134.638 Y92.188 E5.16348
G1 X135.142 Y92.839 E5.24992
G1 X135.219 Y92.942 E5.26342
G1 X135.613 Y93.491 E5.33438
G1 X135.683 Y93.593 E5.34737
G1 X136.129 Y94.263 E5.43188
G1 X136.203 Y94.379 E5.44633
G1 X136.614 Y95.052 E5.52913
G1 X136.68 Y95.163 E5.54269
G1 X137.036 Y95.797 E5.61903
G1 X137.094 Y95.906 E5.632
G1 X137.443 Y96.582 E5.71188
G1 X137.499 Y96.694 E5.72503
G1 X137.855 Y97.448 E5.81258
G1 X137.91 Y97.573 E5.82692
G1 X138.176 Y98.198 E5.89824
G1 X138.222 Y98.309 E5.91085
G1 X138.521 Y99.084 E5.99808
G1 X138.567 Y99.21 E6.01216
G1 X138.787 Y99.852 E6.08342
G1 X138.826 Y99.975 E6.09697
G1 X139.089 Y100.845 E6.1924
G1 X139.124 Y100.968 E6.20583
G1 X139.288 Y101.591 E6.27347
G1 X139.317 Y101.71 E6.28633
G1 X139.502 Y102.528 E6.37439
G1 X139.53 Y102.665 E6.38907
G1 X139.655 Y103.341 E6.46126
G1 X139.676 Y103.464 E6.47436
G1 X139.796 Y104.272 E6.56013
G1 X139.812 Y104.397 E6.57336
G1 X139.902 Y105.2 E6.6582
G1 X139.914 Y105.329 E6.67181
G1 X139.967 Y106.036 E6.74625
G1 X139.975 Y106.167 E6.76003
G1 X140.017 Y107.283 E6.87729
G1 X140.019 Y107.381 E6.88759
G1 X140.024 Y107.878 E6.93977
G1 X140.024 Y107.915 E6.94366
G1 X140.02 Y115.58 E7.74848
G1 X140.019 Y115.667 E7.75762
G1 X139.999 Y116.456 E7.84049
G1 X139.991 Y116.62 E7.85773
G1 X139.915 Y117.678 E7.96911
G1 X139.903 Y117.806 E7.98261
G1 X139.825 Y118.524 E8.05844
G1 X139.809 Y118.654 E8.07219
G1 X139.698 Y119.411 E8.15253
G1 X139.678 Y119.533 E8.16551
G1 X139.543 Y120.273 E8.24449
G1 X139.516 Y120.405 E8.25864
G1 X139.336 Y121.215 E8.34576
G1 X139.307 Y121.334 E8.35862
G1 X139.138 Y121.986 E8.42935
G1 X139.102 Y122.115 E8.44341
G1 X138.852 Y122.948 E8.53473
G1 X138.814 Y123.068 E8.54794
G1 X138.588 Y123.734 E8.62179
G1 X138.545 Y123.854 E8.63518
G1 X138.267 Y124.585 E8.71729
G1 X138.217 Y124.709 E8.73133
G1 X137.923 Y125.402 E8.81038
G1 X137.872 Y125.517 E8.82358
G1 X137.546 Y126.215 E8.90447
G1 X137.49 Y126.328 E8.91772
G1 X137.136 Y127.02 E8.99933
G1 X137.073 Y127.139 E9.01347
G1 X136.69 Y127.822 E9.09569
G1 X136.626 Y127.93 E9.10887
G1 X136.264 Y128.525 E9.182
G1 X136.198 Y128.63 E9.19502
G1 X135.735 Y129.334 E9.2835
G1 X135.657 Y129.447 E9.29791
G1 X135.208 Y130.075 E9.37897
G1 X135.136 Y130.173 E9.39174
G1 X134.741 Y130.687 E9.45981
G1 X134.657 Y130.793 E9.47401
G1 X134.085 Y131.481 E9.56796
G1 X134.002 Y131.576 E9.5812
G1 X133.531 Y132.103 E9.65542
G1 X133.444 Y132.197 E9.66886
G1 X132.9 Y132.763 E9.75129
G1 X132.806 Y132.857 E9.76525
G1 X132.239 Y133.404 E9.84798
G1 X132.15 Y133.487 E9.86075
G1 X131.629 Y133.956 E9.93436
G1 X131.529 Y134.043 E9.94828
G1 X130.913 Y134.557 E10.03252
G1 X130.814 Y134.637 E10.04588
G1 X130.162 Y135.142 E10.13247
G1 X130.057 Y135.22 E10.14621
G1 X129.509 Y135.613 E10.21701
G1 X129.407 Y135.683 E10.23
G1 X128.735 Y136.13 E10.31475
G1 X128.619 Y136.204 E10.3292
G1 X127.944 Y136.616 E10.41223
G1 X127.838 Y136.678 E10.42512
G1 X127.206 Y137.034 E10.50129
G1 X127.091 Y137.096 E10.51501
G1 X126.416 Y137.444 E10.59475
G1 X126.304 Y137.499 E10.60785
G1 X125.549 Y137.855 E10.69549
G1 X125.428 Y137.91 E10.70945
G1 X124.799 Y138.178 E10.78124
G1 X124.684 Y138.224 E10.79424
G1 X123.913 Y138.521 E10.881
G1 X123.787 Y138.567 E10.89508
G1 X123.144 Y138.787 E10.96644
G1 X123.024 Y138.826 E10.97969
G1 X122.155 Y139.089 E11.07502
G1 X122.029 Y139.125 E11.08878
G1 X121.408 Y139.288 E11.15619
G1 X121.29 Y139.316 E11.16893
G1 X120.467 Y139.502 E11.25752
G1 X120.335 Y139.53 E11.27169
G1 X119.663 Y139.655 E11.34346
G1 X119.535 Y139.676 E11.35708
G1 X118.726 Y139.796 E11.44296
G1 X118.602 Y139.812 E11.45608
G1 X117.799 Y139.902 E11.54093
G1 X117.67 Y139.914 E11.55453
G1 X116.964 Y139.967 E11.62887
G1 X116.833 Y139.975 E11.64265
G1 X115.717 Y140.017 E11.75991
G1 X115.617 Y140.019 E11.77041
G1 X115.089 Y140.024 E11.82586
G1 X115.054 Y140.024 E11.82953
G1 X107.419 Y140.02 E12.63121
G1 X107.332 Y140.019 E12.64034
G1 X106.544 Y139.999 E12.72311
G1 X106.381 Y139.991 E12.74024
G1 X105.322 Y139.915 E12.85173
G1 X105.192 Y139.903 E12.86543
G1 X104.476 Y139.825 E12.94106
G1 X104.348 Y139.809 E12.9546
G1 X103.589 Y139.698 E13.03515
G1 X103.466 Y139.678 E13.04823
G1 X102.727 Y139.543 E13.12711
G1 X102.595 Y139.516 E13.14126
G1 X101.785 Y139.336 E13.22838
G1 X101.662 Y139.306 E13.24167
G1 X101.009 Y139.136 E13.31252
G1 X100.886 Y139.102 E13.32592
G1 X100.054 Y138.853 E13.41711
G1 X99.931 Y138.814 E13.43066
G1 X99.266 Y138.588 E13.50441
G1 X99.146 Y138.545 E13.51779
G1 X98.397 Y138.26 E13.60194
G1 X98.271 Y138.209 E13.61621
G1 X97.594 Y137.921 E13.69346
G1 X97.486 Y137.873 E13.70587
G1 X96.788 Y137.548 E13.78672
G1 X96.671 Y137.49 E13.80043
G1 X95.979 Y137.136 E13.88204
G1 X95.858 Y137.072 E13.89642
G1 X95.176 Y136.689 E13.97855
G1 X95.068 Y136.625 E13.99173
G1 X94.469 Y136.26 E14.06538
G1 X94.366 Y136.195 E14.07817
G1 X93.665 Y135.734 E14.16626
G1 X93.552 Y135.656 E14.18068
G1 X92.924 Y135.207 E14.26174
G1 X92.826 Y135.135 E14.27451
G1 X92.312 Y134.74 E14.34257
G1 X92.206 Y134.656 E14.35677
G1 X91.518 Y134.084 E14.45072
G1 X91.423 Y134.001 E14.46397
G1 X90.896 Y133.53 E14.53818
G1 X90.802 Y133.443 E14.55163
G1 X90.233 Y132.896 E14.6345
G1 X90.139 Y132.802 E14.64846
G1 X89.595 Y132.238 E14.73074
G1 X89.512 Y132.149 E14.74352
G1 X89.043 Y131.628 E14.81712
G1 X88.956 Y131.528 E14.83104
G1 X88.442 Y130.912 E14.91528
G1 X88.362 Y130.813 E14.92865
G1 X87.857 Y130.161 E15.01524
G1 X87.779 Y130.056 E15.02897
G1 X87.386 Y129.508 E15.09978
G1 X87.316 Y129.406 E15.11277
G1 X86.869 Y128.734 E15.19751
G1 X86.796 Y128.619 E15.21182
G1 X86.385 Y127.946 E15.29462
G1 X86.321 Y127.837 E15.30789
G1 X85.965 Y127.204 E15.38414
G1 X85.904 Y127.091 E15.39763
G1 X85.556 Y126.416 E15.47737
G1 X85.501 Y126.304 E15.49047
G1 X85.145 Y125.549 E15.57811
G1 X85.091 Y125.43 E15.59184
G1 X84.822 Y124.8 E15.66376
G1 X84.775 Y124.683 E15.677
G1 X84.478 Y123.912 E15.76376
G1 X84.431 Y123.785 E15.77798
G1 X84.212 Y123.144 E15.8491
G1 X84.174 Y123.024 E15.86232
G1 X83.907 Y122.141 E15.95918
G1 X83.872 Y122.017 E15.97271
G1 X83.712 Y121.408 E16.03882
G1 X83.683 Y121.29 E16.05158
G1 X83.497 Y120.468 E16.14007
G1 X83.469 Y120.33 E16.15486
G1 X83.345 Y119.658 E16.22661
G1 X83.324 Y119.537 E16.2395
G1 X83.203 Y118.724 E16.32581
G1 X83.187 Y118.596 E16.33935
G1 X83.098 Y117.798 E16.42366
G1 X83.086 Y117.67 E16.43716
G1 X83.033 Y116.962 E16.51171
G1 X83.025 Y116.832 E16.52539
G1 X82.983 Y115.717 E16.64254
G1 X82.981 Y115.617 E16.65305
G1 X82.976 Y115.089 E16.70849
G1 X82.976 Y115.054 E16.71216
G1 X82.98 Y107.42 E17.51373
G1 X82.981 Y107.333 E17.52287
G1 X83.001 Y106.544 E17.60574
G1 X83.009 Y106.38 E17.62298
G1 X83.085 Y105.322 E17.73436
G1 X83.097 Y105.193 E17.74796
G1 X83.176 Y104.468 E17.82454
G1 X83.192 Y104.338 E17.83829
G1 X83.302 Y103.588 E17.91788
G1 X83.322 Y103.467 E17.93076
G1 X83.457 Y102.727 E18.00974
G1 X83.484 Y102.595 E18.02389
G1 X83.664 Y101.785 E18.11101
G1 X83.693 Y101.666 E18.12387
G1 X83.862 Y101.014 E18.1946
G1 X83.898 Y100.885 E18.20866
G1 X84.148 Y100.052 E18.29998
G1 X84.186 Y99.932 E18.31319
G1 X84.412 Y99.266 E18.38704
G1 X84.455 Y99.146 E18.40043
G1 X84.739 Y98.399 E18.48434
G1 X84.79 Y98.272 E18.49871
G1 X85.078 Y97.595 E18.57596
G1 X85.128 Y97.483 E18.58884
G1 X85.454 Y96.785 E18.66973
G1 X85.51 Y96.672 E18.68297
G1 X85.864 Y95.98 E18.76458
G1 X85.927 Y95.861 E18.77872
G1 X86.31 Y95.178 E18.86094
G1 X86.373 Y95.07 E18.87407
G1 X86.738 Y94.47 E18.94781
G1 X86.805 Y94.364 E18.96098
G1 X87.265 Y93.665 E19.04884
G1 X87.343 Y93.553 E19.06317
G1 X87.792 Y92.925 E19.14423
G1 X87.864 Y92.827 E19.157
G1 X88.259 Y92.313 E19.22507
G1 X88.343 Y92.207 E19.23927
G1 X88.915 Y91.519 E19.33321
G1 X88.998 Y91.424 E19.34646
G1 X89.469 Y90.897 E19.42067
G1 X89.556 Y90.803 E19.43412
G1 X90.1 Y90.237 E19.51655
G1 X90.194 Y90.143 E19.53051
G0 F4500 X90.437 Y90.395
G1 F1800 X91.004 Y89.848 E19.61323
G1 X91.084 Y89.773 E19.62475
G1 X91.605 Y89.304 E19.69835
G1 X91.695 Y89.226 E19.71086
G1 X92.311 Y88.712 E19.7951
G1 X92.401 Y88.64 E19.8072
G1 X93.053 Y88.135 E19.89379
G1 X93.147 Y88.065 E19.9061
G1 X93.695 Y87.672 E19.97691
G1 X93.787 Y87.608 E19.98867
G1 X94.459 Y87.161 E20.07342
G1 X94.563 Y87.095 E20.08635
G1 X95.238 Y86.683 E20.16939
G1 X95.334 Y86.627 E20.18106
G1 X95.966 Y86.271 E20.25722
G1 X96.069 Y86.215 E20.26953
G1 X96.744 Y85.867 E20.34927
G1 X96.845 Y85.817 E20.3611
G1 X97.6 Y85.461 E20.44875
G1 X97.709 Y85.412 E20.4613
G1 X98.338 Y85.144 E20.53309
G1 X98.442 Y85.102 E20.54486
G1 X99.213 Y84.805 E20.63162
G1 X99.326 Y84.764 E20.64424
G1 X99.969 Y84.544 E20.7156
G1 X100.077 Y84.509 E20.72752
G1 X100.946 Y84.246 E20.82285
G1 X101.06 Y84.214 E20.83528
G1 X101.681 Y84.051 E20.9027
G1 X101.787 Y84.025 E20.91416
G1 X102.61 Y83.839 E21.00275
G1 X102.729 Y83.815 E21.0155
G1 X103.401 Y83.69 E21.08727
G1 X103.516 Y83.67 E21.09952
G1 X104.325 Y83.55 E21.1854
G1 X104.437 Y83.536 E21.19725
G1 X105.24 Y83.446 E21.28209
G1 X105.356 Y83.435 E21.29433
G1 X106.062 Y83.382 E21.36867
G1 X106.181 Y83.375 E21.38118
G1 X107.297 Y83.333 E21.49844
G1 X107.386 Y83.331 E21.50779
G1 X107.914 Y83.326 E21.56323
G1 X107.946 Y83.326 E21.56659
G1 X115.581 Y83.33 E22.36827
G1 X115.66 Y83.331 E22.37657
G1 X116.448 Y83.351 E22.45933
G1 X116.594 Y83.358 E22.47468
G1 X117.653 Y83.434 E22.58616
G1 X117.77 Y83.445 E22.5985
G1 X118.486 Y83.523 E22.67412
G1 X118.601 Y83.537 E22.68629
G1 X119.36 Y83.648 E22.76683
G1 X119.472 Y83.667 E22.77876
G1 X120.211 Y83.802 E22.85764
G1 X120.329 Y83.826 E22.87028
G1 X121.139 Y84.006 E22.95741
G1 X121.25 Y84.032 E22.96938
G1 X121.903 Y84.202 E23.04023
G1 X122.013 Y84.233 E23.05223
G1 X122.845 Y84.482 E23.14342
G1 X122.957 Y84.518 E23.15577
G1 X123.622 Y84.744 E23.22952
G1 X123.729 Y84.783 E23.24147
G1 X124.478 Y85.068 E23.32562
G1 X124.592 Y85.113 E23.33849
G1 X125.269 Y85.401 E23.41574
G1 X125.366 Y85.445 E23.42692
G1 X126.064 Y85.77 E23.50777
G1 X126.17 Y85.821 E23.52012
G1 X126.86 Y86.174 E23.6015
G1 X126.968 Y86.232 E23.61437
G1 X127.652 Y86.616 E23.69673
G1 X127.75 Y86.674 E23.70869
G1 X128.349 Y87.039 E23.78234
G1 X128.442 Y87.097 E23.79385
G1 X129.143 Y87.558 E23.88195
G1 X129.244 Y87.628 E23.89485
G1 X129.871 Y88.076 E23.97576
G1 X129.96 Y88.142 E23.9874
G1 X130.475 Y88.538 E24.05561
G1 X130.569 Y88.613 E24.06824
G1 X131.256 Y89.184 E24.16204
G1 X131.343 Y89.259 E24.1741
G1 X131.871 Y89.731 E24.24846
G1 X131.955 Y89.809 E24.2605
G1 X132.517 Y90.349 E24.34233
G1 X132.602 Y90.433 E24.35488
G1 X133.153 Y91.004 E24.4382
G1 X133.228 Y91.085 E24.44979
G1 X133.696 Y91.605 E24.52324
G1 X133.773 Y91.694 E24.5356
G1 X134.288 Y92.311 E24.61999
G1 X134.362 Y92.402 E24.6323
G1 X134.866 Y93.053 E24.71875
G1 X134.934 Y93.146 E24.73085
G1 X135.328 Y93.695 E24.8018
G1 X135.392 Y93.787 E24.81357
G1 X135.838 Y94.457 E24.89808
G1 X135.905 Y94.561 E24.91107
G1 X136.316 Y95.234 E24.99387
G1 X136.374 Y95.334 E25.00601
G1 X136.73 Y95.968 E25.08235
G1 X136.783 Y96.066 E25.09405
G1 X137.132 Y96.742 E25.17393
G1 X137.182 Y96.843 E25.18577
G1 X137.538 Y97.597 E25.27332
G1 X137.588 Y97.71 E25.28629
G1 X137.854 Y98.335 E25.35761
G1 X137.895 Y98.435 E25.36896
G1 X138.194 Y99.21 E25.45618
G1 X138.236 Y99.324 E25.46894
G1 X138.456 Y99.966 E25.5402
G1 X138.491 Y100.076 E25.55232
G1 X138.754 Y100.946 E25.64775
G1 X138.785 Y101.057 E25.65985
G1 X138.949 Y101.68 E25.7275
G1 X138.976 Y101.788 E25.73919
G1 X139.161 Y102.606 E25.82724
G1 X139.186 Y102.729 E25.84042
G1 X139.311 Y103.405 E25.91261
G1 X139.33 Y103.516 E25.92443
G1 X139.45 Y104.324 E26.0102
G1 X139.464 Y104.436 E26.02205
G1 X139.554 Y105.239 E26.1069
G1 X139.565 Y105.356 E26.11924
G1 X139.618 Y106.063 E26.19368
G1 X139.625 Y106.181 E26.20609
G1 X139.667 Y107.297 E26.32335
G1 X139.669 Y107.384 E26.33249
G1 X139.674 Y107.881 E26.38468
G1 X139.674 Y107.915 E26.38825
G1 X139.67 Y115.58 E27.19307
G1 X139.669 Y115.658 E27.20126
G1 X139.649 Y116.447 E27.28414
G1 X139.642 Y116.594 E27.29959
G1 X139.566 Y117.652 E27.41096
G1 X139.555 Y117.768 E27.4232
G1 X139.477 Y118.486 E27.49903
G1 X139.462 Y118.604 E27.51152
G1 X139.351 Y119.361 E27.59186
G1 X139.333 Y119.47 E27.60346
G1 X139.198 Y120.21 E27.68244
G1 X139.174 Y120.329 E27.69519
G1 X138.994 Y121.139 E27.78231
G1 X138.968 Y121.247 E27.79398
G1 X138.799 Y121.899 E27.8647
G1 X138.767 Y122.015 E27.87733
G1 X138.517 Y122.848 E27.96865
G1 X138.483 Y122.955 E27.98044
G1 X138.257 Y123.621 E28.05429
G1 X138.218 Y123.73 E28.06644
G1 X137.94 Y124.461 E28.14856
G1 X137.895 Y124.572 E28.16114
G1 X137.601 Y125.265 E28.24018
G1 X137.555 Y125.369 E28.25212
G1 X137.229 Y126.067 E28.33301
G1 X137.179 Y126.169 E28.34494
G1 X136.825 Y126.861 E28.42655
G1 X136.767 Y126.968 E28.43933
G1 X136.384 Y127.651 E28.52155
G1 X136.327 Y127.748 E28.53337
G1 X135.965 Y128.343 E28.6065
G1 X135.906 Y128.438 E28.61824
G1 X135.443 Y129.142 E28.70671
G1 X135.373 Y129.244 E28.7197
G1 X134.924 Y129.872 E28.80076
G1 X134.858 Y129.96 E28.81231
G1 X134.463 Y130.474 E28.88038
G1 X134.387 Y130.569 E28.89315
G1 X133.815 Y131.257 E28.9871
G1 X133.741 Y131.343 E28.99901
G1 X133.27 Y131.87 E29.07322
G1 X133.192 Y131.954 E29.08526
G1 X132.648 Y132.52 E29.16769
G1 X132.563 Y132.605 E29.18031
